;FLAVOR:Marlin
;TIME:683
;Filament used: 0.326485m
;Layer height: 0.2
;MINX:109.031
;MINY:104.989
;MINZ:0.2
;MAXX:132.3
;MAXY:130.007
;MAXZ:4.8
;Generated with Cura_SteamEngine 99.10.0-Arachne_engine_beta_2
M140 S60
M105
M190 S60
M104 S205
M105
M109 S205
M82 ;absolute extrusion mode
; Ender 3 Custom Start G-code
G92 E0 ; Reset Extruder
G28 ; Home all axes
;G29 ; Auto bed leveling (ABL)
G1 Z2.0 F3000 ; Move Z Axis up little to prevent scratching of Heat Bed
G1 X0.1 Y20 Z0.3 F5000.0 ; Move to start position
G1 X0.1 Y200.0 Z0.3 F1500.0 E15 ; Draw the first line
G1 X0.4 Y200.0 Z0.3 F5000.0 ; Move to side a little
G1 X0.4 Y20 Z0.3 F1500.0 E30 ; Draw the second line
G92 E0 ; Reset Extruder
G1 Z2.0 F3000 ; Move Z Axis up little to prevent scratching of Heat Bed
G1 X5 Y20 Z0.3 F5000.0 ; Move over to prevent blob squish
G92 E0
G92 E0
G1 F2700 E-5
;LAYER_COUNT:24
;LAYER:0
M107
;MESH:OpenDials_v3-ClosingPin.stl(1)
G0 F6000 X115.607 Y111.604 Z0.2
;TYPE:WALL-INNER
G1 F2700 E0
G1 F1200 X116.844 Y110.986 E0.04599
G1 X116.844 Y109.424 E0.09794
G1 X115.607 Y108.806 E0.14394
G1 X111.143 Y108.805 E0.29241
G1 X111.145 Y111.605 E0.38554
G1 X115.607 Y111.604 E0.53394
G0 F6000 X110.844 Y111.895
G0 X110.844 Y112.005
G1 F1200 X115.701 Y112.004 E0.69549
G1 X117.244 Y111.234 E0.75284
G1 X117.244 Y109.176 E0.82129
G1 X115.701 Y108.406 E0.87865
G1 X110.844 Y108.405 E1.04019
G1 X110.742 Y108.32 E1.04461
G1 X110.746 Y112.103 E1.17043
G1 X110.844 Y112.005 E1.17504
G1 F2700 E-3.82496
G0 F6000 X110.844 Y111.895
G0 X110.57 Y112.181
G0 X109.481 Y112.183
G0 X109.484 Y115.371
G0 X110.324 Y115.37
;TYPE:WALL-OUTER
G1 F2700 E1.17504
G1 F1379.3 X110.67 Y115.424 E1.18518
G1 X110.67 Y112.605 E1.26675
G1 F1283.4 X110.844 Y112.405 E1.27499
G1 F1200 X115.795 Y112.404 E1.43966
G1 X117.644 Y111.481 E1.5084
G1 X117.644 Y108.929 E1.59328
G1 X115.795 Y108.006 E1.66201
G1 X110.844 Y108.005 E1.82668
G1 F1280 X110.669 Y107.805 E1.83497
G1 F1363.6 X110.668 Y104.989 E1.91739
G1 F1359.8 X110.314 Y105.044 E1.92791
G1 F1363.6 X110.318 Y107.866 E2.0105
G1 F1280 X110.342 Y108.507 E2.0305
G1 F1200 X110.345 Y111.906 E2.14355
G1 F1283.4 X110.32 Y112.605 E2.16531
G1 F1379.3 X110.322 Y115.234 E2.24138
G1 X110.324 Y115.37 E2.24532
G1 F2700 E-2.75468
G0 F6000 X109.484 Y115.371
G0 X109.481 Y112.183
G0 X110.57 Y112.181
G0 X115.52 Y111.504
G1 F2700 E2.24532
G0 F6000 X115.52 Y111.244
;TYPE:SKIN
G1 F1200 X116.484 Y110.764 E2.28113
G1 X116.484 Y109.646 E2.31832
G1 X115.52 Y109.166 E2.35414
G1 X111.504 Y109.165 E2.48771
G1 X111.505 Y111.245 E2.55689
G1 X115.52 Y111.244 E2.69043
G0 F6000 X115.52 Y111.504
G0 X116.678 Y110.884
G0 X116.744 Y110.061
G0 X116.283 Y110.061
G1 F1200 X115.703 Y109.481 E2.71771
G0 F6000 X115.022 Y109.366
G1 F1200 X116.283 Y110.626 E2.777
G0 F6000 X115.914 Y110.823
G1 F1200 X114.457 Y109.366 E2.84553
G0 F6000 X113.891 Y109.366
G1 F1200 X115.537 Y111.011 E2.92293
G0 F6000 X115.003 Y111.044
G1 F1200 X113.325 Y109.366 E3.00186
G0 F6000 X112.76 Y109.366
G1 F1200 X114.438 Y111.044 E3.08079
G0 F6000 X113.872 Y111.044
G1 F1200 X112.194 Y109.366 E3.15972
G0 F6000 X111.703 Y109.44
G1 F1200 X113.307 Y111.044 E3.23516
G0 F6000 X112.741 Y111.044
G1 F1200 X111.703 Y110.006 E3.28399
G0 F6000 X111.703 Y110.572
G1 F1200 X112.176 Y111.044 E3.30621
G0 F6000 X112.176 Y111.595
G1 F2700 E-1.69379
;MESH:OpenDials_v3-ClosingPin.stl
G0 F6000 X115.237 Y112.175
G0 X115.237 Y113.27
G0 X115.237 Y114.435
G0 X115.237 Y115.53
G0 X114.166 Y116.821
G0 X114.166 Y118.179
G0 X115.237 Y118.9
;TYPE:WALL-INNER
G1 F2700 E3.30621
G1 F1200 X119.701 Y118.901 E3.45469
G1 X119.698 Y116.1 E3.54785
G1 X115.237 Y116.1 E3.69622
G1 X114 Y116.719 E3.74223
G1 X114 Y118.281 E3.79418
G1 X115.237 Y118.9 E3.84019
G0 F6000 X120 Y119.19
G0 X120 Y119.3
G1 F1200 X120.102 Y119.402 E3.84498
G1 X120.098 Y115.619 E3.97081
G1 X120 Y115.7 E3.97504
G1 X115.143 Y115.7 E4.13658
G1 X113.6 Y116.471 E4.19395
G1 X113.6 Y118.529 E4.2624
G1 X115.143 Y119.3 E4.31977
G1 X120 Y119.3 E4.48132
G1 F2700 E-0.51868
G0 F6000 X120 Y119.19
G0 X120.278 Y119.476
G0 X121.367 Y119.474
G0 X121.37 Y122.661
G0 X120.529 Y122.662
;TYPE:WALL-OUTER
G1 F2700 E4.48132
G1 F1363.6 X120.527 Y119.9 E4.56216
G1 F1280 X120.502 Y119.199 E4.58403
G1 F1200 X120.498 Y115.798 E4.69715
G1 F1280 X120.524 Y115.1 E4.71893
G1 F1375.4 X120.52 Y112.334 E4.79919
G1 F1379.3 X120.175 Y112.282 E4.80929
G1 X120.174 Y115.13 E4.8917
G1 F1283.4 X120 Y115.3 E4.89926
G1 F1200 X115.049 Y115.3 E5.06394
G1 X113.2 Y116.224 E5.13269
G1 X113.2 Y118.776 E5.21757
G1 X115.049 Y119.7 E5.28631
G1 X120 Y119.7 E5.45099
G1 F1280 X120.175 Y119.9 E5.45927
G1 F1363.6 X120.176 Y122.716 E5.54169
G1 F1359.8 X120.529 Y122.662 E5.55218
G1 F2700 E0.55218
G0 F6000 X121.37 Y122.661
G0 X121.367 Y119.474
G0 X120.278 Y119.476
G0 X115.324 Y118.8
G1 F2700 E5.55218
G0 F6000 X115.324 Y118.54
;TYPE:SKIN
G1 F1200 X119.34 Y118.541 E5.68575
G1 X119.338 Y116.46 E5.75496
G1 X115.324 Y116.46 E5.88847
G1 X114.361 Y116.941 E5.92427
G1 X114.361 Y118.059 E5.96146
G1 X115.324 Y118.54 E5.99726
G0 F6000 X115.324 Y118.8
G0 X114.166 Y118.179
G0 X114.1 Y117.389
G0 X114.561 Y117.389
G1 F1200 X115.51 Y118.339 E6.04192
G0 F6000 X116.076 Y118.339
G1 F1200 X114.721 Y116.984 E6.10566
G0 F6000 X115.098 Y116.795
G1 F1200 X116.642 Y118.339 E6.17828
G0 F6000 X117.208 Y118.339
G1 F1200 X115.528 Y116.659 E6.2573
G0 F6000 X116.094 Y116.659
G1 F1200 X117.774 Y118.339 E6.33632
G0 F6000 X118.34 Y118.34
G1 F1200 X116.659 Y116.659 E6.41539
G0 F6000 X117.225 Y116.659
G1 F1200 X118.906 Y118.34 E6.49446
G0 F6000 X119.139 Y118.007
G1 F1200 X117.791 Y116.659 E6.55787
G0 F6000 X118.356 Y116.659
G1 F1200 X119.138 Y117.441 E6.59465
G0 F6000 X119.138 Y116.875
G1 F1200 X118.922 Y116.659 E6.60481
G0 F6000 X118.922 Y116.11
G1 F2700 E1.60481
;MESH:OpenDials_v3-ClosingPin.stl(2)
G0 F6000 X119.526 Y116.272
G0 X119.529 Y118.729
G0 X115.594 Y119.47
G0 X115.594 Y120.565
G0 X115.594 Y121.723
G0 X115.594 Y122.818
G0 X116.665 Y124.109
G0 X116.665 Y125.467
G0 X115.594 Y126.187
;TYPE:WALL-INNER
G1 F2700 E6.60481
G1 F1200 X116.831 Y125.569 E6.6508
G1 X116.831 Y124.007 E6.70276
G1 X115.594 Y123.389 E6.74875
G1 X111.131 Y123.388 E6.89719
G1 X111.133 Y126.188 E6.99032
G1 X115.594 Y126.187 E7.13869
G0 F6000 X110.831 Y126.478
G0 X110.831 Y126.588
G1 F1200 X115.688 Y126.587 E7.30023
G1 X117.231 Y125.817 E7.35759
G1 X117.231 Y123.759 E7.42604
G1 X115.688 Y122.989 E7.48339
G1 X110.831 Y122.988 E7.64494
G1 X110.73 Y122.903 E7.64933
G1 X110.733 Y126.686 E7.77515
G1 X110.831 Y126.588 E7.77976
G1 F2700 E2.77976
G0 F6000 X110.831 Y126.478
G0 X110.658 Y126.758
G0 X111.484 Y127.841
G0 X111.496 Y129.817
G0 X110.658 Y129.817
;TYPE:WALL-OUTER
G1 F2700 E7.77976
G1 F1379.3 X110.657 Y127.188 E7.85584
G1 F1283.4 X110.831 Y126.988 E7.86408
G1 F1200 X115.782 Y126.987 E8.02875
G1 X117.631 Y126.064 E8.09748
G1 X117.631 Y123.512 E8.18236
G1 X115.782 Y122.589 E8.2511
G1 X110.831 Y122.588 E8.41577
G1 F1280 X110.656 Y122.388 E8.42406
G1 F1367.5 X110.655 Y119.571 E8.50627
G1 F1363.6 X110.303 Y119.626 E8.5167
G1 F1367.5 X110.304 Y122.388 E8.59731
G1 F1363.6 X110.306 Y122.449 E8.5991
G1 F1273.2 X110.33 Y123.089 E8.61917
G1 F1200 X110.333 Y126.49 E8.73229
G1 F1283.4 X110.307 Y127.188 E8.75401
G1 F1379.3 X110.31 Y129.954 E8.83405
G1 F1383.3 X110.658 Y130.007 E8.84421
G1 X110.658 Y129.817 E8.84969
G1 F2700 E3.84969
G0 F6000 X111.496 Y129.817
G0 X111.484 Y127.841
G0 X110.658 Y126.758
G0 X115.507 Y126.087
G1 F2700 E8.84969
G0 F6000 X115.507 Y125.827
;TYPE:SKIN
G1 F1200 X116.471 Y125.347 E8.88551
G1 X116.471 Y124.229 E8.92269
G1 X115.507 Y123.749 E8.95851
G1 X111.492 Y123.748 E9.09205
G1 X111.493 Y125.828 E9.16123
G1 X115.507 Y125.827 E9.29474
G0 F6000 X115.507 Y126.087
G0 X116.665 Y125.467
G0 X116.731 Y124.756
G0 X116.27 Y124.756
G1 F1200 X115.465 Y123.95 E9.33263
G0 F6000 X114.897 Y123.948
G1 F1200 X116.204 Y125.255 E9.3941
G0 F6000 X115.826 Y125.443
G1 F1200 X114.331 Y123.948 E9.46442
G0 F6000 X113.765 Y123.948
G1 F1200 X115.444 Y125.626 E9.54337
G0 F6000 X114.878 Y125.626
G1 F1200 X113.2 Y123.948 E9.6223
G0 F6000 X112.634 Y123.948
G1 F1200 X114.313 Y125.626 E9.70125
G0 F6000 X113.747 Y125.626
G1 F1200 X112.068 Y123.948 E9.78021
G0 F6000 X111.691 Y124.136
G1 F1200 X113.181 Y125.626 E9.85029
G0 F6000 X112.615 Y125.626
G1 F1200 X111.691 Y124.702 E9.89375
G0 F6000 X111.692 Y125.268
G1 F1200 X112.05 Y125.626 E9.91059
G0 F6000 X112.05 Y126.178
G1 F2700 E4.91059
;MESH:OpenDials_v3-ClosingPin.stl(3)
G0 F6000 X115.555 Y126.025
G0 X116.665 Y125.467
G0 X117.404 Y123.652
G0 X117.891 Y122.676
G0 X119.345 Y123.078
G0 X119.347 Y123.553
G0 X120.509 Y123.533
G0 X121.362 Y123.316
G0 X123.44 Y119.613
G0 X123.927 Y118.637
G0 X125.737 Y118.9
;TYPE:WALL-INNER
G1 F2700 E9.91059
G1 F1200 X130.201 Y118.901 E10.05907
G1 X130.198 Y116.1 E10.15223
G1 X125.737 Y116.1 E10.3006
G1 X124.5 Y116.719 E10.34661
G1 X124.5 Y118.281 E10.39856
G1 X125.737 Y118.9 E10.44457
G0 F6000 X125.643 Y119.3
G1 F1200 X130.5 Y119.3 E10.60611
G1 X130.602 Y119.402 E10.61091
G1 X130.598 Y115.619 E10.73673
G1 X130.5 Y115.7 E10.74096
G1 X125.643 Y115.7 E10.9025
G1 X124.1 Y116.471 E10.95987
G1 X124.1 Y118.529 E11.02832
G1 X125.643 Y119.3 E11.08569
G1 F2700 E6.08569
G0 F6000 X125.667 Y119.193
G0 X130.778 Y119.476
G0 X131.867 Y119.474
G0 X131.87 Y122.661
G0 X131.029 Y122.662
;TYPE:WALL-OUTER
G1 F2700 E11.08569
G1 F1363.6 X131.027 Y119.9 E11.16654
G1 F1280 X131.002 Y119.199 E11.18841
G1 F1200 X130.998 Y115.798 E11.30153
G1 F1280 X131.024 Y115.1 E11.3233
G1 F1375.4 X131.02 Y112.334 E11.40357
G1 F1379.3 X130.675 Y112.282 E11.41367
G1 X130.674 Y115.13 E11.49608
G1 F1283.4 X130.5 Y115.3 E11.50364
G1 F1200 X125.549 Y115.3 E11.66832
G1 X123.7 Y116.224 E11.73706
G1 X123.7 Y118.776 E11.82194
G1 X125.549 Y119.7 E11.89069
G1 X130.5 Y119.7 E12.05536
G1 F1280 X130.675 Y119.9 E12.06365
G1 F1363.6 X130.676 Y122.716 E12.14607
G1 F1359.8 X131.029 Y122.662 E12.15655
G1 F2700 E7.15655
G0 F6000 X131.87 Y122.661
G0 X131.867 Y119.474
G0 X130.778 Y119.476
G0 X125.824 Y118.8
G1 F2700 E12.15655
G0 F6000 X125.824 Y118.54
;TYPE:SKIN
G1 F1200 X129.84 Y118.541 E12.29013
G1 X129.838 Y116.46 E12.35934
G1 X125.824 Y116.46 E12.49285
G1 X124.861 Y116.941 E12.52865
G1 X124.861 Y118.059 E12.56584
G1 X125.824 Y118.54 E12.60164
G0 F6000 X125.824 Y118.8
G0 X124.666 Y118.179
G0 X124.6 Y117.706
G0 X125.06 Y117.706
G1 F1200 X125.517 Y118.163 E12.62313
G0 F6000 X126.259 Y118.339
G1 F1200 X125.06 Y117.14 E12.67953
G0 F6000 X125.387 Y116.901
G1 F1200 X126.825 Y118.339 E12.74717
G0 F6000 X127.39 Y118.339
G1 F1200 X125.764 Y116.713 E12.82365
G0 F6000 X126.276 Y116.659
G1 F1200 X127.957 Y118.34 E12.90272
G0 F6000 X128.523 Y118.34
G1 F1200 X126.842 Y116.659 E12.98179
G0 F6000 X127.407 Y116.659
G1 F1200 X129.088 Y118.34 E13.06086
G0 F6000 X129.639 Y118.325
G1 F1200 X127.973 Y116.659 E13.13922
G0 F6000 X128.539 Y116.659
G1 F1200 X129.638 Y117.759 E13.19094
G0 F6000 X129.638 Y117.193
G1 F1200 X129.104 Y116.659 E13.21606
G0 F6000 X129.104 Y116.11
G1 F2700 E8.21606
;MESH:NONMESH
G0 F300 X129.104 Y116.11 Z0.4
G0 F6000 X123.927 Y116.364
G0 X122.835 Y116.364
G0 X121.35 Y111.697
G0 X120.552 Y111.473
G0 X119.347 Y111.447
G0 X119.225 Y112.299
G0 X116.232 Y113.153
G0 X115.743 Y112.176
G0 X110.855 Y111.723
G1 F2700 E13.21606
G0 F6000 X110.726 Y111.723
;TIME_ELAPSED:39.950602
;LAYER:1
M140 S50
M106 S85
;TYPE:WALL-INNER
;MESH:OpenDials_v3-ClosingPin.stl(1)
G1 F1350 X110.844 Y111.605 E13.22161
G1 X115.607 Y111.604 E13.38003
G1 X116.844 Y110.986 E13.42602
G1 X116.844 Y109.424 E13.47797
G1 X115.607 Y108.806 E13.52396
G1 X110.844 Y108.805 E13.68238
G1 X110.728 Y108.708 E13.68741
G1 X110.726 Y111.723 E13.78769
G0 F7500 X110.285 Y112.605
G1 F1504.2 X110.844 Y112.005 E13.81217
G1 F1350 X115.701 Y112.004 E13.97371
G1 X117.244 Y111.234 E14.03107
G1 X117.244 Y109.176 E14.09952
G1 X115.701 Y108.406 E14.15687
G1 X110.844 Y108.405 E14.31842
G1 F1491.7 X110.29 Y107.902 E14.34094
G1 X110.328 Y108.921 E14.37163
G1 F1350 X110.327 Y111.487 E14.45698
G1 F1504.2 X110.285 Y112.605 E14.49038
G1 F2700 E9.49038
G0 F7500 X110.406 Y111.925
G0 X110.374 Y115.079
G1 F2700 E14.49038
G0 F7500 X110.644 Y115.395
;TYPE:WALL-OUTER
G1 F1350 X110.642 Y114.961 E14.50481
G1 X110.644 Y112.605 E14.58317
G1 X110.844 Y112.405 E14.59258
G1 X115.795 Y112.404 E14.75725
G1 X117.644 Y111.481 E14.82599
G1 X117.644 Y108.929 E14.91087
G1 X115.795 Y108.006 E14.9796
G1 X110.844 Y108.005 E15.14427
G1 X110.646 Y107.84 E15.15284
G1 X110.644 Y107.805 E15.15401
G1 X110.644 Y105.015 E15.24681
G1 X110.25 Y105.084 E15.26011
G1 X109.95 Y105.203 E15.27084
G1 X109.93 Y105.451 E15.27912
G1 X109.925 Y115.181 E15.60274
G1 X110.154 Y115.296 E15.61126
G1 X110.436 Y115.374 E15.62099
G1 X110.644 Y115.395 E15.62795
G0 F7500 X110.282 Y114.961
;TYPE:WALL-INNER
G1 F1708.9 X110.285 Y112.605 E15.68985
G0 F7500 X110.406 Y111.925
G0 X110.408 Y108.485
G0 X110.29 Y107.902
G1 F1687.5 X110.286 Y107.805 E15.69244
G1 F1714.3 X110.287 Y105.451 E15.75409
G1 F2700 E10.75409
G0 F7500 X110.406 Y108.243
G0 X115.65 Y108.617
G0 X116.984 Y109.337
G0 X116.984 Y111.073
G0 X115.52 Y111.504
G1 F2700 E15.75409
G0 F7500 X115.52 Y111.244
;TYPE:SKIN
G1 F1350 X116.484 Y110.764 E15.78991
G1 X116.484 Y109.646 E15.8271
G1 X115.52 Y109.166 E15.86291
G1 X111.088 Y109.166 E16.01032
G1 X111.088 Y111.244 E16.07944
G1 X115.52 Y111.244 E16.22685
G0 F7500 X115.52 Y111.504
G0 X116.678 Y110.884
G0 X116.744 Y110.556
G0 X116.283 Y110.556
G1 F1350 X116.116 Y110.723 E16.2347
G0 F7500 X116.283 Y109.991
G1 F1350 X115.23 Y111.044 E16.28423
G0 F7500 X114.664 Y111.044
G1 F1350 X116.053 Y109.654 E16.34959
G0 F7500 X115.676 Y109.466
G1 F1350 X114.098 Y111.044 E16.42381
G0 F7500 X113.533 Y111.044
G1 F1350 X115.211 Y109.365 E16.50276
G0 F7500 X114.646 Y109.365
G1 F1350 X112.967 Y111.044 E16.58174
G0 F7500 X112.401 Y111.044
G1 F1350 X114.08 Y109.365 E16.66071
G0 F7500 X113.514 Y109.365
G1 F1350 X111.836 Y111.044 E16.73967
G0 F7500 X111.287 Y111.027
G1 F1350 X112.948 Y109.365 E16.81782
G0 F7500 X112.383 Y109.365
G1 F1350 X111.287 Y110.461 E16.86937
G0 F7500 X111.287 Y109.895
G1 F1350 X111.817 Y109.365 E16.8943
G0 F7500 X111.817 Y108.815
G1 F2700 E11.8943
;MESH:OpenDials_v3-ClosingPin.stl
G0 F7500 X110.9 Y108.977
G0 X110.899 Y111.433
G0 X115.743 Y112.176
G0 X115.743 Y113.27
G0 X115.743 Y114.435
G0 X115.743 Y115.53
G0 X119.944 Y116.272
G0 X120.115 Y119.014
;TYPE:WALL-INNER
G1 F2700 E16.8943
G1 F1350 X120.117 Y116.002 E16.99448
G1 X120 Y116.1 E16.99956
G1 X115.237 Y116.1 E17.15797
G1 X114 Y116.719 E17.20398
G1 X114 Y118.281 E17.25593
G1 X115.237 Y118.9 E17.30194
G1 X120 Y118.899 E17.46036
G1 X120.115 Y119.014 E17.46577
G0 F7500 X120.558 Y119.9
G1 F1512.6 X120.515 Y118.784 E17.49892
G1 F1350 X120.517 Y116.217 E17.5843
G1 F1491.7 X120.555 Y115.197 E17.61502
G1 X120 Y115.7 E17.63757
G1 F1350 X115.143 Y115.7 E17.79911
G1 X113.6 Y116.471 E17.85648
G1 X113.6 Y118.529 E17.92493
G1 X115.143 Y119.3 E17.9823
G1 X120 Y119.299 E18.14385
G1 F1512.6 X120.558 Y119.9 E18.16819
G1 F2700 E13.16819
G0 F7500 X120.436 Y119.22
G0 X120.471 Y122.372
G1 F2700 E18.16819
G0 F7500 X120.2 Y122.69
;TYPE:WALL-OUTER
G1 F1350 X120.593 Y122.621 E18.18146
G1 X120.894 Y122.502 E18.19223
G1 X120.914 Y122.254 E18.2005
G1 X120.918 Y112.524 E18.52412
G1 X120.689 Y112.408 E18.53266
G1 X120.407 Y112.331 E18.54238
G1 X120.201 Y112.311 E18.54927
G1 X120.201 Y115.1 E18.64203
G1 X120.198 Y115.135 E18.6432
G1 X120 Y115.3 E18.65177
G1 X115.049 Y115.3 E18.81644
G1 X113.2 Y116.224 E18.88519
G1 X113.2 Y118.776 E18.97007
G1 X115.049 Y119.7 E19.03882
G1 X120 Y119.699 E19.20349
G1 X120.201 Y119.9 E19.21295
G1 X120.2 Y122.69 E19.30574
G0 F7500 X120.557 Y122.254
;TYPE:WALL-INNER
G1 F1719.7 X120.558 Y119.9 E19.3672
G0 F7500 X120.436 Y119.22
G0 X120.437 Y115.78
G0 X120.555 Y115.197
G1 F1687.5 X120.559 Y115.1 E19.36979
G1 F1703.5 X120.559 Y112.745 E19.43186
G1 F2700 E14.43186
G0 F7500 X120.451 Y115.258
G0 X120.015 Y118.54
G1 F2700 E19.43186
G0 F7500 X119.755 Y118.539
;TYPE:SKIN
G1 F1350 X119.755 Y116.461 E19.50098
G1 X115.324 Y116.46 E19.64835
G1 X114.361 Y116.941 E19.68415
G1 X114.361 Y118.059 E19.72134
G1 X115.324 Y118.54 E19.75714
G1 X119.755 Y118.539 E19.90452
G0 F7500 X119.554 Y118.033
