;FLAVOR:Marlin
;TIME:13796
;Filament used: 9.47534m
;Layer height: 0.2
;MINX:56.835
;MINY:81.835
;MINZ:0.2
;MAXX:178.164
;MAXY:153.165
;MAXZ:16
;Generated with Cura_SteamEngine 99.10.0-Arachne_engine_beta_2
M140 S60
M105
M190 S60
M104 S205
M105
M109 S205
M82 ;absolute extrusion mode
; Ender 3 Custom Start G-code
G92 E0 ; Reset Extruder
G28 ; Home all axes
;G29 ; Auto bed leveling (ABL)
G1 Z2.0 F3000 ; Move Z Axis up little to prevent scratching of Heat Bed
G1 X0.1 Y20 Z0.3 F5000.0 ; Move to start position
G1 X0.1 Y200.0 Z0.3 F1500.0 E15 ; Draw the first line
G1 X0.4 Y200.0 Z0.3 F5000.0 ; Move to side a little
G1 X0.4 Y20 Z0.3 F1500.0 E30 ; Draw the second line
G92 E0 ; Reset Extruder
G1 Z2.0 F3000 ; Move Z Axis up little to prevent scratching of Heat Bed
G1 X5 Y20 Z0.3 F5000.0 ; Move over to prevent blob squish
G92 E0
G92 E0
G1 F2700 E-5
;LAYER_COUNT:80
;LAYER:0
M107
;MESH:OpenDials_v3-Top.stl
G0 F6000 X94.378 Y106.049 Z0.2
;TYPE:WALL-INNER
G1 F2700 E0
G1 F1200 X94.058 Y106.166 E0.01133
G1 X93.737 Y106.265 E0.02251
G1 X93.423 Y106.344 E0.03327
G1 X93.102 Y106.405 E0.04414
G1 X92.786 Y106.452 E0.05477
G1 X92.463 Y106.484 E0.06556
G1 X92.149 Y106.498 E0.07602
G1 X91.814 Y106.497 E0.08716
G1 X91.489 Y106.481 E0.09798
G1 X91.164 Y106.446 E0.10885
G1 X90.838 Y106.395 E0.11983
G1 X90.543 Y106.335 E0.12984
G1 X90.22 Y106.253 E0.14093
G1 X89.9 Y106.153 E0.15208
G1 X89.604 Y106.042 E0.16259
G1 X89.303 Y105.915 E0.17346
G1 X89.012 Y105.773 E0.18423
G1 X88.77 Y105.641 E0.19339
G1 X88.467 Y105.456 E0.2052
G1 X88.198 Y105.274 E0.216
G1 X87.928 Y105.065 E0.22736
G1 X87.718 Y104.89 E0.23645
G1 X87.469 Y104.662 E0.24768
G1 X87.249 Y104.437 E0.25815
G1 X87.037 Y104.199 E0.26875
G1 X86.83 Y103.94 E0.27978
G1 X86.642 Y103.68 E0.29045
G1 X86.467 Y103.414 E0.30104
G1 X86.301 Y103.127 E0.31207
G1 X86.133 Y102.798 E0.32435
G1 X86.023 Y102.555 E0.33322
G1 X85.887 Y102.209 E0.34559
G1 X85.798 Y101.95 E0.3547
G1 X85.695 Y101.585 E0.36731
G1 X85.62 Y101.254 E0.3786
G1 X85.566 Y100.921 E0.38982
G1 X85.531 Y100.643 E0.39914
G1 X85.507 Y100.299 E0.41061
G1 X85.5 Y100.002 E0.42049
G1 X85.508 Y99.676 E0.43134
G1 X85.529 Y99.379 E0.44124
G1 X85.568 Y99.056 E0.45206
G1 X85.622 Y98.746 E0.46253
G1 X85.692 Y98.426 E0.47342
G1 X85.707 Y98.367 E0.47545
G1 X85.797 Y98.057 E0.48618
G1 X85.894 Y97.773 E0.49616
G1 X85.998 Y97.503 E0.50579
G1 X86.134 Y97.2 E0.51683
G1 X86.276 Y96.917 E0.52737
G1 X86.443 Y96.628 E0.53847
G1 X86.616 Y96.359 E0.5491
G1 X86.799 Y96.1 E0.55965
G1 X86.848 Y96.036 E0.56233
G1 X87.2 Y95.616 E0.58056
G1 X87.256 Y95.555 E0.58331
G1 X87.479 Y95.33 E0.59385
G1 X87.714 Y95.113 E0.60449
G1 X87.923 Y94.936 E0.6136
G1 X88.187 Y94.735 E0.62463
G1 X88.452 Y94.553 E0.63533
G1 X88.727 Y94.383 E0.64608
G1 X89.014 Y94.226 E0.65696
G1 X89.308 Y94.084 E0.66782
G1 X89.601 Y93.959 E0.67841
G1 X89.897 Y93.849 E0.68892
G1 X90.21 Y93.75 E0.69984
G1 X90.542 Y93.664 E0.71124
G1 X90.872 Y93.598 E0.72244
G1 X91.214 Y93.548 E0.73393
G1 X91.541 Y93.516 E0.74486
G1 X91.864 Y93.502 E0.75561
G1 X92.186 Y93.503 E0.76632
G1 X92.513 Y93.52 E0.77721
G1 X92.836 Y93.554 E0.78802
G1 X93.15 Y93.603 E0.79859
G1 X93.407 Y93.653 E0.80729
G1 X93.735 Y93.735 E0.81854
G1 X94.054 Y93.832 E0.82963
G1 X94.108 Y93.85 E0.83152
G1 X94.396 Y93.958 E0.84175
G1 X94.649 Y94.064 E0.85088
G1 X94.944 Y94.204 E0.86174
G1 X95.273 Y94.384 E0.87421
G1 X95.544 Y94.551 E0.8848
G1 X95.822 Y94.74 E0.89598
G1 X96.072 Y94.934 E0.9065
G1 X96.316 Y95.14 E0.91712
G1 X96.558 Y95.365 E0.92811
G1 X96.78 Y95.596 E0.93877
G1 X96.999 Y95.844 E0.94977
G1 X97.197 Y96.096 E0.96043
G1 X97.38 Y96.353 E0.97093
G1 X97.533 Y96.586 E0.9802
G1 X97.568 Y96.643 E0.98242
G1 X97.712 Y96.899 E0.99219
G1 X97.867 Y97.203 E1.00354
G1 X97.98 Y97.452 E1.01264
G1 X98.099 Y97.752 E1.02337
G1 X98.203 Y98.053 E1.03396
G1 X98.221 Y98.11 E1.03595
G1 X98.306 Y98.42 E1.04664
G1 X98.381 Y98.754 E1.05803
G1 X98.432 Y99.056 E1.06821
G1 X98.471 Y99.379 E1.07904
G1 X98.493 Y99.701 E1.08977
G1 X98.5 Y100.025 E1.10055
G1 X98.491 Y100.348 E1.1113
G1 X98.466 Y100.671 E1.12207
G1 X98.424 Y100.997 E1.133
G1 X98.37 Y101.294 E1.14304
G1 X98.301 Y101.604 E1.15361
G1 X98.203 Y101.943 E1.16534
G1 X98.106 Y102.227 E1.17533
G1 X97.991 Y102.524 E1.18592
G1 X97.847 Y102.84 E1.19747
G1 X97.696 Y103.134 E1.20846
G1 X97.546 Y103.391 E1.21836
G1 X97.361 Y103.675 E1.22963
G1 X97.165 Y103.948 E1.24081
G1 X96.774 Y104.414 E1.26104
G1 X96.521 Y104.67 E1.27301
G1 X96.286 Y104.887 E1.28365
G1 X96.033 Y105.099 E1.29463
G1 X95.79 Y105.281 E1.30473
G1 X95.548 Y105.447 E1.31449
G1 X95.251 Y105.63 E1.32609
G1 X94.953 Y105.79 E1.33734
G1 X94.65 Y105.935 E1.34851
G1 X94.378 Y106.049 E1.35832
G1 F2700 E-3.64168
G0 F6000 X92.533 Y106.66
G0 X92.138 Y104.834
G0 X79.813 Y115.478
G0 X81.601 Y116.027
G0 X79.901 Y118.713
G0 X78.236 Y120.638
G1 F2700 E1.35832
G1 F1200 X77.976 Y120.779 E1.36816
G1 X77.65 Y120.935 E1.38018
G1 X77.354 Y121.059 E1.39085
G1 X77.058 Y121.166 E1.40132
G1 X76.737 Y121.265 E1.4125
G1 X76.458 Y121.336 E1.42207
G1 X76.147 Y121.398 E1.43262
G1 X75.833 Y121.446 E1.44318
G1 X75.514 Y121.48 E1.45385
G1 X75.199 Y121.497 E1.46435
G1 X74.862 Y121.498 E1.47555
G1 X74.541 Y121.484 E1.48624
G1 X74.213 Y121.452 E1.4972
G1 X73.894 Y121.405 E1.50793
G1 X73.593 Y121.347 E1.51812
G1 X73.265 Y121.265 E1.52937
G1 X72.946 Y121.168 E1.54046
G1 X72.892 Y121.15 E1.54235
G1 X72.604 Y121.042 E1.55258
G1 X72.351 Y120.936 E1.5617
G1 X72.056 Y120.796 E1.57256
G1 X71.769 Y120.641 E1.58341
G1 X71.467 Y120.456 E1.59519
G1 X71.239 Y120.303 E1.60433
G1 X70.962 Y120.093 E1.61589
G1 X70.718 Y119.89 E1.62644
G1 X70.481 Y119.673 E1.63713
G1 X70.44 Y119.634 E1.63901
G1 X70.22 Y119.405 E1.64958
G1 X70 Y119.155 E1.66065
G1 X69.801 Y118.902 E1.67136
G1 X69.618 Y118.645 E1.68185
G1 X69.467 Y118.414 E1.69103
G1 X69.301 Y118.127 E1.70206
G1 X69.132 Y117.797 E1.71439
G1 X69.001 Y117.503 E1.72509
G1 X68.887 Y117.209 E1.73558
G1 X68.801 Y116.96 E1.74434
G1 X68.701 Y116.61 E1.75645
G1 X68.619 Y116.25 E1.76873
G1 X68.568 Y115.943 E1.77908
G1 X68.529 Y115.62 E1.7899
G1 X68.507 Y115.298 E1.80064
G1 X68.5 Y115.027 E1.80965
G1 X68.507 Y114.7 E1.82053
G1 X68.529 Y114.379 E1.83123
G1 X68.568 Y114.056 E1.84206
G1 X68.622 Y113.746 E1.85252
G1 X68.692 Y113.426 E1.86342
G1 X68.707 Y113.367 E1.86544
G1 X68.797 Y113.057 E1.87618
G1 X68.894 Y112.773 E1.88616
G1 X68.998 Y112.503 E1.89578
G1 X69.134 Y112.2 E1.90683
G1 X69.276 Y111.917 E1.91736
G1 X69.443 Y111.628 E1.92846
G1 X69.616 Y111.359 E1.9391
G1 X69.799 Y111.1 E1.94965
G1 X69.848 Y111.036 E1.95233
G1 X70.2 Y110.616 E1.97055
G1 X70.256 Y110.555 E1.97331
G1 X70.479 Y110.33 E1.98384
G1 X70.714 Y110.113 E1.99448
G1 X70.923 Y109.936 E2.00359
G1 X71.187 Y109.735 E2.01463
G1 X71.491 Y109.528 E2.02686
G1 X71.774 Y109.356 E2.03788
G1 X72.059 Y109.203 E2.04863
G1 X72.35 Y109.065 E2.05935
G1 X72.601 Y108.959 E2.06841
G1 X72.942 Y108.834 E2.08049
G1 X73.263 Y108.735 E2.09166
G1 X73.542 Y108.664 E2.10124
G1 X73.872 Y108.598 E2.11243
G1 X74.214 Y108.548 E2.12393
G1 X74.528 Y108.516 E2.13442
G1 X74.864 Y108.501 E2.14561
G1 X75.186 Y108.503 E2.15632
G1 X75.511 Y108.519 E2.16714
G1 X75.836 Y108.554 E2.17801
G1 X76.15 Y108.603 E2.18858
G1 X76.457 Y108.665 E2.199
G1 X76.779 Y108.747 E2.21005
G1 X77.101 Y108.848 E2.22128
G1 X77.396 Y108.958 E2.23175
G1 X77.697 Y109.085 E2.24262
G1 X77.988 Y109.228 E2.2534
G1 X78.272 Y109.384 E2.26418
G1 X78.544 Y109.551 E2.27479
G1 X78.822 Y109.74 E2.28597
G1 X79.1 Y109.957 E2.2977
G1 X79.325 Y110.148 E2.30752
G1 X79.553 Y110.36 E2.31787
G1 X79.78 Y110.595 E2.32874
G1 X79.994 Y110.839 E2.33954
G1 X80.197 Y111.096 E2.35043
G1 X80.41 Y111.396 E2.36267
G1 X80.568 Y111.642 E2.37239
G1 X80.713 Y111.899 E2.3822
G1 X80.872 Y112.213 E2.39391
G1 X80.999 Y112.497 E2.40426
G1 X81.113 Y112.791 E2.41475
G1 X81.221 Y113.111 E2.42598
G1 X81.305 Y113.414 E2.43644
G1 X81.38 Y113.746 E2.44776
G1 X81.432 Y114.056 E2.45821
G1 X81.471 Y114.379 E2.46903
G1 X81.493 Y114.701 E2.47977
G1 X81.5 Y115.023 E2.49048
G1 X81.491 Y115.348 E2.50129
G1 X81.466 Y115.671 E2.51207
G1 X81.424 Y115.995 E2.52294
G1 X81.37 Y116.294 E2.53304
G1 X81.303 Y116.595 E2.5433
G1 X81.217 Y116.898 E2.55377
G1 X81.113 Y117.208 E2.56465
G1 X81.002 Y117.497 E2.57495
G1 X80.855 Y117.823 E2.58684
G1 X80.71 Y118.109 E2.5975
G1 X80.558 Y118.371 E2.60758
G1 X80.368 Y118.666 E2.61925
G1 X80.177 Y118.933 E2.63017
G1 X79.8 Y119.384 E2.64972
G1 X79.744 Y119.445 E2.65247
G1 X79.521 Y119.67 E2.66301
G1 X79.286 Y119.887 E2.67365
G1 X79.056 Y120.081 E2.68366
G1 X78.793 Y120.28 E2.69463
G1 X78.509 Y120.472 E2.70603
G1 X78.236 Y120.638 E2.71665
G1 F2700 E-2.28335
G0 F6000 X79.194 Y120.201
G0 X78.02 Y118.776
G0 X98.726 Y133.103
G0 X96.897 Y132.804
G0 X97.005 Y133.602
G1 F2700 E2.71665
G1 F1200 X97.004 Y133.4 E2.72337
G1 X97.05 Y132.96 E2.73809
G1 X97.091 Y132.783 E2.74413
G1 X97.217 Y132.382 E2.75811
G1 X97.278 Y132.247 E2.76304
G1 X97.483 Y131.87 E2.77731
G1 X97.579 Y131.733 E2.78288
G1 X97.862 Y131.395 E2.79754
G1 X98.049 Y131.23 E2.80583
G1 X98.317 Y131.019 E2.81718
G1 X98.607 Y130.854 E2.82827
G1 X98.864 Y130.723 E2.83787
G1 X99.131 Y130.639 E2.84718
G1 X99.453 Y130.551 E2.85828
G1 X99.62 Y130.529 E2.86388
G1 X100.018 Y130.501 E2.87715
G1 X100.308 Y130.516 E2.88681
G1 X100.544 Y130.557 E2.89478
G1 X100.887 Y130.636 E2.90649
G1 X101.043 Y130.69 E2.91198
G1 X101.423 Y130.859 E2.92581
G1 X101.649 Y131.001 E2.93469
G1 X101.927 Y131.203 E2.94612
G1 X102.053 Y131.317 E2.95177
G1 X102.37 Y131.658 E2.96725
G1 X102.449 Y131.771 E2.97184
G1 X102.674 Y132.14 E2.98621
G1 X102.743 Y132.291 E2.99173
G1 X102.891 Y132.699 E3.00617
G1 X102.927 Y132.853 E3.01143
G1 X102.992 Y133.284 E3.02593
G1 X102.997 Y133.448 E3.03138
G1 X102.974 Y133.891 E3.04614
G1 X102.949 Y134.039 E3.05113
G1 X102.842 Y134.467 E3.0658
G1 X102.788 Y134.603 E3.07067
G1 X102.585 Y135.024 E3.08622
G1 X102.504 Y135.149 E3.09117
G1 X102.247 Y135.486 E3.10527
G1 X102.132 Y135.607 E3.11082
G1 X101.827 Y135.876 E3.12434
G1 X101.632 Y136.012 E3.13225
G1 X101.335 Y136.186 E3.1437
G1 X101.062 Y136.299 E3.15353
G1 X100.762 Y136.4 E3.16406
G1 F1197 X100.474 Y136.456 E3.17384
G1 F1179.4 X100.179 Y136.5 E3.18393
G1 F1173.6 X100.47 Y136.539 E3.19392
G1 F1197 X100.861 Y136.629 E3.2073
G1 F1200 X101.124 Y136.726 E3.21662
G1 X101.402 Y136.849 E3.22673
G1 X101.623 Y136.982 E3.23531
G1 X101.91 Y137.19 E3.2471
G1 X102.05 Y137.313 E3.2533
G1 X102.344 Y137.629 E3.26765
G1 X102.449 Y137.771 E3.27353
G1 X102.684 Y138.158 E3.28858
G1 X102.743 Y138.29 E3.29339
G1 X102.894 Y138.707 E3.30814
G1 X102.927 Y138.853 E3.31312
G1 X102.995 Y139.309 E3.32846
G1 X102.997 Y139.448 E3.33308
G1 X102.977 Y139.848 E3.3464
G1 X102.949 Y140.039 E3.35282
G1 X102.846 Y140.452 E3.36698
G1 X102.788 Y140.603 E3.37236
G1 X102.585 Y141.023 E3.38787
G1 X102.504 Y141.148 E3.39283
G1 X102.249 Y141.485 E3.40688
G1 X102.13 Y141.609 E3.4126
G1 X101.827 Y141.876 E3.42603
G1 X101.627 Y142.015 E3.43413
G1 X101.336 Y142.186 E3.44536
G1 X101.058 Y142.301 E3.45537
G1 X100.761 Y142.399 E3.46577
G1 F1237.1 X100.467 Y142.448 E3.47538
G1 X100.767 Y142.508 E3.48525
G1 F1200 X101.044 Y142.589 E3.49485
G1 X101.403 Y142.749 E3.50793
G1 X101.627 Y142.884 E3.51662
G1 X101.91 Y143.09 E3.52827
G1 X102.053 Y143.217 E3.53463
G1 X102.343 Y143.527 E3.54875
G1 X102.449 Y143.671 E3.55469
G1 X102.683 Y144.057 E3.56971
G1 X102.743 Y144.19 E3.57456
G1 X102.897 Y144.618 E3.58969
G1 X102.927 Y144.753 E3.59429
G1 X102.987 Y145.147 E3.60754
G1 X102.997 Y145.348 E3.61424
G1 X102.977 Y145.748 E3.62756
G1 X102.949 Y145.939 E3.63398
G1 X102.857 Y146.311 E3.64672
G1 X102.788 Y146.503 E3.65351
G1 X102.609 Y146.876 E3.66727
G1 X102.504 Y147.048 E3.67397
G1 X102.264 Y147.364 E3.68717
G1 X102.129 Y147.51 E3.69379
G1 X101.827 Y147.776 E3.70717
G1 X101.671 Y147.888 E3.71356
G1 X101.336 Y148.085 E3.72648
G1 X101.146 Y148.171 E3.73342
G1 X100.762 Y148.299 E3.74688
G1 X100.57 Y148.343 E3.75343
G1 X100.179 Y148.392 E3.76654
G1 X99.989 Y148.398 E3.77286
G1 X99.6 Y148.373 E3.78583
G1 X99.391 Y148.336 E3.79289
G1 X98.994 Y148.223 E3.80662
G1 X98.81 Y148.151 E3.81319
G1 X98.462 Y147.972 E3.8262
G1 X98.3 Y147.868 E3.83261
G1 X97.983 Y147.618 E3.84604
G1 X97.834 Y147.473 E3.85295
G1 X97.579 Y147.167 E3.8662
G1 X97.469 Y147.005 E3.87271
G1 X97.278 Y146.653 E3.88603
G1 X97.201 Y146.471 E3.8926
G1 X97.084 Y146.093 E3.90577
G1 X97.044 Y145.898 E3.91239
G1 X97.005 Y145.502 E3.92562
G1 X97.004 Y145.3 E3.93234
G1 X97.044 Y144.903 E3.94561
G1 X97.084 Y144.707 E3.95226
G1 X97.212 Y144.297 E3.96655
G1 X97.278 Y144.146 E3.97203
G1 X97.469 Y143.796 E3.98529
G1 X97.579 Y143.633 E3.99183
G1 X97.834 Y143.327 E4.00508
G1 X97.981 Y143.183 E4.01193
G1 X98.294 Y142.935 E4.02521
G1 X98.462 Y142.828 E4.03183
G1 X98.81 Y142.649 E4.04485
G1 X98.994 Y142.576 E4.05143
G1 X99.391 Y142.465 E4.06514
G1 X99.469 Y142.452 E4.06777
G1 X99.397 Y142.44 E4.0702
G1 X99.001 Y142.325 E4.08392
G1 X98.81 Y142.251 E4.09073
G1 X98.462 Y142.072 E4.10374
G1 X98.3 Y141.968 E4.11015
G1 X97.983 Y141.718 E4.12357
G1 X97.834 Y141.573 E4.13049
G1 X97.579 Y141.267 E4.14374
G1 X97.469 Y141.104 E4.15028
G1 X97.278 Y140.754 E4.16354
G1 X97.201 Y140.571 E4.17014
G1 X97.08 Y140.178 E4.18382
G1 X97.045 Y139.998 E4.18992
G1 X97.005 Y139.602 E4.20316
G1 X97.005 Y139.401 E4.20984
G1 X97.044 Y139.002 E4.22318
G1 X97.084 Y138.807 E4.2298
G1 X97.212 Y138.397 E4.24408
G1 X97.278 Y138.247 E4.24953
G1 X97.469 Y137.895 E4.26285
G1 X97.579 Y137.733 E4.26937
G1 X97.834 Y137.427 E4.28262
G1 X97.983 Y137.283 E4.28951
G1 X98.294 Y137.035 E4.30274
G1 X98.462 Y136.928 E4.30936
G1 X98.81 Y136.749 E4.32238
G1 X98.994 Y136.677 E4.32895
G1 X99.39 Y136.565 E4.34264
G1 F1116.3 X99.599 Y136.501 E4.35045
G1 X99.397 Y136.44 E4.358
G1 F1200 X99.001 Y136.325 E4.37171
G1 X98.81 Y136.251 E4.37852
G1 X98.462 Y136.072 E4.39154
G1 X98.3 Y135.968 E4.39794
G1 X97.982 Y135.716 E4.41144
G1 X97.834 Y135.573 E4.41828
G1 X97.579 Y135.267 E4.43153
G1 X97.469 Y135.105 E4.43804
G1 X97.278 Y134.753 E4.45136
G1 X97.201 Y134.571 E4.45794
G1 X97.077 Y134.169 E4.47193
G1 X97.045 Y133.998 E4.47772
G1 X97.005 Y133.602 E4.49095
G1 F2700 E-0.50905
G0 F6000 X97.81 Y132.007
G0 X98.348 Y131.427
G0 X99.032 Y131.032
G0 X99.805 Y130.858
G0 X100.588 Y130.915
G0 X101.326 Y131.205
G0 X103.076 Y132.687
G0 X101.295 Y133.174
G0 X148.665 Y117.363
G0 X146.84 Y117.363
G0 X147.362 Y120.138
G0 X148 Y120.501
G1 F2700 E4.49095
G1 F1200 X147.732 Y120.464 E4.49995
G1 X147.5 Y120.367 E4.50832
G1 X147.291 Y120.206 E4.51709
G1 X147.129 Y119.992 E4.52602
G1 X147.033 Y119.756 E4.53449
G1 X147 Y119.5 E4.54308
G1 X147 Y113 E4.75927
G1 X140.5 Y113 E4.97546
G1 X140.244 Y112.967 E4.98404
G1 X140.008 Y112.871 E4.99252
G1 X139.804 Y112.719 E5.00098
G1 X139.638 Y112.508 E5.00991
G1 X139.537 Y112.273 E5.01842
G1 X139.5 Y112.018 E5.02699
G1 X139.5 Y103 E5.32693
G1 X139.537 Y102.728 E5.33606
G1 X139.651 Y102.47 E5.34544
G1 X139.818 Y102.267 E5.35418
G1 X140.06 Y102.101 E5.36394
G1 X140.325 Y102.015 E5.37321
G1 X140.5 Y102 E5.37905
G1 X147 Y102 E5.59524
G1 X147 Y95.5 E5.81143
G1 X147.045 Y95.201 E5.82149
G1 X147.168 Y94.944 E5.83096
G1 X147.399 Y94.7 E5.84214
G1 X147.737 Y94.534 E5.85466
G1 X148 Y94.5 E5.86348
G1 X157 Y94.5 E6.16283
G1 X157.263 Y94.534 E6.17165
G1 X157.499 Y94.633 E6.18016
G1 X157.768 Y94.858 E6.19182
G1 X157.924 Y95.116 E6.20185
G1 X157.993 Y95.375 E6.21076
G1 X158 Y95.5 E6.21493
G1 X158 Y102 E6.43112
G1 X164.5 Y102 E6.64731
G1 X164.799 Y102.045 E6.65737
G1 X165.056 Y102.168 E6.66684
G1 X165.3 Y102.399 E6.67802
G1 X165.465 Y102.737 E6.69053
G1 X165.5 Y103 E6.69935
G1 X165.5 Y112 E6.99869
G1 X165.466 Y112.261 E7.00745
G1 X165.369 Y112.497 E7.01594
G1 X165.145 Y112.765 E7.02755
G1 X164.898 Y112.918 E7.03722
G1 X164.634 Y112.992 E7.04634
G1 X164.32 Y113.001 E7.05678
G1 X158.001 Y113.001 E7.26695
G1 X158 Y119.5 E7.48311
G1 X157.965 Y119.766 E7.49204
G1 X157.864 Y120.005 E7.50067
G1 X157.606 Y120.297 E7.51363
G1 X157.361 Y120.433 E7.52295
G1 X157 Y120.501 E7.53516
G1 X155.539 Y120.5 E7.58376
G1 X153.675 Y120.501 E7.64575
G1 X152.599 Y120.5 E7.68154
G1 X148 Y120.501 E7.8345
G0 F6000 X147.973 Y120.1
G1 F1200 X147.7 Y120.02 E7.84397
G1 X147.508 Y119.844 E7.85263
