;FLAVOR:Marlin
;TIME:4800
;Filament used: 2.93771m
;Layer height: 0.2
;MINX:86.835
;MINY:86.835
;MINZ:0.24
;MAXX:148.131
;MAXY:148.165
;MAXZ:17.09
;Generated with Cura_SteamEngine 99.10.0-Arachne_engine_beta_2
M140 S60
M105
M190 S60
M104 S205
M105
M109 S205
M82 ;absolute extrusion mode
; Ender 3 Custom Start G-code
G92 E0 ; Reset Extruder
G28 ; Home all axes
;G29 ; Auto bed leveling (ABL)
G1 Z2.0 F3000 ; Move Z Axis up little to prevent scratching of Heat Bed
G1 X0.1 Y20 Z0.3 F5000.0 ; Move to start position
G1 X0.1 Y200.0 Z0.3 F1500.0 E15 ; Draw the first line
G1 X0.4 Y200.0 Z0.3 F5000.0 ; Move to side a little
G1 X0.4 Y20 Z0.3 F1500.0 E30 ; Draw the second line
G92 E0 ; Reset Extruder
G1 Z2.0 F3000 ; Move Z Axis up little to prevent scratching of Heat Bed
G1 X5 Y20 Z0.3 F5000.0 ; Move over to prevent blob squish
G92 E0
G92 E0
G1 F2700 E-5
;LAYER_COUNT:80
;LAYER:-6
M107
G0 F9000 X101.678 Y91.512 Z0.24
;TYPE:SUPPORT-INTERFACE
G1 F2700 E0
G1 F1125 X102.508 Y90.839 E0.0853
G1 X102.647 Y90.735 E0.09915
G1 X103.362 Y90.243 E0.16844
G1 X103.546 Y90.126 E0.18584
G1 X104.444 Y89.606 E0.26867
G1 X105.389 Y89.147 E0.35254
G1 X106.239 Y88.804 E0.4257
G1 X107.25 Y88.473 E0.51062
G1 X108.286 Y88.215 E0.59584
G1 X108.448 Y88.182 E0.60904
G1 X109.341 Y88.034 E0.6813
G1 X109.518 Y88.011 E0.69554
G1 X110.412 Y87.928 E0.76721
G1 X111.295 Y87.9 E0.83773
G1 X119.653 Y87.903 E1.50491
G1 X119.903 Y87.912 E1.52488
G1 X120.305 Y87.912 E1.55696
G1 X120.663 Y87.9 E1.58556
G1 X123.716 Y87.901 E1.82926
G1 X124.84 Y87.946 E1.91906
G1 X125.932 Y88.073 E2.00681
G1 X126.944 Y88.265 E2.08903
G1 X127.838 Y88.499 E2.1628
G1 X128.001 Y88.548 E2.17639
G1 X128.843 Y88.834 E2.24737
G1 X129.812 Y89.239 E2.33121
G1 X130.001 Y89.327 E2.34785
G1 X130.912 Y89.802 E2.42986
G1 X131.691 Y90.276 E2.50265
G1 X131.842 Y90.376 E2.51711
G1 X132.704 Y91 E2.60205
G1 X133.504 Y91.673 E2.6855
G1 X134.016 Y92.155 E2.74163
G1 X142.806 Y100.945 E3.73392
G1 X143.488 Y101.678 E3.81385
G1 X144.161 Y102.508 E3.89914
G1 X144.265 Y102.647 E3.913
G1 X144.757 Y103.362 E3.98228
G1 X144.874 Y103.546 E3.99969
G1 X145.387 Y104.429 E4.0812
G1 X145.853 Y105.389 E4.16639
G1 X146.195 Y106.234 E4.23915
G1 X146.525 Y107.242 E4.32382
G1 X146.572 Y107.408 E4.33759
G1 X146.817 Y108.44 E4.42226
G1 X146.965 Y109.332 E4.49444
G1 X146.989 Y109.518 E4.50941
G1 X147.079 Y110.554 E4.59242
G1 X147.1 Y111.287 E4.65095
G1 X147.097 Y119.653 E5.31876
G1 X147.088 Y119.903 E5.33873
G1 X147.088 Y120.305 E5.37082
G1 X147.1 Y120.656 E5.39885
G1 X147.1 Y123.699 E5.64176
G1 X147.054 Y124.84 E5.73291
G1 X146.927 Y125.932 E5.82067
G1 X146.735 Y126.944 E5.90289
G1 X146.504 Y127.829 E5.9759
G1 X146.452 Y128.001 E5.99025
G1 X146.166 Y128.843 E6.06123
G1 X145.761 Y129.812 E6.14506
G1 X145.68 Y129.987 E6.16046
G1 X145.198 Y130.912 E6.24372
G1 X144.724 Y131.691 E6.31651
G1 X144.624 Y131.842 E6.33096
G1 X144 Y132.704 E6.41591
G1 X143.327 Y133.504 E6.49936
G1 X142.845 Y134.016 E6.55549
G1 X134.018 Y142.842 E7.5519
G1 X133.333 Y143.478 E7.62652
G1 X133.185 Y143.605 E7.64209
G1 X132.353 Y144.265 E7.72686
G1 X131.638 Y144.757 E7.79614
G1 X131.454 Y144.874 E7.81354
G1 X130.556 Y145.394 E7.89638
G1 X129.611 Y145.853 E7.98024
G1 X128.756 Y146.198 E8.05384
G1 X127.75 Y146.527 E8.13832
G1 X126.714 Y146.785 E8.22355
G1 X126.552 Y146.818 E8.23675
G1 X125.659 Y146.966 E8.309
G1 X125.482 Y146.989 E8.32325
G1 X124.588 Y147.072 E8.39492
G1 X123.705 Y147.1 E8.46544
G1 X115.347 Y147.097 E9.13261
G1 X115.097 Y147.088 E9.15258
G1 X114.695 Y147.088 E9.18467
G1 X114.337 Y147.1 E9.21326
G1 X111.284 Y147.099 E9.45697
G1 X110.16 Y147.054 E9.54676
G1 X109.068 Y146.927 E9.63452
G1 X108.056 Y146.735 E9.71674
G1 X107.162 Y146.501 E9.79051
G1 X106.999 Y146.452 E9.80409
G1 X106.157 Y146.166 E9.87508
G1 X105.188 Y145.761 E9.95891
G1 X104.999 Y145.673 E9.97555
G1 X104.088 Y145.198 E10.05756
G1 X103.309 Y144.724 E10.13035
G1 X103.158 Y144.624 E10.14481
G1 X102.296 Y144 E10.22976
G1 X101.496 Y143.327 E10.31321
G1 X100.984 Y142.845 E10.36934
G1 X92.154 Y134.014 E11.3662
G1 X91.51 Y133.32 E11.44178
G1 X90.843 Y132.497 E11.52634
G1 X90.727 Y132.341 E11.54186
G1 X90.243 Y131.638 E11.60999
G1 X90.126 Y131.454 E11.62739
G1 X89.606 Y130.556 E11.71022
G1 X89.147 Y129.611 E11.79409
G1 X88.798 Y128.747 E11.86847
G1 X88.47 Y127.741 E11.95293
G1 X88.212 Y126.703 E12.03831
G1 X88.033 Y125.654 E12.12326
G1 X88.011 Y125.482 E12.1371
G1 X87.921 Y124.446 E12.22011
G1 X87.9 Y123.713 E12.27864
G1 X87.903 Y115.335 E12.94741
G1 X87.912 Y115.087 E12.96722
G1 X87.912 Y114.685 E12.99931
G1 X87.9 Y114.344 E13.02655
G1 X87.9 Y111.301 E13.26945
G1 X87.946 Y110.16 E13.36061
G1 X88.047 Y109.245 E13.43409
G1 X88.073 Y109.07 E13.44821
G1 X88.265 Y108.056 E13.53059
G1 X88.496 Y107.17 E13.60368
G1 X88.834 Y106.157 E13.68892
G1 X89.239 Y105.188 E13.77276
G1 X89.32 Y105.013 E13.78815
G1 X89.802 Y104.088 E13.87141
G1 X90.276 Y103.309 E13.9442
G1 X90.376 Y103.158 E13.95866
G1 X91 Y102.296 E14.0436
G1 X91.673 Y101.496 E14.12706
G1 X92.197 Y100.942 E14.18793
G1 X100.99 Y92.151 E15.18044
G1 X101.678 Y91.512 E15.2554
G0 F9000 X102.4 Y90.926
G1 F1125 X102.4 Y144.075 E19.49798
G0 F9000 X104 Y145.144
G1 F1125 X104 Y89.863 E23.91075
G0 F9000 X105.6 Y89.061
G1 F1125 X105.6 Y145.933 E28.45052
G0 F9000 X107.2 Y146.51
G1 F1125 X107.2 Y88.489 E33.082
G0 F9000 X108.8 Y88.123
G1 F1125 X108.8 Y146.876 E37.77192
G0 F9000 X110.4 Y147.063
G1 F1125 X110.4 Y87.929 E42.49225
G0 F9000 X112 Y87.901
G1 F1125 X112 Y147.099 E47.21769
G0 F9000 X113.6 Y147.099
G1 F1125 X113.6 Y87.901 E51.94313
G0 F9000 X115.2 Y87.902
G1 F1125 X115.2 Y147.091 E56.66786
G0 F9000 X116.8 Y147.097
G1 F1125 X116.8 Y87.902 E61.39306
G0 F9000 X118.4 Y87.903
G1 F1125 X118.4 Y147.098 E66.11826
G0 F9000 X120 Y147.098
G1 F1125 X120 Y87.912 E70.84274
G0 F9000 X121.6 Y87.901
G1 F1125 X121.6 Y147.099 E75.56818
G0 F9000 X123.2 Y147.099
G1 F1125 X123.2 Y87.901 E80.29362
G0 F9000 X124.8 Y87.945
G1 F1125 X124.8 Y147.053 E85.01188
G0 F9000 X126.4 Y146.844
G1 F1125 X126.4 Y88.162 E89.69613
G0 F9000 X128 Y88.553
G1 F1125 X128 Y146.446 E94.3174
G0 F9000 X129.6 Y145.858
G1 F1125 X129.6 Y89.151 E98.844
G0 F9000 X131.2 Y89.978
G1 F1125 X131.2 Y145.022 E103.23785
G0 F9000 X132.8 Y143.911
G1 F1125 X132.8 Y91.081 E107.45496
G0 F9000 X134.4 Y92.539
G1 F1125 X134.4 Y142.461 E111.43995
G0 F9000 X136 Y140.861
G1 F1125 X136 Y94.139 E115.16951
G0 F9000 X137.6 Y95.739
G1 F1125 X137.6 Y139.261 E118.64362
G0 F9000 X139.2 Y137.661
G1 F1125 X139.2 Y97.339 E121.8623
G0 F9000 X140.8 Y98.939
G1 F1125 X140.8 Y136.061 E124.82554
G0 F9000 X142.4 Y134.461
G1 F1125 X142.4 Y100.539 E127.53334
G0 F9000 X144 Y102.31
G1 F1125 X144 Y132.704 E129.95952
G0 F9000 X145.6 Y130.141
G1 F1125 X145.6 Y104.868 E131.97692
G1 F2700 E126.97692
G0 F9000 X146.336 Y103.948
G0 X145.649 Y102.78
G0 X144.422 Y101.133
G0 X143.566 Y100.2
G0 X134.096 Y90.774
G0 X132.452 Y89.504
G0 X131.293 Y88.795
G0 X129.413 Y87.913
G0 X128.123 Y87.473
G0 X126.096 Y87.021
G0 X124.77 Y86.874
G0 X110.331 Y86.868
G0 X108.254 Y87.134
G0 X106.945 Y87.453
G0 X104.98 Y88.165
G0 X103.785 Y88.753
G0 X102.033 Y89.866
G0 X101.734 Y90.105
G0 X100.199 Y91.436
G0 X100.8 Y92.34
G1 F2700 E131.97692
G1 F1125 X100.8 Y142.66 E135.99368
G0 F9000 X99.2 Y141.06
G1 F1125 X99.2 Y93.94 E139.755
G0 F9000 X97.6 Y95.54
G1 F1125 X97.6 Y139.46 E143.26088
G0 F9000 X96 Y137.86
G1 F1125 X96 Y97.139 E146.51141
G0 F9000 X94.4 Y98.739
G1 F1125 X94.4 Y136.26 E149.5065
G0 F9000 X92.8 Y134.66
G1 F1125 X92.8 Y100.339 E152.24615
G0 F9000 X91.2 Y102.058
G1 F1125 X91.2 Y132.937 E154.71104
G0 F9000 X89.6 Y130.543
G1 F1125 X89.6 Y104.475 E156.7919
G1 F2700 E151.7919
G0 F9000 X88.368 Y104.538
G0 X87.831 Y105.802
G0 X87.346 Y107.419
G0 X86.992 Y109.101
G0 X88 Y109.67
G1 F2700 E156.7919
G1 F1125 X88 Y125.355 E158.04395
G0 F300 X88 Y125.355 Z0.54
G0 F9000 X88.383 Y125.152
;TIME_ELAPSED:116.508174
;LAYER:-5
M140 S50
;TYPE:SUPPORT
G1 F1125 X109.844 Y146.613 E161.07233
G1 X109.134 Y146.531 E161.14364
G1 X108.162 Y146.346 E161.24237
G1 X88.657 Y126.841 E163.99474
G1 X88.854 Y127.629 E164.07578
G1 X89.171 Y128.602 E164.17789
G1 X89.284 Y128.882 E164.20802
G1 X106.116 Y145.714 E166.5832
G1 X105.356 Y145.397 E166.66536
G1 X105.174 Y145.312 E166.68541
G1 X104.284 Y144.847 E166.7856
G1 X103.393 Y144.299 E166.88997
G1 X103.008 Y144.02 E166.93742
G1 X90.972 Y131.985 E168.63576
G0 F9000 X91.153 Y132.243
G1 F1125 X91.817 Y133.062 E168.74096
G1 X92.436 Y133.73 E168.83183
G1 X101.267 Y142.561 E170.07798
G1 X101.754 Y143.02 E170.14475
G1 X102.542 Y143.683 E170.24751
G1 X103.008 Y144.02 E170.30489
G1 F2700 E165.30489
G0 F9000 X102.548 Y145.496
G0 X103.707 Y146.205
G0 X105.587 Y147.087
G0 X106.877 Y147.527
G0 X108.904 Y147.979
G0 X109.279 Y148.02
G0 X111.25 Y148.163
G0 X111.342 Y146.697
G1 F2700 E170.30489
G1 F1125 X112.756 Y146.697 E170.44598
G1 X88.299 Y122.241 E173.89706
G1 X88.3 Y120.827 E174.03815
G1 X114.171 Y146.698 E177.68882
G1 X114.323 Y146.699 E177.70399
G1 X114.687 Y146.687 E177.74033
G1 X115.103 Y146.687 E177.78184
G1 X115.36 Y146.695 E177.8075
G1 X115.582 Y146.695 E177.82965
G1 X88.301 Y119.414 E181.67929
G1 X88.301 Y117.999 E181.82048
G1 X116.997 Y146.696 E185.86987
G1 X118.412 Y146.697 E186.01106
G1 X88.302 Y116.586 E190.25997
G1 X88.302 Y115.349 E190.3834
G1 X88.308 Y115.178 E190.40047
G1 X119.827 Y146.697 E194.84814
G1 X121.242 Y146.698 E194.98933
G1 X88.299 Y113.755 E199.63795
G1 X88.299 Y112.341 E199.77904
G1 X122.657 Y146.699 E204.62732
G1 X123.692 Y146.699 E204.73059
G1 X124.059 Y146.687 E204.76723
G1 X88.314 Y110.941 E209.81131
G1 X88.344 Y110.191 E209.8862
G1 X88.407 Y109.62 E209.94352
G1 X125.377 Y146.591 E215.16046
G1 X125.603 Y146.569 E215.18312
G1 X126.598 Y146.397 E215.28387
G1 X88.605 Y108.404 E220.6451
G1 X88.654 Y108.144 E220.6715
G1 X88.88 Y107.279 E220.7607
G1 X88.884 Y107.268 E220.76187
G1 X127.727 Y146.112 E226.24311
G1 X128.612 Y145.823 E226.336
G1 X128.783 Y145.753 E226.35444
G1 X89.243 Y106.213 E231.93396
G1 X89.602 Y105.355 E232.02676
G1 X89.663 Y105.22 E232.04155
G1 X129.772 Y145.328 E237.70129
G1 X130.375 Y145.035 E237.76818
G1 X130.703 Y144.845 E237.806
G1 X90.147 Y104.289 E243.52889
G0 F9000 X90.151 Y104.283
G1 F1125 X90.685 Y103.413 E243.63075
G1 X131.58 Y144.308 E249.40148
G1 X132.121 Y143.937 E249.46693
G1 X132.4 Y143.714 E249.50257
G1 X91.279 Y102.592 E255.30526
G1 X91.316 Y102.541 E255.31155
G1 X91.921 Y101.82 E255.40546
G1 X133.177 Y143.076 E261.22713
G1 X133.735 Y142.558 E261.3031
G1 X133.904 Y142.389 E261.32694
G1 X92.61 Y101.095 E267.15397
G1 X93.317 Y100.388 E267.25374
G1 X134.611 Y141.682 E273.08077
G1 X135.318 Y140.975 E273.18053
G1 X94.024 Y99.681 E279.00756
G1 X94.731 Y98.974 E279.10733
G1 X136.025 Y140.268 E284.93436
G1 X136.732 Y139.56 E285.03419
G1 X95.438 Y98.267 E290.86115
G1 X96.146 Y97.56 E290.96099
G1 X137.439 Y138.853 E296.78788
G1 X138.146 Y138.146 E296.88764
G1 X96.853 Y96.853 E302.71453
G1 X97.56 Y96.146 E302.8143
G1 X138.853 Y137.439 E308.64119
G1 X139.56 Y136.732 E308.74095
G1 X98.267 Y95.438 E314.56791
G1 X98.974 Y94.731 E314.66767
G1 X140.268 Y136.025 E320.4947
G1 X140.975 Y135.318 E320.59447
G1 X99.681 Y94.024 E326.4215
G1 X100.388 Y93.317 E326.52126
G1 X141.682 Y134.611 E332.34829
G1 X142.389 Y133.904 E332.44806
G1 X101.095 Y92.61 E338.27509
G1 X101.272 Y92.433 E338.30007
G1 X101.822 Y91.923 E338.37491
G1 X143.078 Y133.178 E344.1965
G1 X143.682 Y132.458 E344.29028
G1 X143.72 Y132.406 E344.2967
G1 X102.596 Y91.283 E350.09967
G1 X102.759 Y91.15 E350.12067
G1 X103.419 Y90.691 E350.20088
G1 X144.313 Y131.585 E355.97147
G1 X144.847 Y130.715 E356.07332
G0 F9000 X144.851 Y130.709
G1 F1125 X104.296 Y90.153 E361.79614
G1 X104.623 Y89.963 E361.83388
G1 X105.226 Y89.67 E361.90077
G1 X145.335 Y129.779 E367.56059
G1 X145.397 Y129.644 E367.57541
G1 X145.756 Y128.786 E367.66821
G1 X106.215 Y89.245 E373.24787
G1 X106.382 Y89.178 E373.26583
G1 X107.271 Y88.886 E373.3592
G1 X146.114 Y127.729 E378.84036
G1 X146.12 Y127.712 E378.84216
G1 X146.342 Y126.857 E378.9303
G1 X146.393 Y126.594 E378.95703
G1 X108.4 Y88.601 E384.31826
G1 X109.395 Y88.43 E384.41899
G1 X109.621 Y88.408 E384.44165
G1 X146.588 Y125.375 E389.65809
G1 X146.653 Y124.817 E389.71415
G1 X146.684 Y124.056 E389.79014
G1 X110.939 Y88.311 E394.83415
G1 X111.307 Y88.299 E394.87089
G1 X112.342 Y88.3 E394.97416
G1 X146.699 Y122.657 E399.8223
G1 X146.699 Y121.243 E399.96339
G1 X113.757 Y88.301 E404.61187
G1 X115.172 Y88.302 E404.75305
G1 X146.69 Y119.819 E409.20051
G1 X146.695 Y119.638 E409.21858
G1 X146.696 Y118.412 E409.34091
G1 X116.587 Y88.302 E413.58969
G1 X118.001 Y88.303 E413.73078
G1 X146.697 Y116.998 E417.78002
G1 X146.697 Y115.585 E417.92101
G1 X119.416 Y88.303 E421.77073
G1 X119.638 Y88.303 E421.79288
G1 X119.895 Y88.311 E421.81853
G1 X120.311 Y88.311 E421.86004
G1 X120.675 Y88.299 E421.89638
G1 X120.827 Y88.3 E421.91155
G1 X146.698 Y114.171 E425.56223
G1 X146.699 Y112.758 E425.70322
G1 X122.242 Y88.301 E429.15436
G1 X123.656 Y88.301 E429.29545
G1 X146.699 Y111.343 E432.547
G1 X146.699 Y111.287 E432.55259
G1 X146.677 Y110.564 E432.62476
G1 X146.615 Y109.846 E432.69667
G1 X125.155 Y88.385 E435.72498
G1 X125.865 Y88.468 E435.7963
G1 X126.836 Y88.652 E435.89492
G1 X146.337 Y108.154 E438.64679
G1 X146.185 Y107.517 E438.71213
G1 X146.139 Y107.351 E438.72932
G1 X145.823 Y106.383 E438.83092
G1 X145.715 Y106.117 E438.85957
G1 X128.882 Y89.284 E441.23489
G1 X129.642 Y89.601 E441.31705
G1 X129.825 Y89.687 E441.33723
G1 X130.715 Y90.151 E441.43738
G1 X131.606 Y90.699 E441.54175
G1 X131.99 Y90.978 E441.58911
G1 X144.027 Y103.015 E443.28766
G0 F9000 X143.849 Y102.759
G1 F1125 X143.18 Y101.935 E443.39357
G1 X142.521 Y101.227 E443.49008
G1 X133.732 Y92.438 E444.7303
G1 X133.245 Y91.979 E444.79708
G1 X132.457 Y91.316 E444.89983
G1 X131.99 Y90.978 E444.95735
G1 F2700 E439.95735
G0 F9000 X132.844 Y89.783
G0 X131.293 Y88.795
G0 X129.413 Y87.913
G0 X128.123 Y87.473
G0 X126.096 Y87.021
G0 X124.77 Y86.874
G0 X110.331 Y86.868
G0 X108.254 Y87.134
G0 X106.945 Y87.453
G0 X104.98 Y88.165
G0 X103.785 Y88.753
G0 X102.033 Y89.866
G0 X100.976 Y90.712
G0 X90.774 Y100.904
G0 X89.746 Y102.235
G0 X88.899 Y103.523
G0 X90.151 Y104.283
G1 F2700 E444.95735
G1 F1125 X90.147 Y104.289 E444.95807
G1 F2700 E439.95807
G0 F9000 X88.795 Y103.707
G0 X87.913 Y105.587
G0 X87.473 Y106.874
G0 X87.021 Y108.902
G0 X86.874 Y110.23
G0 X86.835 Y123.655
G0 X88.299 Y123.655
G1 F2700 E444.95807
G1 F1125 X88.299 Y123.711 E444.96366
G1 X88.321 Y124.433 E445.03574
G1 X88.383 Y125.152 E445.10774
G0 F9000 X88.299 Y123.655
G1 F1125 X111.342 Y146.697 E448.35929
G1 F2700 E443.35929
G0 F9000 X111.342 Y148.165
G0 X124.669 Y148.132
G0 X126.746 Y147.866
G0 X128.055 Y147.547
G0 X130.02 Y146.835
G0 X131.215 Y146.247
G0 X132.967 Y145.134
G0 X134.037 Y144.276
G0 X144.226 Y134.096
G0 X145.254 Y132.765
G0 X146.105 Y131.47
G0 X144.851 Y130.709
G1 F2700 E448.35929
G1 F1125 X144.847 Y130.715 E448.36001
G0 F300 X144.847 Y130.715 Z0.74
G0 F9000 X145.026 Y130.8
;TIME_ELAPSED:277.588535
;LAYER:-4
;TYPE:SUPPORT-INTERFACE
G1 F1500 X89.976 Y130.8 E450.19098
G1 X90.208 Y131.2 E450.20636
G1 X144.785 Y131.2 E452.0216
G1 X144.556 Y131.582 E452.03641
G1 X144.544 Y131.6 E452.03713
G1 X90.458 Y131.6 E453.83604
G1 X90.737 Y132 E453.85226
G1 X144.262 Y132 E455.63251
G1 X143.973 Y132.4 E455.64892
G1 X91.021 Y132.4 E457.41011
G1 X91.345 Y132.8 E457.42723
G1 X143.658 Y132.8 E459.16717
G1 X143.322 Y133.2 E459.18455
G1 X91.671 Y133.2 E460.90246
G1 X92.042 Y133.6 E460.92061
G1 X142.961 Y133.6 E462.61418
G1 X142.66 Y133.919 E462.62877
G1 X142.578 Y134 E462.6326
G1 X92.422 Y134 E464.3008
G1 X92.822 Y134.4 E464.31961
G1 X142.178 Y134.4 E465.9612
G1 X141.778 Y134.8 E465.98002
G1 X93.222 Y134.8 E467.595
G1 X93.622 Y135.2 E467.61381
G1 X141.378 Y135.2 E469.20218
G1 X140.978 Y135.6 E469.221
G1 X94.022 Y135.6 E470.78276
G1 X94.422 Y136 E470.80157
G1 X140.578 Y136 E472.33673
G1 X140.178 Y136.4 E472.35554
G1 X94.822 Y136.4 E473.86409
G1 X95.221 Y136.8 E473.88288
G1 X139.778 Y136.8 E475.36485
G1 X139.378 Y137.2 E475.38367
G1 X95.621 Y137.2 E476.83903
G1 X96.021 Y137.6 E476.85785
G1 X138.978 Y137.6 E478.2866
G1 X138.578 Y138 E478.30542
