;FLAVOR:Marlin
;TIME:2719
;Filament used: 1.60419m
;Layer height: 0.2
;MINX:59.429
;MINY:102.393
;MINZ:0.2
;MAXX:181.964
;MAXY:132.214
;MAXZ:9.6
;Generated with Cura_SteamEngine 99.10.0-Arachne_engine_beta_2
M140 S60
M105
M190 S60
M104 S205
M105
M109 S205
M82 ;absolute extrusion mode
; Ender 3 Custom Start G-code
G92 E0 ; Reset Extruder
G28 ; Home all axes
;G29 ; Auto bed leveling (ABL)
G1 Z2.0 F3000 ; Move Z Axis up little to prevent scratching of Heat Bed
G1 X0.1 Y20 Z0.3 F5000.0 ; Move to start position
G1 X0.1 Y200.0 Z0.3 F1500.0 E15 ; Draw the first line
G1 X0.4 Y200.0 Z0.3 F5000.0 ; Move to side a little
G1 X0.4 Y20 Z0.3 F1500.0 E30 ; Draw the second line
G92 E0 ; Reset Extruder
G1 Z2.0 F3000 ; Move Z Axis up little to prevent scratching of Heat Bed
G1 X5 Y20 Z0.3 F5000.0 ; Move over to prevent blob squish
G92 E0
G92 E0
G1 F2700 E-5
;LAYER_COUNT:48
;LAYER:0
M107
;MESH:CE3_OpenDials_v2-DPad.3mf(1)
G0 F6000 X76.452 Y128.971 Z0.2
;TYPE:WALL-INNER
G1 F2700 E0
G1 F1200 X83.173 Y122.25 E0.31614
G1 X83.173 Y112.75 E0.63211
G1 X76.452 Y106.029 E0.94824
G1 X66.952 Y106.029 E1.26421
G1 X60.229 Y112.75 E1.5804
G1 X60.229 Y122.25 E1.89637
G1 X66.952 Y128.971 E2.21255
G1 X76.452 Y128.971 E2.52852
G0 F6000 X76.618 Y129.371
G1 F1200 X83.573 Y122.416 E2.85566
G1 X83.573 Y112.584 E3.18268
G1 X76.618 Y105.629 E3.50982
G1 X66.786 Y105.629 E3.83683
G1 X59.829 Y112.584 E4.16402
G1 X59.829 Y122.416 E4.49103
G1 X66.786 Y129.371 E4.81822
G1 X76.618 Y129.371 E5.14524
G0 F6000 X76.784 Y129.771
;TYPE:WALL-OUTER
G1 F1200 X83.973 Y122.582 E5.48338
G1 X83.973 Y112.418 E5.82144
G1 X76.784 Y105.229 E6.15959
G1 X66.62 Y105.229 E6.49765
G1 X59.429 Y112.418 E6.83584
G1 X59.429 Y122.582 E7.1739
G1 X66.62 Y129.771 E7.51209
G1 X76.784 Y129.771 E7.85015
G0 F6000 X76.578 Y129.27
G0 X76.302 Y128.871
G0 X76.302 Y128.61
;TYPE:SKIN
G1 F1200 X82.812 Y122.101 E8.15634
G1 X82.812 Y112.9 E8.46236
G1 X76.302 Y106.39 E8.76857
G1 X67.102 Y106.39 E9.07457
G1 X60.589 Y112.9 E9.38085
G1 X60.589 Y122.1 E9.68684
G1 X67.102 Y128.61 E9.99312
G1 X76.302 Y128.61 E10.29911
G0 F6000 X76.302 Y128.871
G0 X67.02 Y128.807
G0 X60.393 Y122.182
G0 X60.329 Y121.883
G0 X60.789 Y121.883
G1 F1200 X67.315 Y128.409 E10.60608
G0 F6000 X67.88 Y128.409
G1 F1200 X60.789 Y121.317 E10.93964
G0 F6000 X60.789 Y120.751
G1 F1200 X68.446 Y128.409 E11.29982
G0 F6000 X69.012 Y128.409
G1 F1200 X60.789 Y120.186 E11.68661
G0 F6000 X60.789 Y119.62
G1 F1200 X69.577 Y128.409 E12.09999
G0 F6000 X70.143 Y128.409
G1 F1200 X60.789 Y119.054 E12.54
G0 F6000 X60.789 Y118.489
G1 F1200 X70.709 Y128.409 E13.00661
G0 F6000 X71.274 Y128.409
G1 F1200 X60.789 Y117.923 E13.49981
G0 F6000 X60.789 Y117.357
G1 F1200 X71.84 Y128.409 E14.01964
G0 F6000 X72.406 Y128.409
G1 F1200 X60.789 Y116.792 E14.56607
G0 F6000 X60.789 Y116.226
G1 F1200 X72.972 Y128.409 E15.13912
G0 F6000 X73.537 Y128.409
G1 F1200 X60.789 Y115.66 E15.73877
G0 F6000 X60.789 Y115.095
G1 F1200 X74.103 Y128.409 E16.36502
G0 F6000 X74.669 Y128.409
G1 F1200 X60.789 Y114.529 E17.01789
G0 F6000 X60.789 Y113.963
G1 F1200 X75.234 Y128.409 E17.69737
G0 F6000 X75.8 Y128.409
G1 F1200 X60.789 Y113.398 E18.40344
G0 F6000 X60.864 Y112.907
G1 F1200 X76.292 Y128.335 E19.12912
G0 F6000 X76.575 Y128.052
G1 F1200 X61.147 Y112.625 E19.85478
G0 F6000 X61.43 Y112.342
G1 F1200 X76.858 Y127.769 E20.58045
G0 F6000 X77.141 Y127.487
G1 F1200 X61.713 Y112.059 E21.30613
G0 F6000 X61.996 Y111.776
G1 F1200 X77.423 Y127.204 E22.0318
G0 F6000 X77.706 Y126.921
G1 F1200 X62.279 Y111.493 E22.75746
G0 F6000 X62.561 Y111.21
G1 F1200 X77.989 Y126.638 E23.48314
G0 F6000 X78.272 Y126.355
G1 F1200 X62.844 Y110.928 E24.20881
G0 F6000 X63.127 Y110.645
G1 F1200 X78.555 Y126.072 E24.93447
G0 F6000 X78.838 Y125.79
G1 F1200 X63.41 Y110.362 E25.66015
G0 F6000 X63.693 Y110.079
G1 F1200 X79.121 Y125.507 E26.38584
G0 F6000 X79.403 Y125.224
G1 F1200 X63.976 Y109.796 E27.1115
G0 F6000 X64.259 Y109.514
G1 F1200 X79.686 Y124.941 E27.83714
G0 F6000 X79.969 Y124.658
G1 F1200 X64.542 Y109.231 E28.56278
G0 F6000 X64.825 Y108.948
G1 F1200 X80.252 Y124.375 E29.28842
G0 F6000 X80.535 Y124.092
G1 F1200 X65.108 Y108.666 E30.01403
G0 F6000 X65.391 Y108.383
G1 F1200 X80.818 Y123.81 E30.73967
G0 F6000 X81.1 Y123.527
G1 F1200 X65.673 Y108.1 E31.46531
G0 F6000 X65.956 Y107.817
G1 F1200 X81.383 Y123.244 E32.19095
G0 F6000 X81.666 Y122.961
G1 F1200 X66.239 Y107.534 E32.91659
G0 F6000 X66.522 Y107.251
G1 F1200 X81.949 Y122.678 E33.64223
G0 F6000 X82.232 Y122.395
G1 F1200 X66.805 Y106.968 E34.36787
G0 F6000 X67.088 Y106.686
G1 F1200 X82.515 Y122.113 E35.09351
G0 F6000 X82.611 Y121.644
G1 F1200 X67.556 Y106.589 E35.80165
G0 F6000 X68.122 Y106.589
G1 F1200 X82.611 Y121.078 E36.48316
G0 F6000 X82.611 Y120.512
G1 F1200 X68.688 Y106.589 E37.13806
G0 F6000 X69.254 Y106.589
G1 F1200 X82.611 Y119.947 E37.76636
G0 F6000 X82.611 Y119.381
G1 F1200 X69.819 Y106.589 E38.36805
G0 F6000 X70.385 Y106.589
G1 F1200 X82.611 Y118.815 E38.94313
G0 F6000 X82.611 Y118.25
G1 F1200 X70.951 Y106.589 E39.4916
G0 F6000 X71.516 Y106.589
G1 F1200 X82.611 Y117.684 E40.01347
G0 F6000 X82.611 Y117.118
G1 F1200 X72.082 Y106.589 E40.50873
G0 F6000 X72.648 Y106.589
G1 F1200 X82.611 Y116.553 E40.97738
G0 F6000 X82.611 Y115.987
G1 F1200 X73.213 Y106.589 E41.41943
G0 F6000 X73.779 Y106.589
G1 F1200 X82.611 Y115.421 E41.83486
G0 F6000 X82.611 Y114.856
G1 F1200 X74.345 Y106.589 E42.22369
G0 F6000 X74.91 Y106.589
G1 F1200 X82.611 Y114.29 E42.58592
G0 F6000 X82.611 Y113.724
G1 F1200 X75.476 Y106.589 E42.92153
G0 F6000 X76.042 Y106.589
G1 F1200 X82.611 Y113.159 E43.23054
G0 F6000 X83.164 Y113.159
G1 F2700 E38.23054
;MESH:CE3_OpenDials_v2-DPad.3mf(2)
G0 F6000 X83.744 Y117.516
G0 X84.839 Y117.516
G0 X115.847 Y115.685
G0 X114.285 Y116.673
G0 X115.898 Y117.516
;TYPE:WALL-INNER
G1 F2700 E43.23054
G1 F1200 X115.547 Y117.438 E43.2425
G1 X115.107 Y117.241 E43.25854
G1 X114.727 Y116.942 E43.27462
G1 X114.433 Y116.568 E43.29044
G1 X114.232 Y116.125 E43.30662
G1 X114.145 Y115.649 E43.32271
G1 X114.173 Y115.176 E43.33847
G1 X114.321 Y114.705 E43.35489
G1 X114.573 Y114.293 E43.37096
G1 X114.908 Y113.959 E43.38669
G1 X115.318 Y113.71 E43.40265
G1 X115.763 Y113.571 E43.41815
G1 X115.987 Y113.542 E43.42566
G1 X116.261 Y113.538 E43.43478
G1 X116.736 Y113.625 E43.45084
G1 X117.173 Y113.822 E43.46678
G1 X117.549 Y114.117 E43.48268
G1 X117.838 Y114.483 E43.49819
G1 X117.955 Y114.704 E43.50651
G1 X118.082 Y115.048 E43.5187
G1 X118.106 Y115.187 E43.52339
G1 X118.132 Y115.447 E43.53209
G1 X118.105 Y115.881 E43.54655
G1 X117.961 Y116.349 E43.56283
G1 X117.708 Y116.766 E43.57906
G1 X117.368 Y117.105 E43.59503
G1 X116.978 Y117.343 E43.61022
G1 X116.762 Y117.426 E43.61792
G1 X116.512 Y117.491 E43.62651
G1 X116.26 Y117.523 E43.63496
G1 X115.898 Y117.516 E43.647
G0 F6000 X116.841 Y117.086
G0 X116.791 Y116.989
G1 F1200 X116.661 Y117.039 E43.65163
G1 X116.364 Y117.115 E43.66183
G1 X116.018 Y117.123 E43.67334
G1 X115.641 Y117.049 E43.68612
G1 X115.293 Y116.887 E43.69889
G1 X114.993 Y116.643 E43.71175
G1 X114.761 Y116.34 E43.72444
G1 X114.696 Y116.218 E43.72904
G1 X114.606 Y115.982 E43.73744
G1 X114.543 Y115.602 E43.75025
G1 X114.571 Y115.222 E43.76292
G1 X114.694 Y114.848 E43.77602
G1 X114.901 Y114.522 E43.78886
G1 X115.174 Y114.258 E43.80149
G1 X115.504 Y114.064 E43.81423
G1 X115.859 Y113.959 E43.82654
G1 X115.993 Y113.942 E43.83103
G1 X116.251 Y113.938 E43.83961
G1 X116.64 Y114.013 E43.85279
G1 X116.986 Y114.176 E43.86551
G1 X117.284 Y114.417 E43.87826
G1 X117.51 Y114.712 E43.89062
G1 X117.668 Y115.065 E43.90348
G1 X117.708 Y115.227 E43.90903
G1 X117.734 Y115.487 E43.91772
G1 X117.708 Y115.836 E43.92936
G1 X117.587 Y116.208 E43.94237
G1 X117.38 Y116.538 E43.95533
G1 X117.103 Y116.805 E43.96813
G1 X116.791 Y116.989 E43.98017
G0 F6000 X116.604 Y116.635
;TYPE:WALL-OUTER
G1 F1200 X116.561 Y116.652 E43.98171
G1 X116.295 Y116.721 E43.99085
G1 X116.018 Y116.723 E44.00006
G1 X115.736 Y116.661 E44.00967
G1 X115.479 Y116.533 E44.01922
G1 X115.259 Y116.344 E44.02886
G1 X115.089 Y116.111 E44.03846
G1 X114.98 Y115.84 E44.04817
G1 X114.94 Y115.555 E44.05774
G1 X114.968 Y115.269 E44.0673
G1 X115.068 Y114.992 E44.0771
G1 X115.229 Y114.752 E44.08671
G1 X115.44 Y114.557 E44.09627
G1 X115.69 Y114.418 E44.10578
G1 X115.955 Y114.347 E44.1149
G1 X115.999 Y114.342 E44.11638
G1 X116.284 Y114.339 E44.12586
G1 X116.544 Y114.401 E44.13475
G1 X116.799 Y114.53 E44.14425
G1 X117.019 Y114.717 E44.15385
G1 X117.182 Y114.941 E44.16307
G1 X117.296 Y115.213 E44.17288
G1 X117.31 Y115.267 E44.17473
G1 X117.336 Y115.527 E44.18342
G1 X117.31 Y115.791 E44.19225
G1 X117.213 Y116.067 E44.20198
G1 X117.052 Y116.309 E44.21164
G1 X116.838 Y116.505 E44.2213
G1 X116.604 Y116.635 E44.2302
G1 F2700 E39.2302
G0 F6000 X116.842 Y117.085
G0 X116.965 Y117.548
G0 X116.265 Y115.836
G0 X124.833 Y125.416
G0 X123.513 Y124.097
G0 X120.89 Y127.003
;TYPE:WALL-INNER
G1 F2700 E44.2302
G1 F1200 X127.612 Y120.281 E44.54638
G1 X127.612 Y110.78 E44.86239
G1 X120.89 Y104.058 E45.17857
G1 X111.389 Y104.059 E45.49457
G1 X104.667 Y110.78 E45.81073
G1 X104.668 Y120.281 E46.12674
G1 X111.389 Y127.002 E46.44287
G1 X120.89 Y127.003 E46.75888
G0 F6000 X121.056 Y127.403
G1 F1200 X128.012 Y120.447 E47.08607
G1 X128.012 Y110.614 E47.41311
G1 X121.056 Y103.658 E47.7403
G1 X111.223 Y103.659 E48.06735
G1 X104.267 Y110.614 E48.39451
G1 X104.268 Y120.447 E48.72156
G1 X111.223 Y127.402 E49.0487
G1 X121.056 Y127.403 E49.37575
G0 F6000 X121.222 Y127.803
;TYPE:WALL-OUTER
G1 F1200 X128.412 Y120.613 E49.71395
G1 X128.412 Y110.448 E50.05203
G1 X121.222 Y103.258 E50.39023
G1 X111.057 Y103.259 E50.72832
G1 X103.867 Y110.448 E51.06649
G1 X103.868 Y120.613 E51.40458
G1 X111.057 Y127.802 E51.74273
G1 X121.222 Y127.803 E52.08082
G1 F2700 E47.08082
G0 F6000 X121.016 Y127.301
G0 X118.818 Y126.803
G0 X118.818 Y128.668
G0 X116.177 Y115.859
G0 X116.559 Y117.666
G0 X116.268 Y117.622
G1 F2700 E52.08082
G0 F6000 X116.282 Y117.882
;TYPE:SKIN
G1 F1200 X116.257 Y117.883 E52.08165
G1 X115.821 Y117.868 E52.09616
G1 X115.781 Y117.863 E52.0975
G1 X115.439 Y117.78 E52.10921
G1 X115.171 Y117.681 E52.11871
G1 X115.143 Y117.668 E52.11974
G1 X114.796 Y117.473 E52.13297
G1 X114.48 Y117.204 E52.14678
G1 X114.359 Y117.081 E52.15252
G1 X114.139 Y116.777 E52.165
G1 X113.993 Y116.503 E52.17532
G1 X113.984 Y116.484 E52.17602
G1 X113.849 Y116.111 E52.18922
G1 X113.84 Y116.078 E52.19035
G1 X113.788 Y115.693 E52.20327
G1 X113.787 Y115.396 E52.21315
G1 X113.788 Y115.372 E52.21395
G1 X113.822 Y115.096 E52.2232
G1 X113.891 Y114.819 E52.2327
G1 X113.989 Y114.562 E52.24184
G1 X114.063 Y114.406 E52.24759
G1 X114.274 Y114.091 E52.2602
G1 X114.291 Y114.069 E52.26112
G1 X114.486 Y113.851 E52.27085
G1 X114.78 Y113.601 E52.28369
G1 X114.812 Y113.579 E52.28498
G1 X115.167 Y113.382 E52.29848
G1 X115.463 Y113.272 E52.30898
G1 X115.811 Y113.195 E52.32084
G1 X115.848 Y113.191 E52.32208
G1 X116.253 Y113.178 E52.33555
G1 X116.284 Y113.179 E52.33658
G1 X116.565 Y113.212 E52.346
G1 X116.597 Y113.218 E52.34708
G1 X117.004 Y113.335 E52.36116
G1 X117.04 Y113.35 E52.36246
G1 X117.36 Y113.516 E52.37445
G1 X117.609 Y113.69 E52.38455
G1 X117.886 Y113.944 E52.39705
G1 X117.912 Y113.973 E52.39835
G1 X118.143 Y114.292 E52.41145
G1 X118.284 Y114.552 E52.42129
G1 X118.386 Y114.822 E52.43089
G1 X118.46 Y115.123 E52.4412
G1 X118.465 Y115.154 E52.44224
G1 X118.496 Y115.544 E52.45525
G1 X118.496 Y115.562 E52.45585
G1 X118.462 Y115.934 E52.46828
G1 X118.392 Y116.225 E52.47823
G1 X118.295 Y116.473 E52.48709
G1 X118.218 Y116.652 E52.49357
G1 X118.007 Y116.969 E52.50623
G1 X117.989 Y116.992 E52.50721
G1 X117.78 Y117.223 E52.51757
G1 X117.491 Y117.468 E52.53017
G1 X117.154 Y117.659 E52.54305
G1 X117.128 Y117.671 E52.544
G1 X116.852 Y117.776 E52.55383
G1 X116.587 Y117.845 E52.56293
G1 X116.282 Y117.882 E52.57315
G1 F2700 E47.57315
G0 F6000 X116.268 Y117.622
G0 X116.807 Y117.601
G0 X116.265 Y115.836
G0 X118.818 Y128.668
G0 X118.818 Y126.803
G0 X120.74 Y126.903
G1 F2700 E52.57315
G0 F6000 X120.74 Y126.643
G1 F1200 X127.252 Y120.132 E52.87943
G1 X127.252 Y110.93 E53.18549
G1 X120.74 Y104.419 E53.49177
G1 X111.539 Y104.419 E53.7978
G1 X105.027 Y110.929 E54.10406
G1 X105.028 Y120.131 E54.41012
G1 X111.539 Y126.641 E54.71635
G1 X120.74 Y126.643 E55.02238
G0 F6000 X120.74 Y126.903
G0 X111.732 Y126.902
G0 X111.732 Y126.439
G1 F1200 X105.227 Y119.935 E55.32833
G0 F6000 X105.227 Y119.369
G1 F1200 X112.297 Y126.439 E55.66088
G0 F6000 X112.863 Y126.439
G1 F1200 X105.227 Y118.803 E56.02005
G0 F6000 X105.227 Y118.238
G1 F1200 X113.429 Y126.439 E56.40583
G0 F6000 X113.995 Y126.44
G1 F1200 X105.227 Y117.672 E56.81825
G0 F6000 X105.227 Y117.106
G1 F1200 X114.561 Y126.44 E57.25729
G0 F6000 X115.126 Y126.44
G1 F1200 X105.227 Y116.541 E57.72291
G0 F6000 X105.227 Y115.975
G1 F1200 X115.692 Y126.44 E58.21515
G0 F6000 X116.258 Y126.441
G1 F1200 X105.227 Y115.409 E58.73404
G0 F6000 X105.227 Y114.844
G1 F1200 X116.824 Y126.441 E59.27953
G0 F6000 X117.39 Y126.441
G1 F1200 X105.227 Y114.278 E59.85164
G0 F6000 X105.227 Y113.712
G1 F1200 X117.956 Y126.441 E60.45037
G0 F6000 X118.522 Y126.442
G1 F1200 X105.227 Y113.146 E61.07575
G0 F6000 X105.227 Y112.581
G1 F1200 X119.088 Y126.442 E61.72773
G0 F6000 X119.653 Y126.442
G1 F1200 X105.227 Y112.015 E62.40631
G0 F6000 X105.227 Y111.449
G1 F1200 X120.219 Y126.442 E63.11151
G0 F6000 X120.721 Y126.378
G1 F1200 X105.291 Y110.948 E63.83729
G0 F6000 X105.574 Y110.665
G1 F1200 X121.004 Y126.095 E64.56307
G0 F6000 X121.287 Y125.812
G1 F1200 X105.857 Y110.382 E65.28885
G0 F6000 X106.14 Y110.1
G1 F1200 X121.57 Y125.529 E66.0146
G0 F6000 X121.852 Y125.246
G1 F1200 X106.423 Y109.817 E66.74034
G0 F6000 X106.705 Y109.534
G1 F1200 X113.877 Y116.705 E67.07766
G0 F6000 X113.61 Y115.873
G1 F1200 X106.988 Y109.251 E67.38914
G0 F6000 X107.271 Y108.968
G1 F1200 X113.598 Y115.295 E67.68674
G0 F6000 X113.685 Y114.816
G1 F1200 X107.554 Y108.685 E67.97513
G0 F6000 X107.837 Y108.403
G1 F1200 X113.84 Y114.406 E68.25749
G0 F6000 X114.057 Y114.057
G1 F1200 X108.12 Y108.12 E68.53675
G0 F6000 X108.403 Y107.837
G1 F1200 X114.311 Y113.745 E68.81464
G0 F6000 X114.612 Y113.48
G1 F1200 X108.685 Y107.554 E69.09341
G0 F6000 X108.968 Y107.271
G1 F1200 X114.962 Y113.265 E69.37535
G0 F6000 X115.358 Y113.095
G1 F1200 X109.251 Y106.988 E69.6626
G0 F6000 X109.534 Y106.705
G1 F1200 X115.822 Y112.994 E69.95839
G0 F6000 X116.384 Y112.99
G1 F1200 X109.817 Y106.423 E70.26728
G0 F6000 X110.1 Y106.14
G1 F1200 X117.134 Y113.174 E70.59814
G0 F6000 X116.935 Y113.587
G0 X118.059 Y114.694
G0 X118.487 Y114.527
G1 F1200 X125.529 Y121.57 E70.9294
G0 F6000 X125.246 Y121.852
G1 F1200 X118.673 Y115.279 E71.23857
G0 F6000 X118.669 Y115.841
G1 F1200 X124.964 Y122.135 E71.53465
G0 F6000 X124.681 Y122.418
G1 F1200 X118.572 Y116.309 E71.822
G0 F6000 X118.406 Y116.709
G1 F1200 X124.398 Y122.701 E72.10384
G0 F6000 X124.115 Y122.984
G1 F1200 X118.187 Y117.056 E72.38268
G0 F6000 X117.926 Y117.36
G1 F1200 X123.832 Y123.267 E72.6605
G0 F6000 X123.549 Y123.549
G1 F1200 X117.62 Y117.62 E72.93938
G0 F6000 X117.261 Y117.827
G1 F1200 X123.267 Y123.832 E73.22186
G0 F6000 X122.984 Y124.115
G1 F1200 X116.85 Y117.981 E73.51039
G0 F6000 X116.374 Y118.071
G1 F1200 X122.701 Y124.398 E73.80799
G0 F6000 X122.418 Y124.681
G1 F1200 X115.802 Y118.065 E74.11919
G0 F6000 X114.972 Y117.8
G1 F1200 X122.135 Y124.964 E74.45613
G0 F6000 X122.46 Y125.29
G0 X126.137 Y121.613
G0 X125.812 Y121.287
G1 F1200 X110.382 Y105.857 E75.18191
G0 F6000 X110.665 Y105.574
G1 F1200 X126.095 Y121.004 E75.90769
G0 F6000 X126.378 Y120.721
G1 F1200 X110.948 Y105.291 E76.63347
G0 F6000 X111.231 Y105.008
G1 F1200 X126.661 Y120.438 E77.35925
G0 F6000 X126.944 Y120.155
G1 F1200 X111.514 Y104.726 E78.08501
G0 F6000 X111.973 Y104.619
G1 F1200 X127.051 Y119.697 E78.79423
G0 F6000 X127.051 Y119.131
G1 F1200 X112.538 Y104.619 E79.47686
G0 F6000 X113.104 Y104.619
G1 F1200 X127.051 Y118.566 E80.13288
G0 F6000 X127.051 Y118
G1 F1200 X113.67 Y104.619 E80.76228
G0 F6000 X114.235 Y104.619
G1 F1200 X127.051 Y117.434 E81.36508
G0 F6000 X127.051 Y116.869
G1 F1200 X114.801 Y104.619 E81.94129
G0 F6000 X115.367 Y104.619
G1 F1200 X127.051 Y116.303 E82.49087
