;FLAVOR:Marlin
;TIME:3037
;Filament used: 1.92682m
;Layer height: 0.2
;MINX:96.935
;MINY:99.635
;MINZ:0.2
;MAXX:137.2
;MAXY:135.365
;MAXZ:14
;Generated with Cura_SteamEngine 99.10.0-Arachne_engine_beta_2
M140 S60
M105
M190 S60
M104 S205
M105
M109 S205
M82 ;absolute extrusion mode
; Ender 3 Custom Start G-code
G92 E0 ; Reset Extruder
G28 ; Home all axes
;G29 ; Auto bed leveling (ABL)
G1 Z2.0 F3000 ; Move Z Axis up little to prevent scratching of Heat Bed
G1 X0.1 Y20 Z0.3 F5000.0 ; Move to start position
G1 X0.1 Y200.0 Z0.3 F1500.0 E15 ; Draw the first line
G1 X0.4 Y200.0 Z0.3 F5000.0 ; Move to side a little
G1 X0.4 Y20 Z0.3 F1500.0 E30 ; Draw the second line
G92 E0 ; Reset Extruder
G1 Z2.0 F3000 ; Move Z Axis up little to prevent scratching of Heat Bed
G1 X5 Y20 Z0.3 F5000.0 ; Move over to prevent blob squish
G92 E0
G92 E0
G1 F2700 E-5
;LAYER_COUNT:70
;LAYER:0
M107
;MESH:ButtonSlot.stl
G0 F6000 X118.541 Y123.41 Z0.2
;TYPE:WALL-INNER
G1 F2700 E0
G1 F1200 X117.999 Y123.479 E0.01817
G1 X117.673 Y123.497 E0.02903
G1 X117.599 Y123.498 E0.03149
G1 X117.101 Y123.486 E0.04806
G1 X117.026 Y123.482 E0.05056
G1 X116.777 Y123.457 E0.05888
G1 X116.705 Y123.447 E0.0613
G1 X116.227 Y123.364 E0.07744
G1 X116.152 Y123.348 E0.07999
G1 X115.847 Y123.269 E0.09047
G1 X115.61 Y123.194 E0.09873
G1 X115.315 Y123.088 E0.10916
G1 X115.057 Y122.982 E0.11844
G1 X114.78 Y122.848 E0.12867
G1 X114.52 Y122.708 E0.13849
G1 X114.246 Y122.541 E0.14917
G1 X113.999 Y122.374 E0.15908
G1 X113.932 Y122.324 E0.16186
G1 X113.538 Y122.005 E0.17872
G1 X113.309 Y121.794 E0.18908
G1 X113.089 Y121.567 E0.1996
G1 X112.883 Y121.334 E0.20994
G1 X112.717 Y121.122 E0.2189
G1 X112.532 Y120.865 E0.22943
G1 X112.393 Y120.653 E0.23786
G1 X112.35 Y120.581 E0.24065
G1 X112.126 Y120.168 E0.25628
G1 X112.094 Y120.103 E0.25869
G1 X111.982 Y119.855 E0.26774
G1 X111.955 Y119.789 E0.27011
G1 X111.782 Y119.319 E0.28677
G1 X111.697 Y119.029 E0.29682
G1 X111.621 Y118.705 E0.30789
G1 X111.609 Y118.651 E0.30972
G1 X111.556 Y118.317 E0.32097
G1 X111.512 Y117.871 E0.33588
G1 X111.508 Y117.802 E0.33818
G1 X111.5 Y117.532 E0.34716
G1 X111.506 Y117.249 E0.35658
G1 X111.527 Y116.933 E0.36711
G1 X111.535 Y116.855 E0.36972
G1 X111.603 Y116.398 E0.38509
G1 X111.672 Y116.076 E0.39604
G1 X111.692 Y115.998 E0.39872
G1 X111.838 Y115.52 E0.41534
G1 X111.952 Y115.219 E0.42604
G1 X112.08 Y114.926 E0.43668
G1 X112.219 Y114.652 E0.4469
G1 X112.255 Y114.587 E0.44937
G1 X112.502 Y114.183 E0.46512
G1 X112.537 Y114.13 E0.46723
G1 X112.714 Y113.878 E0.47747
G1 X113.068 Y113.455 E0.49582
G1 X113.137 Y113.381 E0.49918
G1 X113.477 Y113.051 E0.51494
G1 X113.523 Y113.009 E0.51702
G1 X113.731 Y112.831 E0.52612
G1 X113.979 Y112.642 E0.53649
G1 X114.037 Y112.601 E0.53885
G1 X114.437 Y112.342 E0.5547
G1 X114.714 Y112.187 E0.56526
G1 X114.987 Y112.053 E0.57538
G1 X115.255 Y111.937 E0.58509
G1 X115.303 Y111.917 E0.58682
G1 X115.555 Y111.824 E0.59575
G1 X115.845 Y111.732 E0.60587
G1 X116.151 Y111.652 E0.61639
G1 X116.214 Y111.638 E0.61854
G1 X116.533 Y111.579 E0.62933
G1 X116.976 Y111.523 E0.64418
G1 X117.298 Y111.504 E0.65491
G1 X117.646 Y111.502 E0.66648
G1 X117.944 Y111.517 E0.67641
G1 X118.217 Y111.543 E0.68553
G1 X118.294 Y111.553 E0.68811
G1 X118.749 Y111.632 E0.70347
G1 X118.815 Y111.646 E0.70571
G1 X119.069 Y111.708 E0.71441
G1 X119.391 Y111.805 E0.7256
G1 X119.465 Y111.831 E0.7282
G1 X119.9 Y112.002 E0.74375
G1 X119.964 Y112.029 E0.74606
G1 X120.261 Y112.172 E0.75702
G1 X120.497 Y112.303 E0.766
G1 X120.771 Y112.47 E0.77667
G1 X121.024 Y112.643 E0.78687
G1 X121.432 Y112.969 E0.80424
G1 X121.649 Y113.165 E0.81396
G1 X121.689 Y113.203 E0.8158
G1 X121.893 Y113.414 E0.82556
G1 X122.076 Y113.618 E0.83468
G1 X122.286 Y113.88 E0.84584
G1 X122.578 Y114.304 E0.86297
G1 X122.631 Y114.39 E0.86633
G1 X122.88 Y114.844 E0.88355
G1 X122.925 Y114.936 E0.88695
G1 X123.117 Y115.392 E0.90341
G1 X123.141 Y115.456 E0.90568
G1 X123.242 Y115.755 E0.91618
G1 X123.315 Y116.016 E0.9252
G1 X123.392 Y116.357 E0.93682
G1 X123.435 Y116.615 E0.94552
G1 X123.444 Y116.682 E0.94777
G1 X123.488 Y117.129 E0.96271
G1 X123.492 Y117.203 E0.96517
G1 X123.5 Y117.526 E0.97592
G1 X123.474 Y118.048 E0.9933
G1 X123.464 Y118.146 E0.99658
G1 X123.389 Y118.651 E1.01356
G1 X123.323 Y118.952 E1.02381
G1 X123.301 Y119.032 E1.02657
G1 X123.157 Y119.494 E1.04266
G1 X123.136 Y119.555 E1.04481
G1 X123.041 Y119.803 E1.05364
G1 X123.009 Y119.877 E1.05633
G1 X122.794 Y120.324 E1.07282
G1 X122.756 Y120.396 E1.07553
G1 X122.629 Y120.613 E1.08389
G1 X122.594 Y120.668 E1.08606
G1 X122.286 Y121.121 E1.10428
G1 X121.934 Y121.54 E1.12248
G1 X121.886 Y121.593 E1.12486
G1 X121.707 Y121.777 E1.1334
G1 X121.654 Y121.828 E1.13584
G1 X121.282 Y122.158 E1.15238
G1 X121.221 Y122.208 E1.15501
G1 X120.982 Y122.387 E1.16494
G1 X120.738 Y122.552 E1.17474
G1 X120.523 Y122.684 E1.18313
G1 X120.454 Y122.722 E1.18575
G1 X120.011 Y122.948 E1.20229
G1 X119.922 Y122.988 E1.20553
G1 X119.464 Y123.168 E1.2219
G1 X119.399 Y123.191 E1.22419
G1 X119.102 Y123.283 E1.23454
G1 X118.791 Y123.361 E1.2452
G1 X118.541 Y123.41 E1.25367
G0 F6000 X117.949 Y123.082
G1 F1200 X117.903 Y123.086 E1.25521
G1 X117.624 Y123.098 E1.2645
G1 X117.066 Y123.084 E1.28306
G1 X116.817 Y123.059 E1.29139
G1 X116.296 Y122.97 E1.30896
G1 X115.999 Y122.896 E1.31914
G1 X115.744 Y122.817 E1.32802
G1 X115.467 Y122.718 E1.33781
G1 X115.174 Y122.596 E1.34836
G1 X114.931 Y122.476 E1.35738
G1 X114.686 Y122.342 E1.36667
G1 X114.47 Y122.21 E1.37509
G1 X114.223 Y122.043 E1.385
G1 X114.183 Y122.013 E1.38667
G1 X113.807 Y121.709 E1.40275
G1 X113.596 Y121.515 E1.41228
G1 X113.387 Y121.3 E1.42225
G1 X113.197 Y121.086 E1.43177
G1 X113.041 Y120.888 E1.44016
G1 X112.867 Y120.645 E1.4501
G1 X112.728 Y120.434 E1.4585
G1 X112.702 Y120.391 E1.46017
G1 X112.478 Y119.978 E1.4758
G1 X112.33 Y119.651 E1.48774
G1 X112.157 Y119.181 E1.50439
G1 X112.082 Y118.921 E1.51339
G1 X112.003 Y118.582 E1.52497
G1 X111.954 Y118.277 E1.53525
G1 X111.91 Y117.831 E1.55015
G1 X111.9 Y117.52 E1.5605
G1 X111.907 Y117.234 E1.57002
G1 X111.926 Y116.961 E1.57912
G1 X111.931 Y116.914 E1.58069
G1 X112.006 Y116.417 E1.59741
G1 X112.062 Y116.162 E1.60609
G1 X112.221 Y115.637 E1.62434
G1 X112.325 Y115.363 E1.63408
G1 X112.461 Y115.056 E1.64525
G1 X112.597 Y114.796 E1.65501
G1 X112.864 Y114.36 E1.67202
G1 X113.034 Y114.119 E1.68182
G1 X113.053 Y114.094 E1.68287
G1 X113.374 Y113.713 E1.69944
G1 X113.416 Y113.668 E1.70149
G1 X113.783 Y113.313 E1.71847
G1 X114.02 Y113.111 E1.72883
G1 X114.254 Y112.937 E1.73853
G1 X114.654 Y112.678 E1.75437
G1 X114.907 Y112.537 E1.76401
G1 X115.187 Y112.401 E1.77436
G1 X115.442 Y112.293 E1.78357
G1 X115.721 Y112.19 E1.79346
G1 X115.997 Y112.104 E1.80308
G1 X116.288 Y112.031 E1.81306
G1 X116.583 Y111.976 E1.82304
G1 X117.07 Y111.916 E1.83936
G1 X117.348 Y111.903 E1.84861
G1 X117.628 Y111.902 E1.85793
G1 X117.906 Y111.915 E1.86718
G1 X118.225 Y111.947 E1.87785
G1 X118.68 Y112.026 E1.89321
G1 X119.005 Y112.105 E1.90433
G1 X119.319 Y112.203 E1.91527
G1 X119.754 Y112.374 E1.93082
G1 X120.069 Y112.523 E1.94241
G1 X120.29 Y112.645 E1.9508
G1 X120.549 Y112.802 E1.96088
G1 X120.774 Y112.956 E1.96995
G1 X121.213 Y113.308 E1.98866
G1 X121.403 Y113.483 E1.99725
G1 X121.595 Y113.681 E2.00643
G1 X121.802 Y113.913 E2.01677
G1 X121.982 Y114.142 E2.02646
G1 X122.249 Y114.53 E2.04212
G1 X122.281 Y114.582 E2.04415
G1 X122.53 Y115.036 E2.06137
G1 X122.557 Y115.092 E2.06344
G1 X122.763 Y115.586 E2.08124
G1 X122.857 Y115.863 E2.09097
G1 X122.925 Y116.106 E2.09936
G1 X122.99 Y116.385 E2.10889
G1 X123.046 Y116.721 E2.12022
G1 X123.09 Y117.168 E2.13516
G1 X123.1 Y117.526 E2.14707
G1 X123.075 Y118.028 E2.16379
G1 X123.069 Y118.086 E2.16573
G1 X122.995 Y118.582 E2.18241
G1 X122.932 Y118.865 E2.19205
G1 X122.919 Y118.913 E2.19371
G1 X122.763 Y119.412 E2.2111
G1 X122.668 Y119.659 E2.2199
G1 X122.433 Y120.151 E2.23803
G1 X122.41 Y120.194 E2.23965
G1 X122.262 Y120.444 E2.24932
G1 X121.966 Y120.88 E2.26684
G1 X121.628 Y121.282 E2.28431
G1 X121.6 Y121.314 E2.28573
G1 X121.421 Y121.498 E2.29427
G1 X121.017 Y121.858 E2.31226
G1 X120.78 Y122.039 E2.32218
G1 X120.528 Y122.211 E2.33233
G1 X120.313 Y122.343 E2.34072
G1 X120.272 Y122.366 E2.34228
G1 X119.829 Y122.592 E2.35883
G1 X119.776 Y122.616 E2.36076
G1 X119.279 Y122.81 E2.37851
G1 X119.003 Y122.896 E2.38812
G1 X118.715 Y122.969 E2.398
G1 X118.443 Y123.02 E2.40721
G1 X117.949 Y123.082 E2.42377
G0 F6000 X117.619 Y122.698
;TYPE:WALL-OUTER
G1 F1200 X117.106 Y122.686 E2.44083
G1 X116.842 Y122.659 E2.44966
G1 X116.349 Y122.572 E2.46631
G1 X116.087 Y122.505 E2.4753
G1 X115.886 Y122.442 E2.48231
G1 X115.628 Y122.351 E2.49141
G1 X115.35 Y122.236 E2.50142
G1 X115.131 Y122.129 E2.50952
G1 X114.894 Y122 E2.5185
G1 X114.702 Y121.883 E2.52598
G1 X114.434 Y121.701 E2.53675
G1 X114.076 Y121.413 E2.55203
G1 X113.882 Y121.236 E2.56077
G1 X113.691 Y121.04 E2.56987
G1 X113.511 Y120.838 E2.57887
G1 X113.368 Y120.657 E2.58654
G1 X113.206 Y120.434 E2.59571
G1 X113.054 Y120.2 E2.60499
G1 X112.823 Y119.774 E2.62111
G1 X112.706 Y119.513 E2.63062
G1 X112.528 Y119.028 E2.6478
G1 X112.467 Y118.812 E2.65527
G1 X112.397 Y118.513 E2.66548
G1 X112.352 Y118.238 E2.67475
G1 X112.308 Y117.778 E2.69012
G1 X112.3 Y117.508 E2.6991
G1 X112.306 Y117.27 E2.70702
G1 X112.327 Y116.973 E2.71693
G1 X112.397 Y116.503 E2.73273
G1 X112.457 Y116.232 E2.74196
G1 X112.608 Y115.74 E2.75908
G1 X112.698 Y115.507 E2.76739
G1 X112.817 Y115.239 E2.77714
G1 X112.938 Y115.004 E2.78593
G1 X113.192 Y114.59 E2.80209
G1 X113.359 Y114.352 E2.81176
G1 X113.694 Y113.955 E2.82903
G1 X114.043 Y113.617 E2.84519
G1 X114.261 Y113.431 E2.85472
G1 X114.472 Y113.273 E2.86349
G1 X114.884 Y113.006 E2.87982
G1 X115.1 Y112.887 E2.88802
G1 X115.336 Y112.773 E2.89674
G1 X115.571 Y112.672 E2.90525
G1 X115.832 Y112.575 E2.91451
G1 X116.096 Y112.492 E2.92371
G1 X116.362 Y112.424 E2.93284
G1 X116.633 Y112.373 E2.94202
G1 X117.091 Y112.316 E2.95737
G1 X117.34 Y112.303 E2.96566
G1 X117.601 Y112.302 E2.97434
G1 X117.858 Y112.313 E2.9829
G1 X118.157 Y112.341 E2.99288
G1 X118.625 Y112.423 E3.00869
G1 X118.889 Y112.488 E3.01773
G1 X119.173 Y112.575 E3.02761
G1 X119.62 Y112.752 E3.0436
G1 X119.877 Y112.874 E3.05306
G1 X120.076 Y112.983 E3.06061
G1 X120.318 Y113.129 E3.07001
G1 X120.524 Y113.268 E3.07827
G1 X120.943 Y113.603 E3.09612
G1 X121.117 Y113.763 E3.10398
G1 X121.292 Y113.942 E3.11231
G1 X121.488 Y114.161 E3.12208
G1 X121.652 Y114.369 E3.13089
G1 X121.93 Y114.774 E3.14723
G1 X122.188 Y115.247 E3.16515
G1 X122.385 Y115.716 E3.18207
G1 X122.472 Y115.971 E3.19103
G1 X122.533 Y116.188 E3.19853
G1 X122.603 Y116.489 E3.20881
G1 X122.648 Y116.76 E3.21794
G1 X122.692 Y117.207 E3.23288
G1 X122.699 Y117.537 E3.24386
G1 X122.673 Y118.027 E3.26018
G1 X122.599 Y118.522 E3.27683
G1 X122.537 Y118.794 E3.28611
G1 X122.389 Y119.268 E3.30262
G1 X122.288 Y119.53 E3.31196
G1 X122.065 Y119.992 E3.32902
G1 X121.931 Y120.22 E3.33782
G1 X121.653 Y120.631 E3.35432
G1 X121.313 Y121.035 E3.37189
G1 X121.123 Y121.229 E3.38092
G1 X120.739 Y121.569 E3.39798
G1 X120.539 Y121.72 E3.40631
G1 X120.327 Y121.865 E3.41485
G1 X120.09 Y122.01 E3.42409
G1 X119.63 Y122.244 E3.44126
G1 X119.159 Y122.428 E3.45808
G1 X118.904 Y122.508 E3.46697
G1 X118.639 Y122.576 E3.47607
G1 X118.393 Y122.623 E3.4844
G1 X117.884 Y122.686 E3.50145
G1 X117.619 Y122.698 E3.51028
G1 F2700 E-1.48972
G0 F6000 X117.619 Y123.208
G0 X119.211 Y123.44
G0 X118.67 Y121.675
G0 X119.211 Y135.365
G0 X119.211 Y134.27
G0 X136.4 Y133.7
;TYPE:WALL-INNER
G1 F2700 E3.51028
G1 F1200 X136.4 Y101.3 E4.58791
G1 X98.601 Y101.301 E5.84511
G1 X98.6 Y133.7 E6.9227
G1 X136.4 Y133.7 E8.17993
G0 F6000 X136.8 Y134.1
G1 F1200 X136.8 Y100.9 E9.28417
G1 X98.201 Y100.901 E10.56798
G1 X98.2 Y134.1 E11.67218
G1 X136.8 Y134.1 E12.95602
G0 F6000 X137.2 Y134.5
;TYPE:WALL-OUTER
G1 F1200 X137.2 Y100.5 E14.08687
G1 X97.801 Y100.501 E15.39728
G1 X97.8 Y134.5 E16.5281
G1 X137.2 Y134.5 E17.83854
G1 F2700 E12.83854
G0 F6000 X136.72 Y134.02
G0 X118.56 Y134.27
G0 X118.56 Y135.365
G0 X117.839 Y121.822
G0 X118.022 Y123.658
G0 X118.56 Y123.506
G1 F2700 E17.83854
G0 F6000 X118.615 Y123.764
;TYPE:SKIN
G1 F1200 X118.03 Y123.837 E17.85815
G1 X117.679 Y123.857 E17.86985
G1 X117.08 Y123.846 E17.88977
G1 X116.729 Y123.814 E17.90149
G1 X116.164 Y123.72 E17.92055
G1 X115.727 Y123.61 E17.93553
G1 X115.231 Y123.44 E17.95297
G1 X114.907 Y123.31 E17.96458
G1 X114.621 Y123.171 E17.97516
G1 X114.347 Y123.023 E17.98552
G1 X114.098 Y122.874 E17.99517
G1 X113.784 Y122.665 E18.00771
G1 X113.347 Y122.316 E18.02632
G1 X113.102 Y122.095 E18.03729
G1 X112.861 Y121.849 E18.04874
G1 X112.647 Y121.612 E18.05936
G1 X112.455 Y121.375 E18.06951
G1 X112.266 Y121.114 E18.08023
G1 X112.081 Y120.836 E18.09133
G1 X111.805 Y120.33 E18.1105
G1 X111.649 Y119.991 E18.12292
G1 X111.441 Y119.432 E18.14275
G1 X111.348 Y119.119 E18.15361
G1 X111.268 Y118.777 E18.1653
G1 X111.204 Y118.415 E18.17752
G1 X111.153 Y117.894 E18.19493
G1 X111.14 Y117.547 E18.20648
G1 X111.146 Y117.24 E18.2167
G1 X111.168 Y116.894 E18.22823
G1 X111.247 Y116.347 E18.24661
G1 X111.322 Y115.985 E18.25891
G1 X111.498 Y115.404 E18.2791
G1 X111.615 Y115.089 E18.29027
G1 X111.754 Y114.773 E18.30176
G1 X111.904 Y114.477 E18.31279
G1 X112.202 Y113.987 E18.33187
G1 X112.409 Y113.687 E18.34399
G1 X112.807 Y113.206 E18.36475
G1 X113.234 Y112.786 E18.38468
G1 X113.505 Y112.549 E18.39665
G1 X113.772 Y112.347 E18.40778
G1 X114.253 Y112.033 E18.42689
G1 X114.546 Y111.867 E18.43809
G1 X114.83 Y111.729 E18.44859
G1 X115.122 Y111.602 E18.45918
G1 X115.43 Y111.488 E18.47011
G1 X115.737 Y111.387 E18.48086
G1 X116.072 Y111.299 E18.49238
G1 X116.417 Y111.231 E18.50407
G1 X116.944 Y111.165 E18.52174
G1 X117.289 Y111.144 E18.53323
G1 X117.663 Y111.142 E18.54567
G1 X117.911 Y111.154 E18.55393
G1 X118.263 Y111.186 E18.56569
G1 X118.822 Y111.278 E18.58453
G1 X119.165 Y111.36 E18.59626
G1 X119.509 Y111.466 E18.60823
G1 X120.044 Y111.671 E18.62729
G1 X120.374 Y111.826 E18.63941
G1 X120.633 Y111.966 E18.64921
G1 X120.917 Y112.136 E18.66021
G1 X121.155 Y112.292 E18.66968
G1 X121.664 Y112.693 E18.69123
G1 X121.898 Y112.903 E18.70169
G1 X122.12 Y113.129 E18.71222
G1 X122.352 Y113.386 E18.72374
G1 X122.578 Y113.67 E18.73581
G1 X122.949 Y114.217 E18.7578
G1 X123.196 Y114.666 E18.77484
G1 X123.453 Y115.265 E18.79652
G1 X123.564 Y115.583 E18.80772
G1 X123.653 Y115.882 E18.8181
G1 X123.737 Y116.236 E18.8302
G1 X123.794 Y116.58 E18.8418
G1 X123.847 Y117.104 E18.85931
G1 X123.859 Y117.508 E18.87276
G1 X123.833 Y118.082 E18.89187
G1 X123.746 Y118.694 E18.91243
G1 X123.671 Y119.044 E18.92433
G1 X123.497 Y119.612 E18.94409
G1 X123.375 Y119.937 E18.95564
G1 X123.113 Y120.493 E18.97608
G1 X122.933 Y120.805 E18.98806
G1 X122.608 Y121.29 E19.00748
G1 X122.202 Y121.782 E19.02869
G1 X121.956 Y122.036 E19.04045
G1 X121.511 Y122.435 E19.06033
G1 X121.232 Y122.65 E19.07205
G1 X120.981 Y122.823 E19.08219
G1 X120.7 Y122.997 E19.09318
G1 X120.153 Y123.28 E19.11367
G1 X119.586 Y123.508 E19.13399
G1 X119.27 Y123.611 E19.14505
G1 X118.928 Y123.7 E19.1568
G1 X118.615 Y123.764 E19.16743
G1 F2700 E14.16743
G0 F6000 X118.56 Y123.506
G0 X116.759 Y123.637
G0 X116.955 Y121.801
G0 X106.672 Y135.365
G0 X106.672 Y133.5
G0 X98.772 Y133.528
G1 F2700 E19.16743
G0 F6000 X98.961 Y133.339
G1 F1200 X136.04 Y133.34 E20.40068
G1 X136.04 Y101.66 E21.45436
G1 X98.962 Y101.662 E22.68758
G1 X98.961 Y133.339 E23.74116
G0 F6000 X99.762 Y133.138
G1 F1200 X99.16 Y132.535 E23.7695
G0 F6000 X99.16 Y131.97
G1 F1200 X100.328 Y133.138 E23.82444
G0 F6000 X100.894 Y133.138
G1 F1200 X99.16 Y131.404 E23.906
G0 F6000 X99.16 Y130.838
G1 F1200 X101.459 Y133.138 E24.01416
G0 F6000 X102.025 Y133.138
G1 F1200 X99.16 Y130.273 E24.14892
G0 F6000 X99.16 Y129.707
G1 F1200 X102.591 Y133.138 E24.31031
G0 F6000 X103.156 Y133.138
G1 F1200 X99.16 Y129.141 E24.49829
G0 F6000 X99.16 Y128.576
G1 F1200 X103.722 Y133.138 E24.71287
G0 F6000 X104.288 Y133.138
G1 F1200 X99.16 Y128.01 E24.95408
G0 F6000 X99.16 Y127.444
G1 F1200 X104.854 Y133.138 E25.22191
G0 F6000 X105.419 Y133.138
G1 F1200 X99.16 Y126.878 E25.51633
G0 F6000 X99.16 Y126.313
G1 F1200 X105.985 Y133.138 E25.83736
