;FLAVOR:Marlin
;TIME:1757
;Filament used: 1.08624m
;Layer height: 0.2
;MINX:105.3
;MINY:104.435
;MINZ:0.2
;MAXX:130.565
;MAXY:130.565
;MAXZ:13
;Generated with Cura_SteamEngine 99.10.0-Arachne_engine_beta_2
M140 S60
M105
M190 S60
M104 S205
M105
M109 S205
M82 ;absolute extrusion mode
; Ender 3 Custom Start G-code
G92 E0 ; Reset Extruder
G28 ; Home all axes
;G29 ; Auto bed leveling (ABL)
G1 Z2.0 F3000 ; Move Z Axis up little to prevent scratching of Heat Bed
G1 X0.1 Y20 Z0.3 F5000.0 ; Move to start position
G1 X0.1 Y200.0 Z0.3 F1500.0 E15 ; Draw the first line
G1 X0.4 Y200.0 Z0.3 F5000.0 ; Move to side a little
G1 X0.4 Y20 Z0.3 F1500.0 E30 ; Draw the second line
G92 E0 ; Reset Extruder
G1 Z2.0 F3000 ; Move Z Axis up little to prevent scratching of Heat Bed
G1 X5 Y20 Z0.3 F5000.0 ; Move over to prevent blob squish
G92 E0
G92 E0
G1 F2700 E-5
;LAYER_COUNT:65
;LAYER:0
M107
;MESH:DialSlot.stl
G0 F6000 X118.344 Y123.435 Z0.2
;TYPE:WALL-INNER
G1 F2700 E0
G1 F1200 X118.104 Y123.464 E0.00804
G1 X116.896 Y123.464 E0.04822
G1 X116.656 Y123.435 E0.05626
G1 X115.486 Y123.146 E0.09634
G1 X115.26 Y123.061 E0.10437
G1 X114.196 Y122.502 E0.14435
G1 X113.999 Y122.365 E0.15233
G1 X113.093 Y121.563 E0.19257
G1 X112.932 Y121.383 E0.20061
G1 X112.25 Y120.395 E0.24054
G1 X112.139 Y120.182 E0.24853
G1 X111.709 Y119.051 E0.28877
G1 X111.651 Y118.815 E0.29685
G1 X111.507 Y117.62 E0.33689
G1 X111.507 Y117.38 E0.34487
G1 X111.651 Y116.185 E0.3849
G1 X111.709 Y115.949 E0.39298
G1 X112.139 Y114.818 E0.43323
G1 X112.25 Y114.605 E0.44122
G1 X112.932 Y113.617 E0.48115
G1 X113.091 Y113.438 E0.48911
G1 X113.999 Y112.635 E0.52943
G1 X114.196 Y112.498 E0.53741
G1 X115.26 Y111.939 E0.57738
G1 X115.486 Y111.854 E0.58541
G1 X116.656 Y111.565 E0.6255
G1 X116.896 Y111.536 E0.63354
G1 X118.104 Y111.536 E0.67372
G1 X118.344 Y111.565 E0.68176
G1 X119.514 Y111.854 E0.72184
G1 X119.74 Y111.939 E0.72987
G1 X120.804 Y112.498 E0.76985
G1 X121.001 Y112.635 E0.77783
G1 X121.907 Y113.437 E0.81807
G1 X122.068 Y113.617 E0.8261
G1 X122.75 Y114.605 E0.86603
G1 X122.861 Y114.818 E0.87402
G1 X123.291 Y115.949 E0.91427
G1 X123.349 Y116.185 E0.92235
G1 X123.493 Y117.38 E0.96238
G1 X123.493 Y117.62 E0.97037
G1 X123.342 Y118.868 E1.01218
G1 X123.291 Y119.051 E1.0185
G1 X122.861 Y120.182 E1.05874
G1 X122.75 Y120.395 E1.06673
G1 X122.068 Y121.383 E1.10666
G1 X121.909 Y121.562 E1.11462
G1 X121.001 Y122.365 E1.15494
G1 X120.804 Y122.502 E1.16292
G1 X119.74 Y123.061 E1.20289
G1 X119.514 Y123.146 E1.21092
G1 X118.344 Y123.435 E1.25101
G0 F6000 X118.208 Y123.056
G1 F1200 X118.104 Y123.064 E1.25448
G1 X116.896 Y123.064 E1.29466
G1 X116.752 Y123.047 E1.29948
G1 X115.582 Y122.758 E1.33956
G1 X115.446 Y122.707 E1.34439
G1 X114.382 Y122.148 E1.38437
G1 X114.264 Y122.066 E1.38915
G1 X113.358 Y121.264 E1.42939
G1 X113.262 Y121.155 E1.43422
G1 X112.58 Y120.167 E1.47415
G1 X112.513 Y120.04 E1.47893
G1 X112.083 Y118.909 E1.51917
G1 X112.048 Y118.767 E1.52404
G1 X111.904 Y117.572 E1.56407
G1 X111.904 Y117.428 E1.56886
G1 X112.048 Y116.233 E1.60889
G1 X112.083 Y116.091 E1.61376
G1 X112.513 Y114.96 E1.654
G1 X112.58 Y114.833 E1.65878
G1 X113.262 Y113.845 E1.69871
G1 X113.357 Y113.737 E1.70349
G1 X114.264 Y112.934 E1.74378
G1 X114.382 Y112.852 E1.74856
G1 X115.446 Y112.293 E1.78854
G1 X115.582 Y112.242 E1.79337
G1 X116.792 Y111.944 E1.83482
G1 X116.896 Y111.936 E1.83828
G1 X118.104 Y111.936 E1.87846
G1 X118.248 Y111.953 E1.88329
G1 X119.418 Y112.242 E1.92337
G1 X119.554 Y112.293 E1.9282
G1 X120.618 Y112.852 E1.96818
G1 X120.736 Y112.934 E1.97296
G1 X121.642 Y113.736 E2.0132
G1 X121.738 Y113.845 E2.01803
G1 X122.42 Y114.833 E2.05796
G1 X122.487 Y114.96 E2.06274
G1 X122.917 Y116.091 E2.10298
G1 X122.952 Y116.233 E2.10784
G1 X123.096 Y117.428 E2.14788
G1 X123.096 Y117.572 E2.15267
G1 X122.948 Y118.799 E2.19377
G1 X122.917 Y118.909 E2.19757
G1 X122.487 Y120.04 E2.23782
G1 X122.42 Y120.167 E2.24259
G1 X121.738 Y121.155 E2.28252
G1 X121.643 Y121.263 E2.28731
G1 X120.736 Y122.066 E2.3276
G1 X120.618 Y122.148 E2.33238
G1 X119.554 Y122.707 E2.37235
G1 X119.418 Y122.758 E2.37718
G1 X118.208 Y123.056 E2.41863
G0 F6000 X118.139 Y122.662
;TYPE:WALL-OUTER
G1 F1200 X118.104 Y122.664 E2.4198
G1 X116.896 Y122.664 E2.45998
G1 X116.848 Y122.659 E2.46158
G1 X115.678 Y122.37 E2.50167
G1 X115.632 Y122.353 E2.5033
G1 X114.568 Y121.794 E2.54327
G1 X114.529 Y121.766 E2.54487
G1 X113.623 Y120.964 E2.58511
G1 X113.591 Y120.928 E2.58671
G1 X112.909 Y119.94 E2.62664
G1 X112.887 Y119.898 E2.62822
G1 X112.457 Y118.767 E2.66847
G1 X112.445 Y118.719 E2.67011
G1 X112.301 Y117.524 E2.71014
G1 X112.301 Y117.476 E2.71174
G1 X112.445 Y116.281 E2.75177
G1 X112.457 Y116.233 E2.75342
G1 X112.887 Y115.102 E2.79366
G1 X112.909 Y115.06 E2.79524
G1 X113.591 Y114.072 E2.83517
G1 X113.623 Y114.036 E2.83677
G1 X114.529 Y113.234 E2.87702
G1 X114.568 Y113.206 E2.87861
G1 X115.632 Y112.647 E2.91859
G1 X115.678 Y112.63 E2.92022
G1 X116.861 Y112.338 E2.96075
G1 X116.896 Y112.336 E2.96191
G1 X118.104 Y112.336 E3.00209
G1 X118.152 Y112.341 E3.0037
G1 X119.322 Y112.63 E3.04378
G1 X119.368 Y112.647 E3.04541
G1 X120.432 Y113.206 E3.08539
G1 X120.471 Y113.234 E3.08698
G1 X121.377 Y114.036 E3.12723
G1 X121.409 Y114.072 E3.12883
G1 X122.091 Y115.06 E3.16876
G1 X122.113 Y115.102 E3.17034
G1 X122.543 Y116.233 E3.21058
G1 X122.555 Y116.281 E3.21223
G1 X122.699 Y117.476 E3.25226
G1 X122.699 Y117.524 E3.25386
G1 X122.554 Y118.73 E3.29426
G1 X122.543 Y118.767 E3.29554
G1 X122.113 Y119.898 E3.33579
G1 X122.091 Y119.94 E3.33736
G1 X121.409 Y120.928 E3.37729
G1 X121.377 Y120.964 E3.37889
G1 X120.471 Y121.766 E3.41914
G1 X120.432 Y121.794 E3.42074
G1 X119.368 Y122.353 E3.46071
G1 X119.322 Y122.37 E3.46234
G1 X118.139 Y122.662 E3.50287
G1 F2700 E-1.49713
G0 F6000 X118.261 Y123.157
G0 X120.887 Y122.662
G0 X119.959 Y121.066
G0 X124.7 Y130.565
G0 X124.7 Y128.7
G0 X128.9 Y128.9
;TYPE:WALL-INNER
G1 F2700 E3.50287
G1 F1200 X128.9 Y106.1 E4.2612
G1 X106.1 Y106.1 E5.01953
G1 X106.1 Y110.3 E5.15922
G1 X106.1 Y128.9 E5.77786
G1 X128.9 Y128.9 E6.53619
G0 F6000 X129.3 Y129.3
G1 F1200 X129.3 Y105.7 E7.32113
G1 X105.7 Y105.7 E8.10607
G1 X105.7 Y110.3 E8.25907
G1 X105.7 Y129.3 E8.89101
G1 X129.3 Y129.3 E9.67595
G0 F6000 X129.7 Y129.7
;TYPE:WALL-OUTER
G1 F1200 X129.7 Y105.3 E10.4875
G1 X105.3 Y105.3 E11.29905
G1 X105.3 Y110.3 E11.46535
G1 X105.3 Y129.7 E12.11059
G1 X129.7 Y129.7 E12.92214
G1 F2700 E7.92214
G0 F6000 X129.22 Y129.22
G0 X118.371 Y129.47
G0 X118.371 Y130.565
G0 X118.022 Y121.8
G0 X118.104 Y123.645
G0 X118.371 Y123.532
G1 F2700 E12.92214
G0 F6000 X118.416 Y123.789
;TYPE:SKIN
G1 F1200 X118.099 Y123.824 E12.93275
G1 X116.878 Y123.823 E12.97336
G1 X116.566 Y123.785 E12.98381
G1 X115.394 Y123.497 E13.02395
G1 X115.369 Y123.489 E13.02483
G1 X115.106 Y123.386 E13.03422
G1 X114.014 Y122.812 E13.07525
G1 X113.78 Y122.652 E13.08468
G1 X112.853 Y121.833 E13.12582
G1 X112.646 Y121.601 E13.13616
G1 X112.631 Y121.582 E13.13697
G1 X111.954 Y120.599 E13.17667
G1 X111.802 Y120.314 E13.18741
G1 X111.791 Y120.291 E13.18826
G1 X111.368 Y119.165 E13.22826
G1 X111.301 Y118.918 E13.23678
G1 X111.149 Y117.663 E13.27882
G1 X111.148 Y117.362 E13.28883
G1 X111.149 Y117.338 E13.28963
G1 X111.296 Y116.122 E13.33037
G1 X111.366 Y115.834 E13.34023
G1 X111.795 Y114.708 E13.38031
G1 X111.941 Y114.423 E13.39096
G1 X111.954 Y114.401 E13.39181
G1 X112.634 Y113.414 E13.43167
G1 X112.834 Y113.186 E13.44176
G1 X112.851 Y113.169 E13.44256
G1 X113.78 Y112.348 E13.48379
G1 X114.032 Y112.176 E13.49394
G1 X115.106 Y111.611 E13.5343
G1 X115.377 Y111.51 E13.54392
G1 X115.399 Y111.503 E13.54469
G1 X116.584 Y111.211 E13.58528
G1 X116.901 Y111.176 E13.59589
G1 X118.122 Y111.177 E13.6365
G1 X118.434 Y111.215 E13.64696
G1 X119.606 Y111.503 E13.6871
G1 X119.631 Y111.511 E13.68797
G1 X119.893 Y111.614 E13.69733
G1 X120.988 Y112.188 E13.73845
G1 X121.22 Y112.348 E13.74783
G1 X122.143 Y113.163 E13.78878
G1 X122.354 Y113.399 E13.79931
G1 X122.369 Y113.418 E13.80012
G1 X123.045 Y114.399 E13.83974
G1 X123.198 Y114.686 E13.85056
G1 X123.209 Y114.709 E13.85141
G1 X123.624 Y115.811 E13.89057
G1 X123.702 Y116.115 E13.90101
G1 X123.707 Y116.141 E13.90189
G1 X123.851 Y117.333 E13.94182
G1 X123.852 Y117.637 E13.95194
G1 X123.851 Y117.661 E13.95273
G1 X123.703 Y118.88 E13.99358
G1 X123.634 Y119.16 E14.00317
G1 X123.206 Y120.292 E14.04342
G1 X123.059 Y120.577 E14.05409
G1 X123.046 Y120.599 E14.05494
G1 X122.366 Y121.586 E14.0948
G1 X122.166 Y121.814 E14.10489
G1 X122.149 Y121.831 E14.10569
G1 X121.22 Y122.652 E14.14692
G1 X120.986 Y122.812 E14.15635
G1 X119.895 Y123.388 E14.19738
G1 X119.87 Y123.399 E14.19829
G1 X119.601 Y123.497 E14.20782
G1 X118.416 Y123.789 E14.24841
G1 F2700 E9.24841
G0 F6000 X118.371 Y123.532
G0 X116.611 Y123.611
G0 X116.978 Y121.8
G0 X110.3 Y130.565
G0 X110.3 Y128.7
G0 X106.272 Y128.728
G1 F2700 E14.24841
G0 F6000 X106.461 Y128.539
G1 F1200 X128.54 Y128.54 E14.98276
G1 X128.54 Y106.46 E15.71714
G1 X106.461 Y106.461 E16.45149
G1 X106.461 Y110.3 E16.57918
G1 X106.461 Y128.539 E17.18581
G0 F6000 X106.842 Y128.338
G1 F1200 X106.66 Y128.156 E17.19437
G0 F6000 X106.66 Y127.591
G1 F1200 X107.408 Y128.338 E17.22953
G0 F6000 X107.973 Y128.338
G1 F1200 X106.66 Y127.025 E17.29129
G0 F6000 X106.66 Y126.459
G1 F1200 X108.539 Y128.338 E17.37967
G0 F6000 X109.105 Y128.338
G1 F1200 X106.66 Y125.893 E17.49468
G0 F6000 X106.66 Y125.328
G1 F1200 X109.67 Y128.338 E17.63626
G0 F6000 X110.236 Y128.338
G1 F1200 X106.66 Y124.762 E17.80446
G0 F6000 X106.66 Y124.196
G1 F1200 X110.802 Y128.338 E17.99929
G0 F6000 X111.367 Y128.338
G1 F1200 X106.66 Y123.631 E18.22069
G0 F6000 X106.66 Y123.065
G1 F1200 X111.933 Y128.338 E18.46872
G0 F6000 X112.499 Y128.338
G1 F1200 X106.66 Y122.499 E18.74337
G0 F6000 X106.66 Y121.934
G1 F1200 X113.064 Y128.338 E19.04459
G0 F6000 X113.63 Y128.338
G1 F1200 X106.66 Y121.368 E19.37244
G0 F6000 X106.66 Y120.802
G1 F1200 X114.196 Y128.338 E19.72691
G0 F6000 X114.762 Y128.338
G1 F1200 X106.66 Y120.237 E20.10798
G0 F6000 X106.66 Y119.671
G1 F1200 X115.327 Y128.338 E20.51565
G0 F6000 X115.893 Y128.338
G1 F1200 X106.66 Y119.105 E20.94994
G0 F6000 X106.66 Y118.54
G1 F1200 X116.459 Y128.338 E21.41083
G0 F6000 X117.024 Y128.338
G1 F1200 X106.66 Y117.974 E21.89832
G0 F6000 X106.66 Y117.408
G1 F1200 X117.591 Y128.339 E22.41248
G0 F6000 X118.156 Y128.339
G1 F1200 X106.66 Y116.843 E22.95322
G0 F6000 X106.66 Y116.277
G1 F1200 X118.722 Y128.339 E23.52058
G0 F6000 X119.288 Y128.339
G1 F1200 X113.959 Y123.01 E23.77124
G0 F6000 X114.173 Y122.604
G0 X115.285 Y123.177
G0 X115.121 Y123.607
G1 F1200 X119.853 Y128.339 E23.99382
G0 F6000 X120.419 Y128.339
G1 F1200 X115.907 Y123.827 E24.20605
G0 F6000 X116.642 Y123.996
G1 F1200 X120.985 Y128.339 E24.41033
G0 F6000 X121.55 Y128.339
G1 F1200 X117.234 Y124.022 E24.61336
G0 F6000 X117.799 Y124.022
G1 F1200 X122.116 Y128.339 E24.81642
G0 F6000 X122.682 Y128.339
G1 F1200 X118.339 Y123.996 E25.0207
G0 F6000 X118.806 Y123.897
G1 F1200 X123.248 Y128.339 E25.22964
G0 F6000 X123.813 Y128.339
G1 F1200 X119.259 Y123.784 E25.44387
G0 F6000 X119.71 Y123.67
G1 F1200 X124.379 Y128.339 E25.66349
G0 F6000 X124.945 Y128.339
G1 F1200 X120.107 Y123.501 E25.89105
G0 F6000 X120.476 Y123.305
G1 F1200 X125.51 Y128.339 E26.12784
G0 F6000 X126.076 Y128.339
G1 F1200 X120.846 Y123.109 E26.37384
G0 F6000 X121.205 Y122.902
G1 F1200 X126.642 Y128.339 E26.62958
G0 F6000 X127.207 Y128.339
G1 F1200 X121.521 Y122.653 E26.89703
G0 F6000 X121.821 Y122.387
G1 F1200 X127.773 Y128.339 E27.177
G0 F6000 X128.339 Y128.339
G1 F1200 X122.12 Y122.12 E27.46952
G0 F6000 X122.406 Y121.84
G1 F1200 X128.339 Y127.774 E27.74861
G0 F6000 X128.339 Y127.208
G1 F1200 X122.651 Y121.52 E28.01616
G0 F6000 X122.881 Y121.184
G1 F1200 X128.339 Y126.642 E28.27289
G0 F6000 X128.339 Y126.077
G1 F1200 X123.112 Y120.849 E28.51877
G0 F6000 X123.324 Y120.495
G1 F1200 X128.339 Y125.511 E28.75468
G0 F6000 X128.339 Y124.945
G1 F1200 X123.491 Y120.097 E28.98272
G0 F6000 X123.646 Y119.687
G1 F1200 X128.339 Y124.38 E29.20346
G0 F6000 X128.339 Y123.814
G1 F1200 X123.8 Y119.275 E29.41696
G0 F6000 X123.911 Y118.82
G1 F1200 X128.339 Y123.248 E29.62524
G0 F6000 X128.339 Y122.683
G1 F1200 X123.971 Y118.314 E29.83072
G0 F6000 X124.03 Y117.808
G1 F1200 X128.339 Y122.117 E30.03341
G0 F6000 X128.339 Y121.551
G1 F1200 X124.042 Y117.253 E30.23555
G0 F6000 X123.962 Y116.608
G1 F1200 X128.339 Y120.985 E30.44143
G0 F6000 X128.339 Y120.42
G1 F1200 X123.863 Y115.943 E30.65199
G0 F6000 X123.555 Y115.07
G1 F1200 X128.339 Y119.854 E30.87701
G0 F6000 X128.339 Y119.288
G1 F1200 X122.922 Y113.871 E31.13181
G0 F6000 X122.544 Y114.131
G0 X120.823 Y112.394
G0 X121.038 Y111.987
G1 F1200 X115.711 Y106.66 E31.38238
G0 F6000 X115.145 Y106.66
G1 F1200 X119.88 Y111.394 E31.60508
G0 F6000 X119.092 Y111.172
G1 F1200 X114.58 Y106.66 E31.81731
G0 F6000 X114.014 Y106.66
G1 F1200 X118.357 Y111.003 E32.02159
G0 F6000 X117.764 Y110.976
G1 F1200 X113.448 Y106.66 E32.2246
G0 F6000 X112.883 Y106.66
G1 F1200 X117.199 Y110.976 E32.42761
G0 F6000 X116.659 Y111.002
G1 F1200 X112.317 Y106.66 E32.63184
G0 F6000 X111.751 Y106.66
G1 F1200 X116.192 Y111.101 E32.84074
G0 F6000 X115.739 Y111.213
G1 F1200 X111.186 Y106.66 E33.05489
G0 F6000 X110.62 Y106.66
G1 F1200 X115.288 Y111.328 E33.27446
G0 F6000 X114.891 Y111.497
G1 F1200 X110.054 Y106.66 E33.50198
G0 F6000 X109.489 Y106.66
G1 F1200 X114.521 Y111.693 E33.73869
G0 F6000 X114.151 Y111.888
G1 F1200 X108.923 Y106.66 E33.9846
G0 F6000 X108.357 Y106.66
G1 F1200 X113.792 Y112.095 E34.24025
G0 F6000 X113.477 Y112.345
G1 F1200 X107.792 Y106.66 E34.50765
G0 F6000 X107.226 Y106.66
G1 F1200 X113.178 Y112.612 E34.78762
G0 F6000 X112.878 Y112.878
G1 F1200 X106.66 Y106.66 E35.08009
G0 F6000 X106.66 Y107.226
G1 F1200 X112.592 Y113.158 E35.35912
G0 F6000 X112.347 Y113.478
G1 F1200 X106.66 Y107.792 E35.62659
G0 F6000 X106.66 Y108.357
G1 F1200 X112.117 Y113.814 E35.88327
G0 F6000 X111.886 Y114.149
G1 F1200 X106.66 Y108.923 E36.12909
G0 F6000 X106.66 Y109.489
G1 F1200 X111.675 Y114.503 E36.36495
G0 F6000 X111.507 Y114.902
G1 F1200 X106.66 Y110.054 E36.59297
G0 F6000 X106.66 Y110.62
G1 F1200 X111.352 Y115.312 E36.81366
G0 F6000 X111.196 Y115.722
G1 F1200 X106.66 Y111.186 E37.02702
G0 F6000 X106.66 Y111.751
G1 F1200 X111.086 Y116.177 E37.23521
G0 F6000 X111.027 Y116.684
G1 F1200 X106.66 Y112.317 E37.44062
G0 F6000 X106.66 Y112.883
G1 F1200 X110.968 Y117.19 E37.64323
G0 F6000 X110.957 Y117.746
G1 F1200 X106.66 Y113.448 E37.84537
G0 F6000 X106.66 Y114.014
G1 F1200 X111.038 Y118.392 E38.0513
G0 F6000 X111.127 Y119.047
G1 F1200 X106.66 Y114.58 E38.26141
G0 F6000 X106.66 Y115.145
G1 F1200 X111.443 Y119.928 E38.48639
G0 F6000 X111.873 Y119.765
G0 X112.457 Y120.87
G0 X112.079 Y121.13
G1 F1200 X106.66 Y115.711 E38.74128
G0 F6000 X106.2 Y115.711
G0 X106.272 Y106.272
G0 X116.277 Y106.2
G0 X116.277 Y106.66
G1 F1200 X128.339 Y118.723 E39.30867
G0 F6000 X128.339 Y118.157
G1 F1200 X116.843 Y106.66 E39.84943
G0 F6000 X117.408 Y106.66
G1 F1200 X128.339 Y117.591 E40.36359
G0 F6000 X128.339 Y117.026
G1 F1200 X117.974 Y106.66 E40.85115
G0 F6000 X118.54 Y106.66
G1 F1200 X128.339 Y116.46 E41.31209
G0 F6000 X128.339 Y115.894
G1 F1200 X119.105 Y106.66 E41.74643
G0 F6000 X119.671 Y106.66
G1 F1200 X128.339 Y115.329 E42.15417
G0 F6000 X128.339 Y114.763
G1 F1200 X120.237 Y106.66 E42.53528
G0 F6000 X120.802 Y106.66
G1 F1200 X128.339 Y114.197 E42.8898
G0 F6000 X128.339 Y113.632
G1 F1200 X121.368 Y106.66 E43.21772
G0 F6000 X121.934 Y106.66
G1 F1200 X128.339 Y113.066 E43.51901
G0 F6000 X128.339 Y112.5
G1 F1200 X122.499 Y106.66 E43.79371
G0 F6000 X123.065 Y106.66
G1 F1200 X128.339 Y111.935 E44.04181
G0 F6000 X128.339 Y111.369
G1 F1200 X123.631 Y106.66 E44.26328
G0 F6000 X124.196 Y106.66
G1 F1200 X128.339 Y110.803 E44.45815
G0 F6000 X128.339 Y110.237
G1 F1200 X124.762 Y106.66 E44.6264
G0 F6000 X125.328 Y106.66
G1 F1200 X128.339 Y109.672 E44.76806
G0 F6000 X128.339 Y109.106
G1 F1200 X125.893 Y106.66 E44.88311
G0 F6000 X126.459 Y106.66
G1 F1200 X128.339 Y108.54 E44.97154
G0 F6000 X128.339 Y107.975
G1 F1200 X127.025 Y106.66 E45.03337
G0 F6000 X127.591 Y106.66
G1 F1200 X128.339 Y107.409 E45.06857
