;FLAVOR:Marlin
;TIME:2272
;Filament used: 1.62828m
;Layer height: 0.2
;MINX:99.435
;MINY:99.435
;MINZ:0.2
;MAXX:135.565
;MAXY:135.565
;MAXZ:16
;Generated with Cura_SteamEngine 99.10.0-Arachne_engine_beta_2
M140 S60
M105
M190 S60
M104 S205
M105
M109 S205
M82 ;absolute extrusion mode
; Ender 3 Custom Start G-code
G92 E0 ; Reset Extruder
G28 ; Home all axes
;G29 ; Auto bed leveling (ABL)
G1 Z2.0 F3000 ; Move Z Axis up little to prevent scratching of Heat Bed
G1 X0.1 Y20 Z0.3 F5000.0 ; Move to start position
G1 X0.1 Y200.0 Z0.3 F1500.0 E15 ; Draw the first line
G1 X0.4 Y200.0 Z0.3 F5000.0 ; Move to side a little
G1 X0.4 Y20 Z0.3 F1500.0 E30 ; Draw the second line
G92 E0 ; Reset Extruder
G1 Z2.0 F3000 ; Move Z Axis up little to prevent scratching of Heat Bed
G1 X5 Y20 Z0.3 F5000.0 ; Move over to prevent blob squish
G92 E0
G92 E0
G1 F2700 E-5
;LAYER_COUNT:80
;LAYER:0
M107
;MESH:DPadSlot.stl
G0 F6000 X118.541 Y123.41 Z0.2
;TYPE:WALL-INNER
G1 F2700 E0
G1 F1200 X117.999 Y123.479 E0.01817
G1 X117.922 Y123.485 E0.02074
G1 X117.624 Y123.498 E0.03066
G1 X117.101 Y123.486 E0.04806
G1 X117.026 Y123.482 E0.05056
G1 X116.777 Y123.457 E0.05888
G1 X116.705 Y123.447 E0.0613
G1 X116.227 Y123.364 E0.07744
G1 X116.134 Y123.343 E0.08061
G1 X115.657 Y123.212 E0.09706
G1 X115.554 Y123.178 E0.10067
G1 X115.07 Y122.987 E0.11797
G1 X114.779 Y122.848 E0.1287
G1 X114.52 Y122.707 E0.13851
G1 X114.459 Y122.671 E0.14086
G1 X114.006 Y122.38 E0.15877
G1 X113.771 Y122.2 E0.16862
G1 X113.367 Y121.849 E0.18642
G1 X113.309 Y121.795 E0.18905
G1 X113.089 Y121.567 E0.19959
G1 X112.922 Y121.38 E0.20793
G1 X112.869 Y121.315 E0.21072
G1 X112.532 Y120.865 E0.22942
G1 X112.393 Y120.653 E0.23785
G1 X112.351 Y120.582 E0.24059
G1 X112.118 Y120.153 E0.25683
G1 X112.074 Y120.062 E0.26019
G1 X111.873 Y119.583 E0.27747
G1 X111.84 Y119.493 E0.28066
G1 X111.704 Y119.053 E0.29598
G1 X111.686 Y118.984 E0.29835
G1 X111.609 Y118.651 E0.30972
G1 X111.535 Y118.141 E0.32686
G1 X111.527 Y118.073 E0.32913
G1 X111.508 Y117.823 E0.33747
G1 X111.5 Y117.526 E0.34735
G1 X111.506 Y117.226 E0.35733
G1 X111.527 Y116.927 E0.3673
G1 X111.535 Y116.857 E0.36965
G1 X111.603 Y116.399 E0.38505
G1 X111.615 Y116.332 E0.38731
G1 X111.685 Y116.022 E0.39788
G1 X111.76 Y115.752 E0.4072
G1 X111.784 Y115.675 E0.40988
G1 X111.954 Y115.211 E0.42632
G1 X111.992 Y115.123 E0.42951
G1 X112.206 Y114.677 E0.44596
G1 X112.244 Y114.604 E0.4487
G1 X112.371 Y114.387 E0.45706
G1 X112.406 Y114.332 E0.45923
G1 X112.694 Y113.907 E0.47631
G1 X112.748 Y113.837 E0.47925
G1 X113.066 Y113.46 E0.49565
G1 X113.112 Y113.409 E0.49793
G1 X113.3 Y113.214 E0.50694
G1 X113.719 Y112.842 E0.52558
G1 X113.779 Y112.792 E0.52818
G1 X114.018 Y112.613 E0.53811
G1 X114.262 Y112.448 E0.54791
G1 X114.477 Y112.316 E0.5563
G1 X114.763 Y112.161 E0.56712
G1 X115.029 Y112.033 E0.57693
G1 X115.531 Y111.832 E0.59492
G1 X115.605 Y111.806 E0.59753
G1 X115.899 Y111.716 E0.60775
G1 X116.177 Y111.645 E0.6173
G1 X116.252 Y111.629 E0.61985
G1 X116.689 Y111.555 E0.63459
G1 X117.022 Y111.519 E0.64573
G1 X117.1 Y111.514 E0.64833
G1 X117.599 Y111.502 E0.66493
G1 X117.643 Y111.502 E0.66639
G1 X117.918 Y111.514 E0.67555
G1 X118.2 Y111.542 E0.68498
G1 X118.264 Y111.55 E0.68712
G1 X118.744 Y111.631 E0.70331
G1 X118.815 Y111.646 E0.70572
G1 X119.069 Y111.708 E0.71442
G1 X119.365 Y111.798 E0.72471
G1 X119.666 Y111.905 E0.73534
G1 X119.92 Y112.01 E0.74448
G1 X120.188 Y112.136 E0.75433
G1 X120.457 Y112.28 E0.76448
G1 X120.732 Y112.445 E0.77514
G1 X120.956 Y112.594 E0.78409
G1 X121.024 Y112.643 E0.78688
G1 X121.432 Y112.969 E0.80425
G1 X121.649 Y113.165 E0.81397
G1 X121.689 Y113.203 E0.81581
G1 X121.893 Y113.413 E0.82555
G1 X122.111 Y113.661 E0.83653
G1 X122.436 Y114.089 E0.8544
G1 X122.603 Y114.342 E0.86449
G1 X122.646 Y114.413 E0.86725
G1 X122.873 Y114.83 E0.88304
G1 X122.905 Y114.895 E0.88545
G1 X123.033 Y115.179 E0.89581
G1 X123.154 Y115.489 E0.90688
G1 X123.236 Y115.736 E0.91553
G1 X123.369 Y116.25 E0.93319
G1 X123.386 Y116.329 E0.93588
G1 X123.43 Y116.587 E0.94458
G1 X123.439 Y116.655 E0.94687
G1 X123.489 Y117.15 E0.96341
G1 X123.494 Y117.251 E0.96678
G1 X123.494 Y117.749 E0.98334
G1 X123.472 Y118.074 E0.99417
G1 X123.464 Y118.146 E0.99658
G1 X123.389 Y118.651 E1.01356
G1 X123.323 Y118.952 E1.02381
G1 X123.239 Y119.251 E1.03414
G1 X123.136 Y119.556 E1.04485
G1 X123.033 Y119.821 E1.05431
G1 X123.009 Y119.876 E1.0563
G1 X122.794 Y120.324 E1.07283
G1 X122.755 Y120.398 E1.07561
G1 X122.628 Y120.614 E1.08395
G1 X122.594 Y120.668 E1.08607
G1 X122.316 Y121.079 E1.10257
G1 X122.252 Y121.163 E1.10608
G1 X121.934 Y121.54 E1.12249
G1 X121.886 Y121.593 E1.12487
G1 X121.698 Y121.787 E1.13385
G1 X121.282 Y122.158 E1.15239
G1 X121.221 Y122.208 E1.15501
G1 X120.982 Y122.387 E1.16495
G1 X120.738 Y122.552 E1.17474
G1 X120.523 Y122.684 E1.18313
G1 X120.454 Y122.722 E1.18575
G1 X120.011 Y122.948 E1.20229
G1 X119.889 Y123.001 E1.20672
G1 X119.464 Y123.168 E1.22191
G1 X119.4 Y123.191 E1.22417
G1 X119.102 Y123.283 E1.23454
G1 X118.791 Y123.361 E1.24521
G1 X118.541 Y123.41 E1.25368
G0 F6000 X117.949 Y123.082
G1 F1200 X117.903 Y123.086 E1.25521
G1 X117.624 Y123.098 E1.2645
G1 X117.066 Y123.084 E1.28307
G1 X116.817 Y123.059 E1.29139
G1 X116.296 Y122.97 E1.30897
G1 X116.24 Y122.957 E1.31088
G1 X115.763 Y122.826 E1.32734
G1 X115.701 Y122.806 E1.3295
G1 X115.217 Y122.615 E1.34681
G1 X114.955 Y122.489 E1.35648
G1 X114.675 Y122.335 E1.36711
G1 X114.236 Y122.053 E1.38446
G1 X113.988 Y121.86 E1.39491
G1 X113.601 Y121.521 E1.41202
G1 X113.387 Y121.3 E1.42226
G1 X113.22 Y121.113 E1.43059
G1 X113.188 Y121.074 E1.43227
G1 X112.867 Y120.646 E1.45007
G1 X112.728 Y120.434 E1.4585
G1 X112.702 Y120.391 E1.46017
G1 X112.469 Y119.962 E1.47641
G1 X112.443 Y119.908 E1.4784
G1 X112.242 Y119.429 E1.49568
G1 X112.222 Y119.374 E1.49762
G1 X112.086 Y118.935 E1.51291
G1 X112.01 Y118.615 E1.52385
G1 X112.001 Y118.565 E1.52554
G1 X111.926 Y118.043 E1.54308
G1 X111.906 Y117.762 E1.55245
G1 X111.9 Y117.516 E1.56063
G1 X111.907 Y117.205 E1.57098
G1 X111.931 Y116.915 E1.58066
G1 X112.006 Y116.417 E1.59741
G1 X112.07 Y116.129 E1.60722
G1 X112.145 Y115.859 E1.61654
G1 X112.16 Y115.813 E1.61815
G1 X112.338 Y115.329 E1.6353
G1 X112.567 Y114.85 E1.65296
G1 X112.59 Y114.806 E1.65461
G1 X112.737 Y114.556 E1.66426
G1 X113.015 Y114.145 E1.68076
G1 X113.054 Y114.095 E1.68287
G1 X113.399 Y113.687 E1.70064
G1 X113.576 Y113.504 E1.70911
G1 X113.984 Y113.141 E1.72727
G1 X114.22 Y112.961 E1.73715
G1 X114.472 Y112.789 E1.74729
G1 X114.715 Y112.641 E1.75676
G1 X114.936 Y112.522 E1.76511
G1 X115.202 Y112.394 E1.77492
G1 X115.679 Y112.204 E1.792
G1 X115.723 Y112.188 E1.79356
G1 X115.998 Y112.104 E1.80312
G1 X116.321 Y112.023 E1.8142
G1 X116.794 Y111.945 E1.83014
G1 X117.064 Y111.917 E1.83917
G1 X117.11 Y111.914 E1.8407
G1 X117.626 Y111.902 E1.85787
G1 X117.936 Y111.917 E1.86819
G1 X118.197 Y111.945 E1.87692
G1 X118.677 Y112.026 E1.89311
G1 X118.973 Y112.097 E1.90324
G1 X119.008 Y112.106 E1.90444
G1 X119.272 Y112.189 E1.91365
G1 X119.56 Y112.293 E1.92383
G1 X119.791 Y112.39 E1.93216
G1 X120.047 Y112.512 E1.94159
G1 X120.29 Y112.645 E1.95081
G1 X120.549 Y112.802 E1.96088
G1 X120.774 Y112.956 E1.96995
G1 X121.213 Y113.308 E1.98867
G1 X121.398 Y113.478 E1.99702
G1 X121.595 Y113.681 E2.00643
G1 X121.793 Y113.904 E2.01635
G1 X122.109 Y114.319 E2.0337
G1 X122.269 Y114.562 E2.04338
G1 X122.295 Y114.605 E2.04505
G1 X122.541 Y115.06 E2.06225
G1 X122.663 Y115.331 E2.07213
G1 X122.774 Y115.615 E2.08228
G1 X122.868 Y115.903 E2.09235
G1 X122.982 Y116.349 E2.10766
G1 X122.992 Y116.397 E2.10929
G1 X123.036 Y116.655 E2.118
G1 X123.091 Y117.19 E2.13589
G1 X123.094 Y117.251 E2.13792
G1 X123.093 Y117.795 E2.15601
G1 X123.069 Y118.086 E2.16572
G1 X122.995 Y118.582 E2.1824
G1 X122.923 Y118.9 E2.19325
G1 X122.846 Y119.168 E2.20252
G1 X122.762 Y119.412 E2.21111
G1 X122.663 Y119.67 E2.2203
G1 X122.433 Y120.151 E2.23803
G1 X122.41 Y120.196 E2.23971
G1 X122.263 Y120.444 E2.2493
G1 X121.985 Y120.855 E2.2658
G1 X121.946 Y120.905 E2.26791
G1 X121.6 Y121.314 E2.28573
G1 X121.421 Y121.498 E2.29427
G1 X121.017 Y121.858 E2.31227
G1 X120.763 Y122.052 E2.3229
G1 X120.528 Y122.211 E2.33233
G1 X120.313 Y122.343 E2.34072
G1 X120.272 Y122.366 E2.34229
G1 X119.829 Y122.592 E2.35883
G1 X119.743 Y122.629 E2.36194
G1 X119.279 Y122.81 E2.37851
G1 X119.003 Y122.896 E2.38812
G1 X118.715 Y122.969 E2.398
G1 X118.443 Y123.02 E2.40721
G1 X117.949 Y123.082 E2.42377
G0 F6000 X117.619 Y122.698
;TYPE:WALL-OUTER
G1 F1200 X117.106 Y122.686 E2.44084
G1 X116.842 Y122.659 E2.44966
G1 X116.364 Y122.576 E2.4658
G1 X115.848 Y122.434 E2.4836
G1 X115.364 Y122.243 E2.5009
G1 X115.131 Y122.129 E2.50953
G1 X114.891 Y121.998 E2.51863
G1 X114.458 Y121.72 E2.53574
G1 X114.251 Y121.559 E2.54446
G1 X113.884 Y121.238 E2.56068
G1 X113.691 Y121.04 E2.56988
G1 X113.508 Y120.834 E2.57904
G1 X113.201 Y120.426 E2.59602
G1 X113.054 Y120.2 E2.60499
G1 X112.812 Y119.753 E2.6219
G1 X112.604 Y119.256 E2.63982
G1 X112.465 Y118.803 E2.65558
G1 X112.397 Y118.513 E2.66548
G1 X112.325 Y118.013 E2.68228
G1 X112.306 Y117.752 E2.69099
G1 X112.3 Y117.506 E2.69917
G1 X112.306 Y117.235 E2.70819
G1 X112.327 Y116.974 E2.7169
G1 X112.397 Y116.503 E2.73274
G1 X112.456 Y116.236 E2.74183
G1 X112.536 Y115.951 E2.75168
G1 X112.713 Y115.469 E2.76875
G1 X112.935 Y115.008 E2.78577
G1 X113.069 Y114.78 E2.79457
G1 X113.347 Y114.369 E2.81107
G1 X113.687 Y113.965 E2.82863
G1 X113.875 Y113.772 E2.83759
G1 X114.261 Y113.431 E2.85473
G1 X114.461 Y113.28 E2.86306
G1 X114.673 Y113.135 E2.8716
G1 X114.905 Y112.993 E2.88065
G1 X115.11 Y112.882 E2.8884
G1 X115.389 Y112.749 E2.89868
G1 X115.841 Y112.57 E2.91485
G1 X116.088 Y112.494 E2.92345
G1 X116.39 Y112.417 E2.93381
G1 X116.835 Y112.343 E2.94882
G1 X117.12 Y112.314 E2.95835
G1 X117.608 Y112.302 E2.97458
G1 X117.895 Y112.315 E2.98414
G1 X118.131 Y112.339 E2.99203
G1 X118.625 Y112.423 E3.00869
G1 X118.89 Y112.488 E3.01777
G1 X119.129 Y112.562 E3.02609
G1 X119.406 Y112.662 E3.03589
G1 X119.612 Y112.748 E3.04331
G1 X119.856 Y112.864 E3.0523
G1 X120.075 Y112.983 E3.06059
G1 X120.318 Y113.129 E3.07002
G1 X120.524 Y113.268 E3.07828
G1 X120.943 Y113.603 E3.09612
G1 X121.291 Y113.942 E3.11228
G1 X121.475 Y114.146 E3.12142
G1 X121.785 Y114.554 E3.13846
G1 X121.943 Y114.796 E3.14807
G1 X122.177 Y115.226 E3.16436
G1 X122.293 Y115.482 E3.1737
G1 X122.394 Y115.741 E3.18295
G1 X122.48 Y116.002 E3.19209
G1 X122.598 Y116.464 E3.20795
G1 X122.643 Y116.735 E3.21709
G1 X122.694 Y117.251 E3.23433
G1 X122.694 Y117.765 E3.25143
G1 X122.673 Y118.027 E3.26017
G1 X122.599 Y118.522 E3.27682
G1 X122.539 Y118.79 E3.28595
G1 X122.47 Y119.031 E3.29429
G1 X122.392 Y119.261 E3.30237
G1 X122.288 Y119.53 E3.31196
G1 X122.065 Y119.993 E3.32905
G1 X121.931 Y120.22 E3.33782
G1 X121.653 Y120.631 E3.35432
G1 X121.313 Y121.035 E3.37189
G1 X121.123 Y121.229 E3.38092
G1 X120.739 Y121.569 E3.39798
G1 X120.533 Y121.724 E3.40655
G1 X120.327 Y121.865 E3.41485
G1 X120.09 Y122.01 E3.42409
G1 X119.63 Y122.244 E3.44126
G1 X119.159 Y122.428 E3.45808
G1 X118.904 Y122.508 E3.46697
G1 X118.639 Y122.576 E3.47607
G1 X118.393 Y122.623 E3.4844
G1 X117.884 Y122.686 E3.50146
G1 X117.619 Y122.698 E3.51028
G1 F2700 E-1.48972
G0 F6000 X117.619 Y123.208
G0 X116.759 Y123.637
G0 X116.955 Y121.801
G0 X113.046 Y135.565
G0 X113.046 Y133.699
G0 X110.709 Y133.899
;TYPE:WALL-INNER
G1 F2700 E3.51028
G1 F1200 X124.29 Y133.9 E3.96198
G1 X133.9 Y124.291 E4.41399
G1 X133.9 Y110.71 E4.86569
G1 X124.291 Y101.101 E5.31767
G1 X110.71 Y101.1 E5.76938
G1 X105.049 Y106.762 E6.03567
G1 X104.654 Y107.154 E6.05418
G1 X102.754 Y109.056 E6.1436
G1 X101.1 Y110.709 E6.22138
G1 X101.1 Y113.286 E6.30709
G1 X101.101 Y124.29 E6.67308
G1 X110.709 Y133.899 E7.12504
G0 F6000 X110.543 Y134.299
G1 F1200 X124.456 Y134.3 E7.58779
G1 X134.3 Y124.457 E8.05079
G1 X134.3 Y110.544 E8.51354
G1 X124.457 Y100.701 E8.97653
G1 X110.544 Y100.7 E9.43927
G1 X100.7 Y110.543 E9.90228
G1 X100.7 Y113.286 E9.99352
G1 X100.701 Y124.456 E10.36503
G1 X110.543 Y134.299 E10.82799
G0 F6000 X110.377 Y134.699
;TYPE:WALL-OUTER
G1 F1200 X124.622 Y134.7 E11.30178
G1 X134.7 Y124.623 E11.7758
G1 X134.7 Y110.378 E12.24959
G1 X124.623 Y100.301 E12.72358
G1 X110.378 Y100.3 E13.19737
G1 X100.3 Y110.377 E13.67138
G1 X100.3 Y113.286 E13.76814
G1 X100.301 Y124.622 E14.14517
G1 X110.377 Y134.699 E14.61914
G1 F2700 E9.61914
G0 F6000 X110.583 Y134.198
G0 X113.046 Y133.699
G0 X113.046 Y135.565
G0 X117.595 Y121.833
G0 X117.595 Y123.679
G0 X118.56 Y123.506
G1 F2700 E14.61914
G0 F6000 X118.615 Y123.764
;TYPE:SKIN
G1 F1200 X118.03 Y123.837 E14.63875
G1 X117.679 Y123.857 E14.65044
G1 X117.078 Y123.846 E14.67044
G1 X116.641 Y123.802 E14.68504
G1 X116.036 Y123.691 E14.7055
G1 X115.42 Y123.512 E14.72684
G1 X114.974 Y123.337 E14.74277
G1 X114.614 Y123.168 E14.756
G1 X114.335 Y123.017 E14.76655
G1 X113.834 Y122.699 E14.78629
G1 X113.542 Y122.478 E14.79847
G1 X113.12 Y122.112 E14.81705
G1 X112.862 Y121.851 E14.82925
G1 X112.64 Y121.606 E14.84025
G1 X112.276 Y121.125 E14.86031
G1 X112.083 Y120.838 E14.87182
G1 X111.795 Y120.315 E14.89168
G1 X111.745 Y120.208 E14.8956
G1 X111.497 Y119.599 E14.91747
G1 X111.355 Y119.147 E14.93323
G1 X111.266 Y118.777 E14.94589
G1 X111.177 Y118.181 E14.96593
G1 X111.149 Y117.841 E14.97728
G1 X111.14 Y117.536 E14.98743
G1 X111.146 Y117.209 E14.99831
G1 X111.17 Y116.885 E15.00911
G1 X111.249 Y116.334 E15.02763
G1 X111.321 Y115.99 E15.03931
G1 X111.419 Y115.635 E15.05156
G1 X111.64 Y115.03 E15.07299
G1 X111.887 Y114.51 E15.09213
G1 X112.066 Y114.195 E15.10418
G1 X112.396 Y113.704 E15.12386
G1 X112.797 Y113.222 E15.14471
G1 X113.038 Y112.965 E15.15643
G1 X113.49 Y112.563 E15.17655
G1 X113.76 Y112.356 E15.18787
G1 X114.028 Y112.169 E15.19874
G1 X114.296 Y112.004 E15.2092
G1 X114.574 Y111.852 E15.21974
G1 X114.878 Y111.707 E15.23094
G1 X115.425 Y111.487 E15.25055
G1 X115.755 Y111.382 E15.26207
G1 X116.104 Y111.293 E15.27405
G1 X116.635 Y111.199 E15.29199
G1 X116.999 Y111.16 E15.30416
G1 X117.66 Y111.142 E15.32616
G1 X117.942 Y111.154 E15.33554
G1 X118.248 Y111.185 E15.34577
G1 X118.802 Y111.276 E15.36445
G1 X119.163 Y111.361 E15.37678
G1 X119.547 Y111.479 E15.39014
G1 X119.925 Y111.62 E15.40356
G1 X120.35 Y111.814 E15.4191
G1 X120.629 Y111.963 E15.42962
G1 X120.917 Y112.136 E15.4408
G1 X121.17 Y112.303 E15.45088
G1 X121.662 Y112.693 E15.47176
G1 X121.898 Y112.903 E15.48227
G1 X122.121 Y113.132 E15.4929
G1 X122.337 Y113.37 E15.50359
G1 X122.706 Y113.848 E15.52367
G1 X122.913 Y114.155 E15.53599
G1 X123.194 Y114.668 E15.55544
G1 X123.349 Y115.003 E15.56772
G1 X123.475 Y115.321 E15.5791
G1 X123.582 Y115.635 E15.59013
G1 X123.725 Y116.188 E15.60913
G1 X123.789 Y116.552 E15.62142
G1 X123.848 Y117.13 E15.64074
G1 X123.854 Y117.761 E15.66173
G1 X123.83 Y118.113 E15.67347
G1 X123.746 Y118.694 E15.69299
G1 X123.673 Y119.041 E15.70479
G1 X123.564 Y119.417 E15.71781
G1 X123.375 Y119.938 E15.73624
G1 X123.114 Y120.492 E15.75661
G1 X122.933 Y120.807 E15.76869
G1 X122.606 Y121.295 E15.78823
G1 X122.202 Y121.781 E15.80925
G1 X121.956 Y122.039 E15.82111
G1 X121.511 Y122.435 E15.84092
G1 X121.231 Y122.651 E15.85268
G1 X120.981 Y122.823 E15.86277
G1 X120.699 Y122.998 E15.87381
G1 X120.16 Y123.276 E15.89398
G1 X119.586 Y123.508 E15.91457
G1 X119.27 Y123.611 E15.92563
G1 X118.928 Y123.7 E15.93738
G1 X118.615 Y123.764 E15.94801
G1 F2700 E10.94801
G0 F6000 X118.56 Y123.506
G0 X119.211 Y123.44
G0 X118.67 Y121.675
G0 X121.953 Y135.565
G0 X121.953 Y133.7
G0 X124.141 Y133.8
G1 F2700 E15.94801
G0 F6000 X124.141 Y133.539
G1 F1200 X133.54 Y124.141 E16.39009
G1 X133.54 Y110.859 E16.83185
G1 X124.141 Y101.461 E17.27392
G1 X110.859 Y101.461 E17.71568
G1 X101.46 Y110.859 E18.15776
G1 X101.461 Y124.14 E18.59949
G1 X110.859 Y133.539 E19.04157
G1 X124.141 Y133.539 E19.48333
G0 F6000 X124.141 Y133.8
G0 X111.276 Y133.799
G0 X111.276 Y133.338
G1 F1200 X101.66 Y123.721 E19.93566
G0 F6000 X101.66 Y123.156
G1 F1200 X111.842 Y133.338 E20.41459
G0 F6000 X112.408 Y133.338
G1 F1200 X101.66 Y122.59 E20.92014
G0 F6000 X101.66 Y122.024
G1 F1200 X112.973 Y133.338 E21.45229
G0 F6000 X113.539 Y133.338
G1 F1200 X101.66 Y121.459 E22.01104
