;FLAVOR:Marlin
;TIME:2842
;Filament used: 1.68804m
;Layer height: 0.2
;MINX:79.28
;MINY:98.312
;MINZ:0.2
;MAXX:163.401
;MAXY:138.369
;MAXZ:8
;Generated with Cura_SteamEngine 99.10.0-Arachne_engine_beta_2
M140 S60
M105
M190 S60
M104 S205
M105
M109 S205
M82 ;absolute extrusion mode
; Ender 3 Custom Start G-code
G92 E0 ; Reset Extruder
G28 ; Home all axes
;G29 ; Auto bed leveling (ABL)
G1 Z2.0 F3000 ; Move Z Axis up little to prevent scratching of Heat Bed
G1 X0.1 Y20 Z0.3 F5000.0 ; Move to start position
G1 X0.1 Y200.0 Z0.3 F1500.0 E15 ; Draw the first line
G1 X0.4 Y200.0 Z0.3 F5000.0 ; Move to side a little
G1 X0.4 Y20 Z0.3 F1500.0 E30 ; Draw the second line
G92 E0 ; Reset Extruder
G1 Z2.0 F3000 ; Move Z Axis up little to prevent scratching of Heat Bed
G1 X5 Y20 Z0.3 F5000.0 ; Move over to prevent blob squish
G92 E0
G92 E0
G1 F2700 E-5
;LAYER_COUNT:40
;LAYER:0
M107
;MESH:CE3_OpenDials_v2-Buttons-Parts.3mf(2)
G0 F6000 X90.08 Y109.283 Z0.2
;TYPE:WALL-INNER
G1 F2700 E0
G1 F1200 X90.08 Y99.283 E0.3326
G1 X80.08 Y99.283 E0.6652
G1 X80.08 Y109.283 E0.9978
G1 X90.08 Y109.283 E1.33041
G0 F6000 X90.48 Y109.683
G1 F1200 X90.48 Y98.883 E1.68961
G1 X79.68 Y98.883 E2.04882
G1 X79.68 Y109.683 E2.40803
G1 X90.48 Y109.683 E2.76724
G0 F6000 X90.88 Y110.083
;TYPE:WALL-OUTER
G1 F1200 X90.88 Y98.483 E3.15306
G1 X79.28 Y98.483 E3.53888
G1 X79.28 Y110.083 E3.9247
G1 X90.88 Y110.083 E4.31051
G1 F2700 E-0.68949
G0 F6000 X90.4 Y109.603
G0 X89.98 Y108.923
G1 F2700 E4.31051
G0 F6000 X89.72 Y108.923
;TYPE:SKIN
G1 F1200 X89.72 Y99.643 E4.61917
G1 X80.44 Y99.643 E4.92782
G1 X80.44 Y108.923 E5.23648
G1 X89.72 Y108.923 E5.54513
G0 F6000 X89.98 Y108.923
G0 X89.98 Y100.267
G0 X89.519 Y100.267
G1 F1200 X89.094 Y99.842 E5.56512
G0 F6000 X88.528 Y99.842
G1 F1200 X89.519 Y100.833 E5.61173
G0 F6000 X89.519 Y101.399
G1 F1200 X87.962 Y99.842 E5.68497
G0 F6000 X87.396 Y99.842
G1 F1200 X89.519 Y101.964 E5.78481
G0 F6000 X89.519 Y102.53
G1 F1200 X86.831 Y99.842 E5.91124
G0 F6000 X86.265 Y99.842
G1 F1200 X89.519 Y103.096 E6.0643
G0 F6000 X89.519 Y103.661
G1 F1200 X85.699 Y99.842 E6.24396
G0 F6000 X85.134 Y99.842
G1 F1200 X89.519 Y104.227 E6.45021
G0 F6000 X89.519 Y104.793
G1 F1200 X84.568 Y99.842 E6.68309
G0 F6000 X84.002 Y99.842
G1 F1200 X89.519 Y105.358 E6.94257
G0 F6000 X89.519 Y105.924
G1 F1200 X83.437 Y99.842 E7.22865
G0 F6000 X82.871 Y99.842
G1 F1200 X89.519 Y106.49 E7.54135
G0 F6000 X89.519 Y107.055
G1 F1200 X82.305 Y99.842 E7.88065
G0 F6000 X81.74 Y99.842
G1 F1200 X89.519 Y107.621 E8.24655
G0 F6000 X89.519 Y108.187
G1 F1200 X81.174 Y99.842 E8.63908
G0 F6000 X80.639 Y99.873
G1 F1200 X89.488 Y108.721 E9.05528
G0 F6000 X88.922 Y108.721
G1 F1200 X80.639 Y100.438 E9.44489
G0 F6000 X80.639 Y101.004
G1 F1200 X88.357 Y108.721 E9.8079
G0 F6000 X87.791 Y108.721
G1 F1200 X80.639 Y101.57 E10.14428
G0 F6000 X80.639 Y102.135
G1 F1200 X87.225 Y108.721 E10.45407
G0 F6000 X86.66 Y108.721
G1 F1200 X80.639 Y102.701 E10.73725
G0 F6000 X80.639 Y103.267
G1 F1200 X86.094 Y108.721 E10.99382
G0 F6000 X85.528 Y108.721
G1 F1200 X80.639 Y103.832 E11.22378
G0 F6000 X80.639 Y104.398
G1 F1200 X84.963 Y108.721 E11.42715
G0 F6000 X84.397 Y108.721
G1 F1200 X80.639 Y104.964 E11.60389
G0 F6000 X80.639 Y105.53
G1 F1200 X83.831 Y108.721 E11.75401
G0 F6000 X83.266 Y108.721
G1 F1200 X80.639 Y106.095 E11.87755
G0 F6000 X80.639 Y106.661
G1 F1200 X82.7 Y108.721 E11.97447
G0 F6000 X82.134 Y108.721
G1 F1200 X80.639 Y107.227 E12.04476
G0 F6000 X80.639 Y107.792
G1 F1200 X81.569 Y108.721 E12.08848
G0 F6000 X81.003 Y108.721
G1 F1200 X80.639 Y108.358 E12.10558
G0 F6000 X80.09 Y108.358
G1 F2700 E7.10558
;MESH:CE3_OpenDials_v2-Buttons-Parts.3mf(4)
G0 F6000 X80.252 Y109.111
G0 X90.65 Y109.112
G0 X91.745 Y109.112
G0 X103.488 Y109.112
G0 X104.583 Y109.112
G0 X115.153 Y109.112
;TYPE:WALL-INNER
G1 F2700 E12.10558
G1 F1200 X115.153 Y99.112 E12.43818
G1 X105.153 Y99.112 E12.77079
G1 X105.153 Y104.112 E12.93709
G1 X105.153 Y109.112 E13.10339
G1 X115.153 Y109.112 E13.43599
G0 F6000 X115.553 Y109.512
G1 F1200 X115.553 Y98.712 E13.7952
G1 X104.753 Y98.712 E14.15441
G1 X104.753 Y104.112 E14.33401
G1 X104.753 Y109.512 E14.51362
G1 X115.553 Y109.512 E14.87283
G0 F6000 X115.953 Y109.912
;TYPE:WALL-OUTER
G1 F1200 X115.953 Y98.312 E15.25864
G1 X104.353 Y98.312 E15.64446
G1 X104.353 Y104.112 E15.83737
G1 X104.353 Y109.912 E16.03028
G1 X115.953 Y109.912 E16.4161
G1 F2700 E11.4161
G0 F6000 X115.473 Y109.432
G0 X115.053 Y108.752
G1 F2700 E16.4161
G0 F6000 X114.793 Y108.752
;TYPE:SKIN
G1 F1200 X114.793 Y99.472 E16.72475
G1 X105.513 Y99.472 E17.0334
G1 X105.513 Y108.752 E17.34206
G1 X114.793 Y108.752 E17.65071
G0 F6000 X115.053 Y108.752
G0 X115.053 Y99.884
G0 X114.592 Y99.884
G1 F1200 X114.38 Y99.672 E17.66068
G0 F6000 X113.814 Y99.672
G1 F1200 X114.592 Y100.45 E17.69728
G0 F6000 X114.592 Y101.015
G1 F1200 X113.248 Y99.672 E17.76047
G0 F6000 X112.683 Y99.672
G1 F1200 X114.592 Y101.581 E17.85027
G0 F6000 X114.592 Y102.147
G1 F1200 X112.117 Y99.672 E17.96668
G0 F6000 X111.551 Y99.672
G1 F1200 X114.592 Y102.712 E18.1097
G0 F6000 X114.592 Y103.278
G1 F1200 X110.986 Y99.672 E18.27931
G0 F6000 X110.42 Y99.672
G1 F1200 X114.592 Y103.844 E18.47555
G0 F6000 X114.592 Y104.409
G1 F1200 X109.854 Y99.672 E18.69839
G0 F6000 X109.289 Y99.672
G1 F1200 X114.592 Y104.975 E18.94783
G0 F6000 X114.592 Y105.541
G1 F1200 X108.723 Y99.672 E19.22389
G0 F6000 X108.157 Y99.672
G1 F1200 X114.592 Y106.107 E19.52657
G0 F6000 X114.592 Y106.672
G1 F1200 X107.591 Y99.672 E19.85585
G0 F6000 X107.026 Y99.672
G1 F1200 X114.592 Y107.238 E20.21173
G0 F6000 X114.592 Y107.804
G1 F1200 X106.46 Y99.672 E20.59424
G0 F6000 X105.894 Y99.672
G1 F1200 X114.592 Y108.369 E21.00334
G0 F6000 X114.208 Y108.551
G1 F1200 X105.712 Y100.055 E21.40297
G0 F6000 X105.712 Y100.621
G1 F1200 X113.642 Y108.551 E21.77597
G0 F6000 X113.076 Y108.551
G1 F1200 X105.712 Y101.186 E22.12237
G0 F6000 X105.712 Y101.752
G1 F1200 X112.511 Y108.551 E22.44218
G0 F6000 X111.945 Y108.551
G1 F1200 X105.712 Y102.318 E22.73536
G0 F6000 X105.712 Y102.884
G1 F1200 X111.379 Y108.551 E23.00192
G0 F6000 X110.814 Y108.551
G1 F1200 X105.712 Y103.449 E23.2419
G0 F6000 X105.712 Y104.015
G1 F1200 X110.248 Y108.551 E23.45526
G0 F6000 X109.682 Y108.551
G1 F1200 X105.712 Y104.581 E23.64199
G0 F6000 X105.712 Y105.146
G1 F1200 X109.117 Y108.551 E23.80216
G0 F6000 X108.551 Y108.551
G1 F1200 X105.712 Y105.712 E23.93569
G0 F6000 X105.712 Y106.278
G1 F1200 X107.985 Y108.551 E24.04261
G0 F6000 X107.42 Y108.551
G1 F1200 X105.712 Y106.843 E24.12295
G0 F6000 X105.712 Y107.409
G1 F1200 X106.854 Y108.551 E24.17666
G0 F6000 X106.288 Y108.551
G1 F1200 X105.712 Y107.975 E24.20376
G0 F6000 X105.163 Y107.975
G1 F2700 E19.20376
;MESH:CE3_OpenDials_v2-Buttons-Parts.3mf
G0 F6000 X105.325 Y108.94
G0 X114.94 Y109.682
G0 X114.94 Y110.777
G0 X114.94 Y125.904
G0 X114.94 Y126.999
G0 X114.94 Y137.569
;TYPE:WALL-INNER
G1 F2700 E24.20376
G1 F1200 X114.94 Y127.569 E24.53636
G1 X104.94 Y127.569 E24.86896
G1 X104.94 Y137.569 E25.20156
G1 X114.94 Y137.569 E25.53416
G0 F6000 X115.34 Y137.969
G1 F1200 X115.34 Y127.169 E25.89337
G1 X104.54 Y127.169 E26.25258
G1 X104.54 Y137.969 E26.61179
G1 X115.34 Y137.969 E26.971
G0 F6000 X115.74 Y138.369
;TYPE:WALL-OUTER
G1 F1200 X115.74 Y126.769 E27.35682
G1 X104.14 Y126.769 E27.74264
G1 X104.14 Y138.369 E28.12845
G1 X115.74 Y138.369 E28.51427
G1 F2700 E23.51427
G0 F6000 X115.26 Y137.889
G0 X114.84 Y137.209
G1 F2700 E28.51427
G0 F6000 X114.58 Y137.209
;TYPE:SKIN
G1 F1200 X114.58 Y127.929 E28.82292
G1 X105.3 Y127.929 E29.13158
G1 X105.3 Y137.209 E29.44023
G1 X114.58 Y137.209 E29.74889
G0 F6000 X114.84 Y137.209
G0 X114.84 Y128.521
G0 X114.379 Y128.521
G1 F1200 X113.986 Y128.128 E29.76737
G0 F6000 X113.42 Y128.128
G1 F1200 X114.379 Y129.087 E29.81248
G0 F6000 X114.379 Y129.652
G1 F1200 X112.854 Y128.128 E29.88419
G0 F6000 X112.289 Y128.128
G1 F1200 X114.379 Y130.218 E29.9825
G0 F6000 X114.379 Y130.784
G1 F1200 X111.723 Y128.128 E30.10743
G0 F6000 X111.157 Y128.128
G1 F1200 X114.379 Y131.35 E30.25898
G0 F6000 X114.379 Y131.915
G1 F1200 X110.592 Y128.128 E30.43711
G0 F6000 X110.026 Y128.128
G1 F1200 X114.379 Y132.481 E30.64186
G0 F6000 X114.379 Y133.047
G1 F1200 X109.46 Y128.128 E30.87323
G0 F6000 X108.895 Y128.128
G1 F1200 X114.379 Y133.612 E31.13118
G0 F6000 X114.379 Y134.178
G1 F1200 X108.329 Y128.128 E31.41576
G0 F6000 X107.763 Y128.128
G1 F1200 X114.379 Y134.744 E31.72695
G0 F6000 X114.379 Y135.309
G1 F1200 X107.198 Y128.128 E32.06473
G0 F6000 X106.632 Y128.128
G1 F1200 X114.379 Y135.875 E32.42912
G0 F6000 X114.379 Y136.441
G1 F1200 X106.066 Y128.128 E32.82014
G0 F6000 X105.501 Y128.128
G1 F1200 X114.379 Y137.006 E33.23773
G0 F6000 X113.815 Y137.008
G1 F1200 X105.499 Y128.692 E33.62889
G0 F6000 X105.499 Y129.258
G1 F1200 X113.249 Y137.008 E33.99343
G0 F6000 X112.683 Y137.008
G1 F1200 X105.499 Y129.824 E34.33134
G0 F6000 X105.499 Y130.389
G1 F1200 X112.118 Y137.008 E34.64268
G0 F6000 X111.552 Y137.008
G1 F1200 X105.499 Y130.955 E34.92739
G0 F6000 X105.499 Y131.521
G1 F1200 X110.986 Y137.008 E35.18549
G0 F6000 X110.421 Y137.008
G1 F1200 X105.499 Y132.086 E35.417
G0 F6000 X105.499 Y132.652
G1 F1200 X109.855 Y137.008 E35.62189
G0 F6000 X109.289 Y137.008
G1 F1200 X105.499 Y133.218 E35.80016
G0 F6000 X105.499 Y133.783
G1 F1200 X108.724 Y137.008 E35.95186
G0 F6000 X108.158 Y137.008
G1 F1200 X105.499 Y134.349 E36.07693
G0 F6000 X105.499 Y134.915
G1 F1200 X107.592 Y137.008 E36.17538
G0 F6000 X107.026 Y137.008
G1 F1200 X105.499 Y135.48 E36.24723
G0 F6000 X105.499 Y136.046
G1 F1200 X106.461 Y137.008 E36.29248
G0 F6000 X105.895 Y137.008
G1 F1200 X105.499 Y136.612 E36.3111
G0 F6000 X104.95 Y136.612
G1 F2700 E31.3111
;MESH:CE3_OpenDials_v2-Buttons-Parts.3mf(3)
G0 F6000 X104.37 Y136.782
G0 X103.275 Y136.782
G0 X92.69 Y136.782
G0 X91.595 Y136.782
G0 X91.025 Y136.782
;TYPE:WALL-INNER
G1 F2700 E36.3111
G1 F1200 X91.025 Y126.782 E36.6437
G1 X81.025 Y126.782 E36.97631
G1 X81.025 Y136.782 E37.30891
G1 X91.025 Y136.782 E37.64151
G0 F6000 X91.425 Y137.182
G1 F1200 X91.425 Y126.382 E38.00072
G1 X80.625 Y126.382 E38.35993
G1 X80.625 Y137.182 E38.71914
G1 X91.425 Y137.182 E39.07835
G0 F6000 X91.825 Y137.582
;TYPE:WALL-OUTER
G1 F1200 X91.825 Y125.982 E39.46416
G1 X80.225 Y125.982 E39.84998
G1 X80.225 Y137.582 E40.2358
G1 X91.825 Y137.582 E40.62162
G1 F2700 E35.62162
G0 F6000 X91.345 Y137.102
G0 X90.925 Y136.422
G1 F2700 E40.62162
G0 F6000 X90.665 Y136.422
;TYPE:SKIN
G1 F1200 X90.665 Y127.142 E40.93027
G1 X81.385 Y127.142 E41.23892
G1 X81.385 Y136.422 E41.54758
G1 X90.665 Y136.422 E41.85623
G0 F6000 X90.925 Y136.422
G0 X90.925 Y127.8
G0 X90.465 Y127.8
G1 F1200 X90.006 Y127.341 E41.87782
G0 F6000 X89.44 Y127.341
G1 F1200 X90.465 Y128.366 E41.92604
G0 F6000 X90.465 Y128.931
G1 F1200 X88.874 Y127.341 E42.00085
G0 F6000 X88.309 Y127.341
G1 F1200 X90.465 Y129.497 E42.10226
G0 F6000 X90.465 Y130.063
G1 F1200 X87.743 Y127.341 E42.23029
G0 F6000 X87.177 Y127.341
G1 F1200 X90.465 Y130.628 E42.38493
G0 F6000 X90.465 Y131.194
G1 F1200 X86.612 Y127.341 E42.56616
G0 F6000 X86.046 Y127.341
G1 F1200 X90.465 Y131.76 E42.77402
G0 F6000 X90.465 Y132.325
G1 F1200 X85.48 Y127.341 E43.00847
G0 F6000 X84.915 Y127.341
G1 F1200 X90.465 Y132.891 E43.26953
G0 F6000 X90.465 Y133.457
G1 F1200 X84.349 Y127.341 E43.55721
G0 F6000 X83.783 Y127.341
G1 F1200 X90.465 Y134.022 E43.87148
G0 F6000 X90.465 Y134.588
G1 F1200 X83.217 Y127.341 E44.21238
G0 F6000 X82.652 Y127.341
G1 F1200 X90.465 Y135.154 E44.57988
G0 F6000 X90.465 Y135.719
G1 F1200 X82.086 Y127.341 E44.97398
G0 F6000 X81.584 Y127.405
G1 F1200 X90.4 Y136.221 E45.38866
G0 F6000 X89.835 Y136.221
G1 F1200 X81.584 Y127.97 E45.77676
G0 F6000 X81.584 Y128.536
G1 F1200 X89.269 Y136.221 E46.13824
G0 F6000 X88.703 Y136.221
G1 F1200 X81.584 Y129.102 E46.4731
G0 F6000 X81.584 Y129.667
G1 F1200 X88.138 Y136.221 E46.78138
G0 F6000 X87.572 Y136.221
G1 F1200 X81.584 Y130.233 E47.06303
G0 F6000 X81.584 Y130.799
G1 F1200 X87.006 Y136.221 E47.31807
G0 F6000 X86.44 Y136.221
G1 F1200 X81.584 Y131.364 E47.5465
G0 F6000 X81.584 Y131.93
G1 F1200 X85.875 Y136.221 E47.74834
G0 F6000 X85.309 Y136.221
G1 F1200 X81.584 Y132.496 E47.92355
G0 F6000 X81.584 Y133.061
G1 F1200 X84.743 Y136.221 E48.07216
G0 F6000 X84.178 Y136.221
G1 F1200 X81.584 Y133.627 E48.19418
G0 F6000 X81.584 Y134.193
G1 F1200 X83.612 Y136.221 E48.28957
G0 F6000 X83.046 Y136.221
G1 F1200 X81.584 Y134.758 E48.35836
G0 F6000 X81.584 Y135.324
G1 F1200 X82.481 Y136.221 E48.40055
G0 F6000 X81.915 Y136.221
G1 F1200 X81.584 Y135.89 E48.41612
G0 F6000 X81.035 Y135.89
G1 F2700 E43.41612
;MESH:CE3_OpenDials_v2-Buttons-Parts.3mf(1)
G0 F6000 X81.197 Y126.954
G0 X91.601 Y126.206
G0 X92.69 Y126.206
G0 X103.287 Y125.916
G0 X116.593 Y125.916
G0 X127.936 Y126.206
G0 X129.031 Y126.206
G0 X129.67 Y126.162
;TYPE:WALL-INNER
G1 F2700 E48.41612
G1 F1045.8 X129.826 Y126.529 E48.43134
G1 F1200 X129.837 Y126.576 E48.43295
G1 X129.925 Y126.89 E48.44379
G1 X130.037 Y127.229 E48.45567
G1 X130.056 Y127.279 E48.45745
G1 X130.199 Y127.639 E48.47033
G1 X130.355 Y127.983 E48.48289
G1 X130.532 Y128.323 E48.49564
G1 X130.714 Y128.638 E48.50774
G1 X130.891 Y128.91 E48.51854
G1 X131.108 Y129.213 E48.53093
G1 X131.372 Y129.546 E48.54507
G1 X131.588 Y129.789 E48.55588
G1 X131.843 Y130.054 E48.56811
G1 X132.122 Y130.313 E48.58077
G1 X132.439 Y130.578 E48.59451
G1 X132.742 Y130.808 E48.60717
G1 X133.051 Y131.018 E48.61959
G1 X133.328 Y131.187 E48.63039
G1 X133.657 Y131.367 E48.64286
G1 X133.995 Y131.531 E48.65535
G1 X134.339 Y131.676 E48.66777
G1 X134.677 Y131.802 E48.67977
G1 X134.728 Y131.819 E48.68156
G1 X135.096 Y131.932 E48.69436
G1 F1191.1 X135.423 Y132.013 E48.70565
G1 F1069 X135.763 Y132.131 E48.71909
G1 F960 X135.816 Y132.148 E48.7214
G0 F6000 X138.438 Y132.144
G1 F1016.9 X138.733 Y132.038 E48.7337
G1 F1148.3 X138.781 Y132.019 E48.7355
G1 F1185.2 X139.108 Y131.932 E48.74689
G1 F1200 X139.52 Y131.803 E48.76125
G1 X139.819 Y131.693 E48.77185
G1 X140.204 Y131.532 E48.78573
G1 X140.497 Y131.392 E48.79653
G1 X140.829 Y131.213 E48.80907
G1 X141.152 Y131.017 E48.82164
G1 X141.46 Y130.807 E48.83404
G1 X141.801 Y130.55 E48.84824
G1 X142.081 Y130.311 E48.86048
G1 X142.357 Y130.054 E48.87303
G1 X142.622 Y129.78 E48.88571
G1 X142.858 Y129.509 E48.89766
G1 X143.097 Y129.211 E48.91036
G1 X143.286 Y128.947 E48.92116
G1 X143.488 Y128.634 E48.93355
G1 X143.674 Y128.317 E48.94578
G1 X143.701 Y128.267 E48.94767
G1 X143.868 Y127.938 E48.95994
G1 X144.025 Y127.59 E48.97264
G1 X144.163 Y127.229 E48.98549
G1 X144.273 Y126.896 E48.99715
G1 X144.378 Y126.524 E49.01001
G1 X144.451 Y126.196 E49.02119
G1 X144.521 Y125.799 E49.03459
G1 X144.562 Y125.477 E49.04539
G1 X144.591 Y125.102 E49.0579
G1 X144.601 Y124.718 E49.07068
G1 X144.593 Y124.355 E49.08275
G1 X144.566 Y123.974 E49.09546
G1 X144.52 Y123.604 E49.10786
G1 X144.463 Y123.261 E49.11942
G1 X144.375 Y122.87 E49.13275
G1 X144.271 Y122.5 E49.14554
G1 X144.164 Y122.177 E49.15685
G1 X144.019 Y121.804 E49.17016
G1 X143.867 Y121.466 E49.18249
G1 X143.699 Y121.137 E49.19478
G1 X143.517 Y120.817 E49.20702
G1 X143.486 Y120.766 E49.20901
G1 X143.31 Y120.496 E49.21973
G1 X143.09 Y120.189 E49.23229
G1 X142.866 Y119.904 E49.24434
G1 X142.794 Y119.822 E49.24797
G1 X142.614 Y119.618 E49.25702
G1 X142.349 Y119.343 E49.26972
G1 X142.075 Y119.089 E49.28215
G1 X141.788 Y118.849 E49.29459
G1 X141.482 Y118.615 E49.30741
G1 X141.175 Y118.407 E49.31974
G1 X140.875 Y118.222 E49.33146
G1 X140.53 Y118.032 E49.34456
G1 X140.161 Y117.856 E49.35816
G1 X139.855 Y117.728 E49.36919
G1 X139.506 Y117.6 E49.38156
G1 X139.149 Y117.488 E49.394
G1 X138.782 Y117.393 E49.40661
G1 X138.379 Y117.312 E49.42028
G1 X138.059 Y117.264 E49.43104
G1 X137.686 Y117.226 E49.44351
G1 X137.317 Y117.206 E49.45581
G1 X137.261 Y117.205 E49.45767
G1 X136.872 Y117.207 E49.47061
G1 X136.549 Y117.224 E49.48136
G1 X136.194 Y117.258 E49.49323
G1 X135.824 Y117.312 E49.50566
G1 X135.474 Y117.38 E49.51752
G1 X135.095 Y117.475 E49.53052
G1 X134.736 Y117.585 E49.54301
G1 X134.38 Y117.715 E49.55561
G1 X134.04 Y117.857 E49.56787
G1 X133.71 Y118.012 E49.57999
G1 X133.373 Y118.194 E49.59273
G1 X133.329 Y118.22 E49.59443
