;FLAVOR:Marlin
;TIME:6738
;Filament used: 4.23439m
;Layer height: 0.2
;MINX:84.335
;MINY:86.836
;MINZ:0.24
;MAXX:150.452
;MAXY:148.165
;MAXZ:17.09
;Generated with Cura_SteamEngine 99.10.0-Arachne_engine_beta_2
M140 S60
M105
M190 S60
M104 S205
M105
M109 S205
M82 ;absolute extrusion mode
; Ender 3 Custom Start G-code
G92 E0 ; Reset Extruder
G28 ; Home all axes
;G29 ; Auto bed leveling (ABL)
G1 Z2.0 F3000 ; Move Z Axis up little to prevent scratching of Heat Bed
G1 X0.1 Y20 Z0.3 F5000.0 ; Move to start position
G1 X0.1 Y200.0 Z0.3 F1500.0 E15 ; Draw the first line
G1 X0.4 Y200.0 Z0.3 F5000.0 ; Move to side a little
G1 X0.4 Y20 Z0.3 F1500.0 E30 ; Draw the second line
G92 E0 ; Reset Extruder
G1 Z2.0 F3000 ; Move Z Axis up little to prevent scratching of Heat Bed
G1 X5 Y20 Z0.3 F5000.0 ; Move over to prevent blob squish
G92 E0
G92 E0
G1 F2700 E-5
;LAYER_COUNT:80
;LAYER:-6
M107
G0 F9000 X90.598 Y91.333 Z0.24
;TYPE:SUPPORT-INTERFACE
G1 F2700 E0
G1 F1125 X91.426 Y90.687 E0.08383
G1 X92.323 Y90.084 E0.17011
G1 X93.243 Y89.562 E0.25454
G1 X93.393 Y89.484 E0.26804
G1 X94.208 Y89.101 E0.33992
G1 X95.21 Y88.712 E0.42572
G1 X95.36 Y88.66 E0.4384
G1 X96.383 Y88.358 E0.52354
G1 X97.278 Y88.158 E0.59674
G1 X98.313 Y88.001 E0.68031
G1 X99.371 Y87.917 E0.76503
G1 X100.06 Y87.9 E0.82004
G1 X135.003 Y87.901 E3.60934
G1 X136.127 Y87.946 E3.69914
G1 X137.219 Y88.073 E3.78689
G1 X138.231 Y88.265 E3.86912
G1 X139.125 Y88.499 E3.94288
G1 X139.288 Y88.548 E3.95647
G1 X140.13 Y88.834 E4.02745
G1 X141.099 Y89.239 E4.11129
G1 X141.288 Y89.327 E4.12793
G1 X142.199 Y89.802 E4.20994
G1 X142.978 Y90.276 E4.28273
G1 X143.129 Y90.376 E4.29719
G1 X143.991 Y91 E4.38213
G1 X144.795 Y91.677 E4.46604
G1 X145.444 Y92.302 E4.53796
G1 X146.167 Y93.098 E4.6238
G1 X146.822 Y93.938 E4.70882
G1 X147.416 Y94.823 E4.79391
G1 X147.938 Y95.743 E4.87834
G1 X148.016 Y95.893 E4.89184
G1 X148.399 Y96.708 E4.96372
G1 X148.788 Y97.71 E5.04952
G1 X148.84 Y97.86 E5.06219
G1 X149.142 Y98.883 E5.14734
G1 X149.34 Y99.769 E5.21981
G1 X149.498 Y100.807 E5.30362
G1 X149.583 Y101.871 E5.38882
G1 X149.6 Y102.556 E5.44352
G1 X149.599 Y121.036 E6.91867
G1 X149.587 Y121.356 E6.94423
G1 X149.6 Y122.05 E6.99964
G1 X149.6 Y132.486 E7.83269
G1 X149.554 Y133.627 E7.92384
G1 X149.427 Y134.719 E8.0116
G1 X149.235 Y135.731 E8.09382
G1 X149.004 Y136.616 E8.16683
G1 X148.676 Y137.6 E8.24963
G1 X148.596 Y137.809 E8.26749
G1 X148.261 Y138.599 E8.33599
G1 X148.18 Y138.774 E8.35138
G1 X147.698 Y139.699 E8.43464
G1 X147.224 Y140.478 E8.50743
G1 X147.124 Y140.629 E8.52189
G1 X146.5 Y141.491 E8.60683
G1 X145.823 Y142.295 E8.69073
G1 X145.198 Y142.944 E8.76266
G1 X144.403 Y143.666 E8.84838
G1 X143.574 Y144.313 E8.93232
G1 X142.677 Y144.916 E9.0186
G1 X141.757 Y145.438 E9.10304
G1 X141.606 Y145.516 E9.11661
G1 X140.792 Y145.899 E9.18842
G1 X139.79 Y146.288 E9.27422
G1 X139.64 Y146.34 E9.28689
G1 X138.617 Y146.642 E9.37203
G1 X137.722 Y146.842 E9.44524
G1 X136.687 Y146.999 E9.5288
G1 X135.629 Y147.083 E9.61352
G1 X134.94 Y147.1 E9.66854
G1 X99.997 Y147.099 E12.45784
G1 X98.873 Y147.054 E12.54763
G1 X97.781 Y146.927 E12.63539
G1 X96.769 Y146.735 E12.71761
G1 X95.875 Y146.501 E12.79138
G1 X95.712 Y146.452 E12.80496
G1 X94.87 Y146.166 E12.87595
G1 X93.901 Y145.761 E12.95978
G1 X93.712 Y145.673 E12.97642
G1 X92.801 Y145.198 E13.05844
G1 X92.022 Y144.724 E13.13122
G1 X91.871 Y144.624 E13.14568
G1 X91.009 Y144 E13.23063
G1 X90.205 Y143.323 E13.31453
G1 X89.556 Y142.698 E13.38645
G1 X88.833 Y141.902 E13.47229
G1 X88.178 Y141.062 E13.55732
G1 X87.581 Y140.172 E13.64286
G1 X87.056 Y139.246 E13.72783
G1 X86.984 Y139.107 E13.74033
G1 X86.587 Y138.261 E13.81493
G1 X86.212 Y137.29 E13.89802
G1 X86.155 Y137.125 E13.91195
G1 X85.858 Y136.117 E13.99583
G1 X85.635 Y135.092 E14.07957
G1 X85.5 Y134.178 E14.15332
G1 X85.417 Y133.126 E14.23755
G1 X85.4 Y132.444 E14.29201
G1 X85.401 Y113.964 E15.76717
G1 X85.413 Y113.644 E15.79273
G1 X85.4 Y112.95 E15.84813
G1 X85.4 Y102.514 E16.68118
G1 X85.446 Y101.373 E16.77233
G1 X85.573 Y100.281 E16.86009
G1 X85.765 Y99.269 E16.94231
G1 X85.996 Y98.384 E17.01533
G1 X86.048 Y98.212 E17.02967
G1 X86.334 Y97.37 E17.10065
G1 X86.739 Y96.401 E17.18449
G1 X86.82 Y96.226 E17.19988
G1 X87.302 Y95.301 E17.28314
G1 X87.776 Y94.522 E17.35593
G1 X87.876 Y94.371 E17.37039
G1 X88.5 Y93.509 E17.45533
G1 X89.177 Y92.705 E17.53923
G1 X89.802 Y92.056 E17.61116
G1 X90.598 Y91.333 E17.69699
G0 F9000 X91.2 Y90.863
G1 F1125 X91.2 Y144.138 E21.94963
G0 F9000 X92.8 Y145.197
G1 F1125 X92.8 Y89.813 E26.37062
G0 F9000 X94.4 Y89.027
G1 F1125 X94.4 Y145.969 E30.91598
G0 F9000 X96 Y146.533
G1 F1125 X96 Y88.471 E35.55074
G0 F9000 X97.6 Y88.109
G1 F1125 X97.6 Y146.892 E40.24305
G0 F9000 X99.2 Y147.067
G1 F1125 X99.2 Y87.93 E44.96363
G0 F9000 X100.8 Y87.901
G1 F1125 X100.8 Y147.099 E49.68907
G0 F9000 X102.4 Y147.099
G1 F1125 X102.4 Y87.901 E54.41451
G0 F9000 X104 Y87.901
G1 F1125 X104 Y147.099 E59.13995
G0 F9000 X105.6 Y147.099
G1 F1125 X105.6 Y87.901 E63.86539
G0 F9000 X107.2 Y87.901
G1 F1125 X107.2 Y147.099 E68.59083
G0 F9000 X108.8 Y147.099
G1 F1125 X108.8 Y87.901 E73.31627
G0 F9000 X110.4 Y87.901
G1 F1125 X110.4 Y147.099 E78.04171
G0 F9000 X112 Y147.099
G1 F1125 X112 Y87.901 E82.76715
G0 F9000 X113.6 Y87.901
G1 F1125 X113.6 Y147.099 E87.49259
G0 F9000 X115.2 Y147.099
G1 F1125 X115.2 Y87.901 E92.21803
G0 F9000 X116.8 Y87.901
G1 F1125 X116.8 Y147.099 E96.94347
G0 F9000 X118.4 Y147.099
G1 F1125 X118.4 Y87.901 E101.66891
G0 F9000 X120 Y87.901
G1 F1125 X120 Y147.099 E106.39435
G0 F9000 X121.6 Y147.099
G1 F1125 X121.6 Y87.901 E111.11979
G0 F9000 X123.2 Y87.901
G1 F1125 X123.2 Y147.099 E115.84523
G0 F9000 X124.8 Y147.099
G1 F1125 X124.8 Y87.901 E120.57067
G0 F9000 X126.4 Y87.901
G1 F1125 X126.4 Y147.099 E125.29611
G0 F9000 X128 Y147.099
G1 F1125 X128 Y87.901 E130.02155
G0 F9000 X129.6 Y87.901
G1 F1125 X129.6 Y147.099 E134.74699
G0 F9000 X131.2 Y147.099
G1 F1125 X131.2 Y87.901 E139.47243
G0 F9000 X132.8 Y87.901
G1 F1125 X132.8 Y147.099 E144.19787
G0 F9000 X134.4 Y147.099
G1 F1125 X134.4 Y87.901 E148.92331
G0 F9000 X136 Y87.941
G1 F1125 X136 Y147.054 E153.64197
G0 F9000 X137.6 Y146.861
G1 F1125 X137.6 Y88.146 E158.32885
G0 F9000 X139.2 Y88.524
G1 F1125 X139.2 Y146.47 E162.95435
G0 F9000 X140.8 Y145.896
G1 F1125 X140.8 Y89.115 E167.48686
G0 F9000 X142.4 Y89.925
G1 F1125 X142.4 Y145.074 E171.88909
G0 F9000 X144 Y143.981
G1 F1125 X144 Y91.008 E176.11762
G0 F9000 X145.6 Y92.474
G1 F1125 X145.6 Y142.527 E180.11307
G0 F9000 X147.2 Y140.515
G1 F1125 X147.2 Y94.502 E183.78603
G0 F9000 X148.8 Y97.756
G1 F1125 X148.8 Y137.228 E186.93685
G1 F2700 E181.93685
G0 F9000 X149.81 Y137.57
G0 X149.132 Y139.249
G0 X148.126 Y141.043
G0 X147.338 Y142.148
G0 X145.945 Y143.703
G0 X144.944 Y144.599
G0 X143.24 Y145.819
G0 X142.086 Y146.466
G0 X140.159 Y147.287
G0 X138.878 Y147.673
G0 X136.82 Y148.055
G0 X134.947 Y148.165
G0 X98.943 Y148.126
G0 X97.617 Y147.979
G0 X95.59 Y147.527
G0 X94.3 Y147.087
G0 X92.42 Y146.205
G0 X91.261 Y145.496
G0 X89.93 Y144.468
G0 X88.863 Y143.507
G0 X89.6 Y142.74
G1 F2700 E186.93685
G1 F1125 X89.6 Y92.265 E190.96599
G0 F9000 X88 Y94.199
G1 F1125 X88 Y140.796 E194.68556
G0 F9000 X86.4 Y137.776
G1 F1125 X86.4 Y97.212 E197.92355
G0 F300 X86.4 Y97.212 Z0.54
G0 F9000 X86.713 Y97.498
;TIME_ELAPSED:142.768632
;LAYER:-5
M140 S50
;TYPE:SUPPORT
G1 F1125 X86.974 Y96.873 E197.99114
G1 X136.693 Y146.593 E205.00709
G1 X137.647 Y146.448 E205.10338
G1 X137.904 Y146.39 E205.12967
G1 X87.431 Y95.916 E212.25202
G1 X87.651 Y95.496 E212.29933
G1 X87.945 Y95.016 E212.3555
G1 X139.028 Y146.099 E219.56386
G1 X139.648 Y145.913 E219.62845
G1 X140.086 Y145.743 E219.67533
G1 X88.514 Y94.171 E226.95269
G1 X88.815 Y93.755 E227.00393
G1 X89.133 Y93.376 E227.05329
G1 X141.076 Y145.319 E234.38301
G1 X141.566 Y145.086 E234.43715
G1 X142.006 Y144.835 E234.4877
G1 X89.801 Y92.63 E241.85438
G1 X90.076 Y92.346 E241.89383
G1 X90.525 Y91.939 E241.9543
G1 X142.881 Y144.295 E249.3423
G1 X143.341 Y143.986 E249.39759
G1 X143.703 Y143.703 E249.44344
G1 X91.295 Y91.295 E256.83877
G1 X91.657 Y91.012 E256.88462
G1 X92.117 Y90.703 E256.93991
G1 X144.473 Y143.059 E264.32791
G1 X144.922 Y142.652 E264.38838
G1 X145.197 Y142.368 E264.42782
G1 X92.992 Y90.163 E271.79451
G1 X93.427 Y89.917 E271.84438
G1 X93.577 Y89.839 E271.86125
G1 X93.92 Y89.678 E271.89906
G1 X145.865 Y141.622 E279.22899
G1 X146.183 Y141.243 E279.27835
G1 X146.484 Y140.828 E279.3295
G1 X94.914 Y89.258 E286.60659
G1 X95.477 Y89.043 E286.66672
G1 X95.969 Y88.898 E286.7179
G1 X147.053 Y139.982 E293.92641
G1 X147.347 Y139.502 E293.98257
G1 X147.567 Y139.082 E294.02988
G1 X97.094 Y88.608 E301.15224
G1 X97.351 Y88.55 E301.17852
G1 X98.305 Y88.406 E301.27479
G1 X148.024 Y138.124 E308.29061
G1 X148.221 Y137.665 E308.34045
G1 X148.301 Y137.457 E308.36269
G1 X148.418 Y137.105 E308.3997
G1 X99.624 Y88.311 E315.28506
G1 X100.069 Y88.299 E315.32948
G1 X101.028 Y88.3 E315.42517
G1 X148.746 Y136.018 E322.15869
G1 X148.843 Y135.645 E322.19715
G1 X148.993 Y134.851 E322.27777
G1 X102.442 Y88.3 E328.84662
G1 X103.857 Y88.3 E328.98781
G1 X149.153 Y133.597 E335.37964
G1 X149.198 Y132.47 E335.49218
G1 X149.198 Y132.228 E335.51633
G1 X105.271 Y88.3 E341.71497
G1 X106.685 Y88.3 E341.85606
G1 X149.198 Y130.814 E347.85518
G1 X149.198 Y129.399 E347.99636
G1 X108.099 Y88.3 E353.79588
G1 X109.513 Y88.3 E353.93697
G1 X149.198 Y127.985 E359.53695
G1 X149.198 Y126.571 E359.67804
G1 X110.928 Y88.3 E365.07842
G1 X112.342 Y88.3 E365.21951
G1 X149.198 Y125.157 E370.42036
G1 X149.198 Y123.742 E370.56155
G1 X113.756 Y88.3 E375.5628
G1 X115.17 Y88.3 E375.70389
G1 X149.198 Y122.328 E380.50561
G1 X149.198 Y122.05 E380.53334
G1 X149.186 Y121.351 E380.6031
G1 X149.198 Y121.021 E380.63605
G1 X149.198 Y120.914 E380.64673
G1 X116.584 Y88.3 E385.24891
G1 X117.999 Y88.301 E385.3901
G1 X149.198 Y119.5 E389.79262
G1 X149.198 Y118.086 E389.93371
G1 X119.414 Y88.301 E394.13662
G1 X120.828 Y88.301 E394.27771
G1 X149.198 Y116.671 E398.28103
G1 X149.198 Y115.257 E398.42212
G1 X122.242 Y88.301 E402.2259
G1 X123.656 Y88.301 E402.36699
G1 X149.198 Y113.843 E405.97124
G1 X149.198 Y112.429 E406.11233
G1 X125.07 Y88.301 E409.51705
G1 X126.485 Y88.301 E409.65824
G1 X149.199 Y111.015 E412.86343
G1 X149.199 Y109.601 E413.00452
G1 X127.899 Y88.301 E416.01018
G1 X129.313 Y88.301 E416.15127
G1 X149.199 Y108.187 E418.9574
G1 X149.199 Y106.773 E419.09849
G1 X130.727 Y88.301 E421.70509
G1 X132.141 Y88.301 E421.84618
G1 X149.199 Y105.358 E424.25318
G1 X149.199 Y103.944 E424.39427
G1 X133.556 Y88.301 E426.60166
G1 X134.97 Y88.301 E426.74275
G1 X149.199 Y102.53 E428.75062
G1 X149.183 Y101.903 E428.8132
G1 X149.113 Y101.03 E428.90059
G1 X136.472 Y88.389 E430.68437
G1 X137.152 Y88.468 E430.75268
G1 X138.144 Y88.655 E430.8534
G1 X138.156 Y88.659 E430.85466
G1 X148.833 Y99.336 E432.3613
G1 X148.757 Y98.995 E432.39616
G1 X148.454 Y97.973 E432.50253
G1 X148.188 Y97.276 E432.57697
G1 X140.215 Y89.304 E433.70197
G1 X140.929 Y89.601 E433.77913
G1 X141.112 Y89.687 E433.79931
G1 X142.001 Y90.151 E433.89937
G1 X142.892 Y90.699 E434.00374
G1 X143.375 Y91.049 E434.06326
G1 X146.495 Y94.169 E434.50353
G1 X145.861 Y93.359 E434.60616
G1 X145.152 Y92.577 E434.71149
G1 X144.536 Y91.982 E434.79694
G1 X143.743 Y91.315 E434.90033
G1 X143.375 Y91.049 E434.94564
G1 F2700 E429.94564
G0 F9000 X144.229 Y89.854
G0 X142.58 Y88.795
G0 X140.7 Y87.913
G0 X139.41 Y87.473
G0 X137.383 Y87.021
G0 X136.057 Y86.874
G0 X99.31 Y86.854
G0 X97.242 Y87.083
G0 X95.927 Y87.379
G0 X93.961 Y88.05
G0 X92.743 Y88.622
G0 X90.977 Y89.701
G0 X89.897 Y90.532
G0 X88.392 Y91.986
G0 X87.534 Y93.019
G0 X86.387 Y94.757
G0 X86.212 Y95.098
G0 X85.413 Y96.8
G0 X86.713 Y97.498
G1 F2700 E434.94564
G1 F1125 X86.58 Y97.894 E434.98732
G1 X135.374 Y146.687 E441.87261
G1 X134.93 Y146.699 E441.91693
G1 X133.97 Y146.698 E442.01272
G1 X86.252 Y98.98 E448.74625
G1 X86.156 Y99.354 E448.78477
G1 X86.005 Y100.147 E448.86532
G1 X132.556 Y146.698 E455.43417
G1 X131.142 Y146.698 E455.57526
G1 X85.845 Y101.401 E461.96716
G1 X85.8 Y102.529 E462.0798
G1 X85.8 Y102.77 E462.10385
G1 X129.727 Y146.698 E468.30249
G1 X128.313 Y146.698 E468.44358
G1 X85.8 Y104.185 E474.44262
G1 X85.8 Y105.599 E474.58371
G1 X126.899 Y146.698 E480.38323
G1 X125.485 Y146.698 E480.52432
G1 X85.8 Y107.013 E486.1243
G1 X85.8 Y108.427 E486.26539
G1 X124.071 Y146.698 E491.66584
G1 X122.656 Y146.698 E491.80703
G1 X85.8 Y109.841 E497.00788
G1 X85.8 Y111.256 E497.14907
G1 X121.242 Y146.698 E502.15032
G1 X119.828 Y146.698 E502.29141
G1 X85.8 Y112.67 E507.09312
G1 X85.8 Y112.948 E507.12086
G1 X85.813 Y113.647 E507.19062
G1 X85.801 Y113.977 E507.22357
G1 X85.8 Y114.084 E507.23425
G1 X118.414 Y146.698 E511.83644
G1 X116.999 Y146.697 E511.97762
G1 X85.8 Y115.498 E516.38014
G1 X85.8 Y116.913 E516.52133
G1 X115.585 Y146.697 E520.72424
G1 X114.17 Y146.697 E520.86543
G1 X85.8 Y118.327 E524.86875
G1 X85.8 Y119.741 E525.00984
G1 X112.756 Y146.697 E528.81362
G1 X111.342 Y146.697 E528.95471
G1 X85.8 Y121.155 E532.55896
G1 X85.8 Y122.569 E532.70005
G1 X109.928 Y146.697 E536.10477
G1 X108.514 Y146.697 E536.24586
G1 X85.799 Y123.983 E539.45112
G1 X85.799 Y125.397 E539.59221
G1 X107.099 Y146.697 E542.59787
G1 X105.685 Y146.697 E542.73896
G1 X85.799 Y126.811 E545.54509
G1 X85.799 Y128.226 E545.68628
G1 X104.271 Y146.697 E548.29281
G1 X102.857 Y146.697 E548.4339
G1 X85.799 Y129.64 E550.8409
G1 X85.799 Y131.054 E550.98199
G1 X101.442 Y146.697 E553.18938
G1 X100.028 Y146.697 E553.33047
G1 X85.799 Y132.468 E555.33834
G1 X85.815 Y133.094 E555.40082
G1 X85.884 Y133.967 E555.4882
G1 X98.526 Y146.61 E557.27219
G1 X97.847 Y146.531 E557.3404
G1 X96.854 Y146.343 E557.44124
G1 X96.842 Y146.339 E557.44251
G1 X86.168 Y135.666 E558.94865
G1 X86.245 Y136.015 E558.98431
G1 X86.537 Y137.006 E559.0874
G1 X86.809 Y137.721 E559.16373
G1 X94.784 Y145.695 E560.28902
G1 X94.069 Y145.397 E560.36631
G1 X93.886 Y145.311 E560.38648
G1 X92.997 Y144.847 E560.48654
G1 X92.106 Y144.299 E560.59092
G1 X91.624 Y143.949 E560.65035
G1 X88.503 Y140.829 E561.09069
G0 F9000 X89.137 Y141.639
G1 F1125 X89.847 Y142.421 E561.19608
G1 X90.462 Y143.016 E561.28147
G1 X91.255 Y143.683 E561.38486
G1 X91.624 Y143.949 E561.43025
G0 F300 X91.624 Y143.949 Z0.74
G0 F9000 X91.348 Y144
;TIME_ELAPSED:340.326709
;LAYER:-4
;TYPE:SUPPORT-INTERFACE
G1 F1500 X91.138 Y143.848 E561.43887
G1 X90.842 Y143.6 E561.45171
G1 X144.169 Y143.6 E563.22538
G1 X144.614 Y143.2 E563.24528
G1 X90.366 Y143.2 E565.04957
G1 X90.343 Y143.18 E565.05059
G1 X89.948 Y142.8 E565.06882
G1 X145.058 Y142.8 E566.90178
G0 F9000 X145.061 Y142.798
G1 F1500 X145.444 Y142.4 E566.92015
G1 X89.554 Y142.4 E568.77906
G1 X89.191 Y142 E568.79703
G1 X145.811 Y142 E570.68022
G1 X146.147 Y141.6 E570.69759
G1 X88.849 Y141.6 E572.60333
G1 X88.537 Y141.2 E572.6202
G1 X146.464 Y141.2 E574.54686
G1 X146.753 Y140.8 E574.56328
G1 X88.243 Y140.8 E576.50933
G1 X87.974 Y140.4 E576.52536
G1 X147.035 Y140.4 E578.48974
G1 X147.057 Y140.367 E578.49106
G1 X147.28 Y140 E578.50534
G1 X87.713 Y140 E580.48655
G1 X87.488 Y139.6 E580.50181
G1 X147.523 Y139.6 E582.49858
G1 X147.732 Y139.2 E582.51359
G1 X87.263 Y139.2 E584.5248
G1 X87.164 Y139.023 E584.53155
G1 X87.059 Y138.8 E584.53974
G1 X147.94 Y138.8 E586.56465
G1 X148.003 Y138.68 E586.56916
G1 X148.081 Y138.514 E586.57526
G1 X148.129 Y138.4 E586.57938
G1 X86.872 Y138.4 E588.61679
G1 X86.779 Y138.2 E588.62413
G1 X86.701 Y138 E588.63127
G1 X148.298 Y138 E590.67999
G1 X148.412 Y137.732 E590.68968
G1 X148.462 Y137.6 E590.69437
G1 X86.545 Y137.6 E592.75374
G1 X86.401 Y137.228 E592.76701
G1 X86.391 Y137.2 E592.768
G1 X148.6 Y137.2 E594.83708
G1 X148.737 Y136.8 E594.85114
G1 X86.267 Y136.8 E596.9289
G1 X86.149 Y136.4 E596.94277
G1 X148.849 Y136.4 E599.02818
G1 X148.956 Y136 E599.04196
G1 X86.036 Y136 E601.13468
G1 X85.949 Y135.6 E601.1483
G1 X149.056 Y135.6 E603.24725
G1 X149.131 Y135.2 E603.26078
G1 X85.862 Y135.2 E605.36512
G1 X85.829 Y135.044 E605.37042
G1 X85.794 Y134.8 E605.37862
G1 X149.207 Y134.8 E607.48774
G1 X149.231 Y134.676 E607.49194
G1 X149.263 Y134.4 E607.50119
G1 X85.736 Y134.4 E609.6141
G1 X85.681 Y134.011 E609.62717
G1 X85.68 Y134 E609.62754
