;FLAVOR:Marlin
;TIME:3315
;Filament used: 2.19107m
;Layer height: 0.2
;MINX:85.048
;MINY:91.854
;MINZ:0.24
;MAXX:158.078
;MAXY:142.976
;MAXZ:13.09
;Generated with Cura_SteamEngine 99.10.0-Arachne_engine_beta_2
M140 S60
M105
M190 S60
M104 S205
M105
M109 S205
M82 ;absolute extrusion mode
; Ender 3 Custom Start G-code
G92 E0 ; Reset Extruder
G28 ; Home all axes
;G29 ; Auto bed leveling (ABL)
G1 Z2.0 F3000 ; Move Z Axis up little to prevent scratching of Heat Bed
G1 X0.1 Y20 Z0.3 F5000.0 ; Move to start position
G1 X0.1 Y200.0 Z0.3 F1500.0 E15 ; Draw the first line
G1 X0.4 Y200.0 Z0.3 F5000.0 ; Move to side a little
G1 X0.4 Y20 Z0.3 F1500.0 E30 ; Draw the second line
G92 E0 ; Reset Extruder
G1 Z2.0 F3000 ; Move Z Axis up little to prevent scratching of Heat Bed
G1 X5 Y20 Z0.3 F5000.0 ; Move over to prevent blob squish
G92 E0
G92 E0
G1 F2700 E-5
;LAYER_COUNT:60
;LAYER:-6
M107
G0 F9000 X91.311 Y96.333 Z0.24
;TYPE:SUPPORT-INTERFACE
G1 F2700 E0
G1 F1125 X92.139 Y95.687 E0.08383
G1 X93.036 Y95.084 E0.17011
G1 X93.956 Y94.562 E0.25454
G1 X94.106 Y94.484 E0.26804
G1 X94.921 Y94.101 E0.33992
G1 X95.923 Y93.712 E0.42572
G1 X96.073 Y93.66 E0.4384
G1 X97.096 Y93.358 E0.52354
G1 X97.991 Y93.158 E0.59674
G1 X99.026 Y93.001 E0.68031
G1 X100.084 Y92.917 E0.76503
G1 X100.773 Y92.9 E0.82004
G1 X120.716 Y92.901 E2.41198
G1 X121.84 Y92.946 E2.50177
G1 X122.932 Y93.073 E2.58953
G1 X123.944 Y93.265 E2.67175
G1 X124.838 Y93.499 E2.74552
G1 X125.001 Y93.548 E2.75911
G1 X125.843 Y93.834 E2.83009
G1 X126.812 Y94.239 E2.91392
G1 X127.254 Y94.457 E2.95326
G1 X127.868 Y94.726 E3.00677
G1 X128.524 Y94.918 E3.06134
G1 X129.195 Y95.025 E3.11557
G1 X129.703 Y95.05 E3.15617
G1 X142.416 Y95.051 E4.17098
G1 X143.54 Y95.096 E4.26078
G1 X144.632 Y95.223 E4.34853
G1 X145.644 Y95.415 E4.43075
G1 X146.538 Y95.649 E4.50452
G1 X146.701 Y95.698 E4.51811
G1 X147.543 Y95.984 E4.58909
G1 X148.512 Y96.389 E4.67293
G1 X148.701 Y96.477 E4.68957
G1 X149.612 Y96.952 E4.77158
G1 X150.391 Y97.426 E4.84437
G1 X150.542 Y97.526 E4.85883
G1 X151.404 Y98.15 E4.94377
G1 X152.208 Y98.827 E5.02767
G1 X152.857 Y99.452 E5.09959
G1 X153.58 Y100.248 E5.18543
G1 X154.226 Y101.076 E5.26926
G1 X154.829 Y101.973 E5.35554
G1 X155.351 Y102.893 E5.43998
G1 X155.429 Y103.043 E5.45347
G1 X155.812 Y103.858 E5.52535
G1 X156.201 Y104.86 E5.61115
G1 X156.253 Y105.01 E5.62383
G1 X156.555 Y106.033 E5.70897
G1 X156.753 Y106.919 E5.78144
G1 X156.911 Y107.957 E5.86525
G1 X156.996 Y109.021 E5.95046
G1 X157.013 Y109.706 E6.00515
G1 X157.013 Y125.336 E7.25281
G1 X156.967 Y126.477 E7.34396
G1 X156.84 Y127.569 E7.43172
G1 X156.648 Y128.581 E7.51394
G1 X156.417 Y129.466 E7.58695
G1 X156.365 Y129.638 E7.60129
G1 X156.079 Y130.48 E7.67228
G1 X155.674 Y131.449 E7.75611
G1 X155.593 Y131.624 E7.7715
G1 X155.111 Y132.549 E7.85477
G1 X154.637 Y133.328 E7.92756
G1 X154.537 Y133.479 E7.94201
G1 X153.913 Y134.341 E8.02696
G1 X153.236 Y135.145 E8.11086
G1 X152.611 Y135.794 E8.18278
G1 X151.819 Y136.513 E8.26817
G1 X150.987 Y137.163 E8.35245
G1 X150.09 Y137.766 E8.43872
G1 X149.17 Y138.288 E8.52316
G1 X149.019 Y138.366 E8.53673
G1 X148.205 Y138.749 E8.60854
G1 X147.203 Y139.138 E8.69434
G1 X147.053 Y139.19 E8.70701
G1 X146.03 Y139.492 E8.79215
G1 X145.135 Y139.692 E8.86536
G1 X144.1 Y139.849 E8.94892
G1 X143.042 Y139.933 E9.03364
G1 X142.353 Y139.95 E9.08866
G1 X129.715 Y139.95 E10.09748
G1 X129.047 Y139.992 E10.15091
G1 X128.376 Y140.121 E10.20545
G1 X127.797 Y140.311 E10.25409
G1 X127.791 Y140.295 E10.25546
G1 X126.505 Y140.899 E10.36887
G1 X125.503 Y141.288 E10.45467
G1 X125.353 Y141.34 E10.46734
G1 X124.33 Y141.642 E10.55249
G1 X123.435 Y141.842 E10.62569
G1 X122.4 Y141.999 E10.70925
G1 X121.342 Y142.083 E10.79397
G1 X120.653 Y142.1 E10.84899
G1 X100.71 Y142.099 E12.44093
G1 X99.586 Y142.054 E12.53072
G1 X98.494 Y141.927 E12.61848
G1 X97.482 Y141.735 E12.7007
G1 X96.588 Y141.501 E12.77447
G1 X96.425 Y141.452 E12.78805
G1 X95.583 Y141.166 E12.85904
G1 X94.614 Y140.761 E12.94287
G1 X94.425 Y140.673 E12.95951
G1 X93.514 Y140.198 E13.04152
G1 X92.735 Y139.724 E13.11431
G1 X92.584 Y139.624 E13.12877
G1 X91.722 Y139 E13.21372
G1 X90.918 Y138.323 E13.29762
G1 X90.269 Y137.698 E13.36954
G1 X89.546 Y136.902 E13.45538
G1 X88.891 Y136.062 E13.5404
G1 X88.294 Y135.172 E13.62595
G1 X87.769 Y134.246 E13.71092
G1 X87.697 Y134.107 E13.72342
G1 X87.314 Y133.291 E13.79537
G1 X86.925 Y132.29 E13.8811
G1 X86.868 Y132.125 E13.89503
G1 X86.571 Y131.117 E13.97892
G1 X86.348 Y130.092 E14.06265
G1 X86.213 Y129.178 E14.1364
G1 X86.13 Y128.126 E14.22064
G1 X86.113 Y127.444 E14.27509
G1 X86.113 Y118.012 E15.028
G1 X86.126 Y117.636 E15.05803
G1 X86.113 Y116.923 E15.11495
G1 X86.113 Y107.514 E15.86602
G1 X86.159 Y106.373 E15.95717
G1 X86.286 Y105.281 E16.04493
G1 X86.478 Y104.269 E16.12715
G1 X86.709 Y103.384 E16.20016
G1 X86.761 Y103.212 E16.21451
G1 X87.047 Y102.37 E16.28549
G1 X87.452 Y101.401 E16.36933
G1 X87.533 Y101.226 E16.38472
G1 X88.015 Y100.301 E16.46798
G1 X88.489 Y99.522 E16.54077
G1 X88.589 Y99.371 E16.55523
G1 X89.213 Y98.509 E16.64017
G1 X89.89 Y97.705 E16.72407
G1 X90.515 Y97.056 E16.79599
G1 X91.311 Y96.333 E16.88183
G0 F9000 X91.2 Y96.433
G1 F1125 X91.2 Y138.56 E20.24459
G0 F9000 X92.8 Y139.763
G1 F1125 X92.8 Y95.242 E23.79845
G0 F9000 X94.4 Y94.345
G1 F1125 X94.4 Y140.659 E27.49543
G0 F9000 X96 Y141.305
G1 F1125 X96 Y93.687 E31.29651
G0 F9000 X97.6 Y93.245
G1 F1125 X97.6 Y141.757 E35.16895
G0 F9000 X99.2 Y142.009
G1 F1125 X99.2 Y92.987 E39.08209
G0 F9000 X100.8 Y92.901
G1 F1125 X100.8 Y142.099 E43.00929
G0 F9000 X102.4 Y142.099
G1 F1125 X102.4 Y92.901 E46.93649
G0 F9000 X104 Y92.901
G1 F1125 X104 Y142.099 E50.86369
G0 F9000 X105.6 Y142.099
G1 F1125 X105.6 Y92.901 E54.79088
G0 F9000 X107.2 Y92.901
G1 F1125 X107.2 Y142.099 E58.71808
G0 F9000 X108.8 Y142.099
G1 F1125 X108.8 Y92.901 E62.64528
G0 F9000 X110.4 Y92.901
G1 F1125 X110.4 Y142.099 E66.57247
G0 F9000 X112 Y142.099
G1 F1125 X112 Y92.901 E70.49967
G0 F9000 X113.6 Y92.901
G1 F1125 X113.6 Y142.099 E74.42687
G0 F9000 X115.2 Y142.099
G1 F1125 X115.2 Y92.901 E78.35407
G0 F9000 X116.8 Y92.901
G1 F1125 X116.8 Y142.099 E82.28126
G0 F9000 X118.4 Y142.099
G1 F1125 X118.4 Y92.901 E86.20846
G0 F9000 X120 Y92.901
G1 F1125 X120 Y142.099 E90.13566
G0 F9000 X121.6 Y142.063
G1 F1125 X121.6 Y92.937 E94.05711
G0 F9000 X123.2 Y93.124
G1 F1125 X123.2 Y141.878 E97.94886
G0 F9000 X124.8 Y141.504
G1 F1125 X124.8 Y93.49 E101.78155
G0 F9000 X126.4 Y94.067
G1 F1125 X126.4 Y140.94 E105.52315
G0 F9000 X128 Y140.245
G1 F1125 X128 Y94.765 E109.15356
G0 F9000 X129.6 Y95.045
G1 F1125 X129.6 Y139.958 E112.73871
G0 F9000 X131.2 Y139.95
G1 F1125 X131.2 Y95.051 E116.32274
G0 F9000 X132.8 Y95.051
G1 F1125 X132.8 Y139.95 E119.90678
G0 F9000 X134.4 Y139.95
G1 F1125 X134.4 Y95.051 E123.49081
G0 F9000 X136 Y95.051
G1 F1125 X136 Y139.95 E127.07484
G0 F9000 X137.6 Y139.95
G1 F1125 X137.6 Y95.051 E130.65887
G0 F9000 X139.2 Y95.051
G1 F1125 X139.2 Y139.95 E134.24291
G0 F9000 X140.8 Y139.95
G1 F1125 X140.8 Y95.051 E137.82694
G0 F9000 X142.4 Y95.051
G1 F1125 X142.4 Y139.949 E141.41089
G0 F9000 X144 Y139.857
G1 F1125 X144 Y95.15 E144.9796
G0 F9000 X145.6 Y95.407
G1 F1125 X145.6 Y139.589 E148.5064
G0 F9000 X147.2 Y139.134
G1 F1125 X147.2 Y95.87 E151.95992
G0 F9000 X148.8 Y96.529
G1 F1125 X148.8 Y138.47 E155.30783
G0 F9000 X150.4 Y137.558
G1 F1125 X150.4 Y97.432 E158.51086
G0 F9000 X152 Y98.652
G1 F1125 X152 Y136.349 E161.52
G0 F9000 X153.6 Y134.713
G1 F1125 X153.6 Y100.274 E164.26907
G0 F9000 X155.2 Y102.627
G1 F1125 X155.2 Y132.379 E166.644
G1 F2700 E161.644
G0 F9000 X156.545 Y132.099
G0 X157.082 Y130.835
G0 X157.183 Y130.531
G0 X157.719 Y128.666
G0 X156.8 Y127.78
G1 F2700 E166.644
G1 F1125 X156.8 Y107.228 E168.28455
G1 F2700 E163.28455
G0 F9000 X157.83 Y106.892
G0 X157.534 Y105.577
G0 X156.863 Y103.611
G0 X156.291 Y102.393
G0 X155.212 Y100.627
G0 X154.381 Y99.547
G0 X152.927 Y98.042
G0 X151.894 Y97.184
G0 X150.156 Y96.037
G0 X148.951 Y95.419
G0 X147.033 Y94.686
G0 X145.729 Y94.344
G0 X143.644 Y94.037
G0 X121.77 Y91.874
G0 X100.023 Y91.854
G0 X97.955 Y92.083
G0 X96.64 Y92.379
G0 X94.674 Y93.05
G0 X93.456 Y93.622
G0 X91.69 Y94.701
G0 X90.61 Y95.532
G0 X90.184 Y95.943
G0 X88.988 Y97.117
G0 X89.6 Y98.049
G1 F2700 E168.28455
G1 F1125 X89.6 Y136.961 E171.39067
G0 F9000 X88 Y134.653
G1 F1125 X88 Y100.329 E174.13056
G1 F2700 E169.13056
G0 F9000 X87.008 Y99.92
G0 X86.126 Y101.8
G0 X86.002 Y102.165
G0 X85.445 Y104.012
G0 X86.4 Y104.68
G1 F2700 E174.13056
G1 F1125 X86.4 Y130.331 E176.17814
G0 F300 X86.4 Y130.331 Z0.54
G0 F9000 X86.897 Y130.738
;TIME_ELAPSED:129.975006
;LAYER:-5
M140 S50
;TYPE:SUPPORT
G1 F1125 X97.478 Y141.319 E177.67123
G1 X97.568 Y141.343 E177.68052
G1 X98.56 Y141.53 E177.78125
G1 X99.175 Y141.602 E177.84303
G1 X86.602 Y129.029 E179.61722
G1 X86.529 Y128.094 E179.7108
G1 X86.514 Y127.526 E179.76749
G1 X100.684 Y141.696 E181.76703
G1 X100.725 Y141.698 E181.77113
G1 X102.1 Y141.698 E181.90833
G1 X86.512 Y126.11 E184.10796
G1 X86.512 Y124.696 E184.24905
G1 X103.514 Y141.698 E186.64822
G1 X104.928 Y141.698 E186.78931
G1 X86.512 Y123.281 E189.38807
G1 X86.512 Y121.867 E189.52916
G1 X106.343 Y141.698 E192.32753
G1 X107.757 Y141.698 E192.46862
G1 X86.512 Y120.453 E195.46652
G1 X86.512 Y119.039 E195.60761
G1 X109.171 Y141.698 E198.80504
G1 X110.585 Y141.698 E198.94613
G1 X86.525 Y117.638 E202.34125
G1 X86.512 Y116.922 E202.41271
G1 X86.512 Y116.21 E202.48375
G1 X112 Y141.698 E206.08039
G1 X113.414 Y141.698 E206.22147
G1 X86.512 Y114.796 E210.01764
G1 X86.512 Y113.382 E210.15873
G1 X114.828 Y141.698 E214.15442
G1 X116.242 Y141.698 E214.29551
G1 X86.512 Y111.968 E218.49073
G1 X86.512 Y110.554 E218.63182
G1 X117.656 Y141.698 E223.02658
G1 X119.071 Y141.698 E223.16777
G1 X86.512 Y109.139 E227.76219
G1 X86.512 Y107.725 E227.90328
G1 X120.485 Y141.698 E232.69724
G1 X120.643 Y141.699 E232.71301
G1 X121.317 Y141.682 E232.78028
G1 X121.841 Y141.64 E232.83273
G1 X86.561 Y106.36 E237.81112
G1 X86.681 Y105.346 E237.91301
G1 X86.725 Y105.11 E237.93696
G1 X123.102 Y141.487 E243.07015
G1 X123.36 Y141.448 E243.09618
G1 X124.22 Y141.255 E243.18413
G1 X124.269 Y141.24 E243.18924
G1 X86.974 Y103.945 E248.45197
G1 X87.091 Y103.499 E248.49798
G1 X87.304 Y102.86 E248.56519
G1 X125.357 Y140.913 E253.93487
G0 F9000 X125.362 Y140.912
G1 F1125 X125.357 Y140.913 E253.93538
G0 F9000 X125.362 Y140.912
G1 F1125 X126.35 Y140.529 E254.04111
G1 X126.375 Y140.517 E254.04388
G1 X87.699 Y101.841 E259.50148
G1 X87.814 Y101.568 E259.53104
G1 X87.887 Y101.41 E259.54841
G1 X88.159 Y100.887 E259.60723
G1 X127.337 Y140.065 E265.13567
G1 X128.013 Y139.748 E265.21017
G1 X128.035 Y139.81 E265.21673
G1 X128.274 Y139.732 E265.24182
G1 X128.395 Y139.708 E265.25413
G1 X88.676 Y99.989 E270.85891
G1 X88.913 Y99.605 E270.90393
G1 X89.246 Y99.145 E270.96059
G1 X129.652 Y139.551 E276.66232
G1 X129.701 Y139.548 E276.66722
G1 X131.063 Y139.548 E276.80312
G1 X89.866 Y98.352 E282.61639
G1 X90.195 Y97.962 E282.6673
G1 X90.536 Y97.607 E282.71642
G1 X132.477 Y139.548 E288.63474
G1 X133.892 Y139.548 E288.77593
G1 X91.261 Y96.918 E294.79156
G1 X91.572 Y96.635 E294.83351
G1 X92.033 Y96.276 E294.89182
G1 X135.306 Y139.548 E300.99803
G1 X136.721 Y139.549 E301.13922
G1 X92.857 Y95.686 E307.32884
G1 X93.248 Y95.422 E307.37591
G1 X93.734 Y95.148 E307.43158
G1 X138.135 Y139.549 E313.69704
G1 X139.549 Y139.549 E313.83813
G1 X94.663 Y94.663 E320.17203
G1 X95.074 Y94.47 E320.21734
G1 X95.66 Y94.246 E320.27993
G1 X140.963 Y139.549 E326.67268
G1 X142.342 Y139.55 E326.81027
G1 X142.377 Y139.548 E326.81377
G1 X96.716 Y93.888 E333.25696
G1 X97.205 Y93.743 E333.30785
G1 X97.843 Y93.6 E333.37309
G1 X143.719 Y139.476 E339.84669
G1 X144.064 Y139.449 E339.88122
G1 X144.968 Y139.312 E339.97245
G1 X99.057 Y93.401 E346.45099
G0 F9000 X99.06 Y93.4
G1 F1125 X100.107 Y93.317 E346.55579
G1 X100.381 Y93.31 E346.58314
G1 X146.117 Y139.046 E353.03698
G1 X147.061 Y138.764 E353.13529
G1 X147.196 Y138.711 E353.14976
G1 X101.785 Y93.3 E359.55774
G1 X103.2 Y93.3 E359.69893
G1 X148.205 Y138.305 E366.04962
G1 X148.978 Y137.937 E366.13505
G1 X149.152 Y137.838 E366.15502
G1 X104.614 Y93.3 E372.43981
G1 X106.028 Y93.3 E372.5809
G1 X150.043 Y137.315 E378.7919
G1 X150.754 Y136.837 E378.87738
G1 X150.88 Y136.738 E378.89337
G1 X107.442 Y93.3 E385.02294
G1 X108.856 Y93.3 E385.16403
G1 X151.666 Y136.11 E391.20498
G1 X152.334 Y135.502 E391.29511
G1 X152.403 Y135.432 E391.30492
G1 X110.271 Y93.3 E397.2502
G1 X111.685 Y93.3 E397.39129
G1 X153.086 Y134.701 E403.23342
G1 X153.596 Y134.094 E403.31252
G1 X153.721 Y133.922 E403.33374
G1 X113.099 Y93.3 E409.06594
G1 X114.513 Y93.3 E409.20703
G1 X154.305 Y133.092 E414.82211
G1 X154.76 Y132.352 E414.90879
G1 X154.836 Y132.209 E414.92495
G1 X115.928 Y93.3 E420.41536
G1 X117.342 Y93.3 E420.55645
G1 X155.314 Y131.272 E425.91471
G1 X155.701 Y130.344 E426.01504
G1 X155.726 Y130.27 E426.02283
G1 X118.756 Y93.3 E431.2397
G1 X120.17 Y93.3 E431.38078
G1 X156.071 Y129.201 E436.4468
G1 X156.256 Y128.495 E436.51963
G1 X156.339 Y128.055 E436.5643
G1 X121.622 Y93.338 E441.46325
G1 X121.816 Y93.345 E441.48262
G1 X122.865 Y93.468 E441.58801
G1 X123.237 Y93.538 E441.62577
G1 X156.523 Y126.825 E446.32286
G1 X156.566 Y126.454 E446.36013
G1 X156.605 Y125.493 E446.45609
G1 X125.126 Y94.014 E450.89812
G1 X125.707 Y94.211 E450.95934
G1 X126.639 Y94.601 E451.06014
G1 X127.084 Y94.82 E451.10963
G1 X127.552 Y95.025 E451.16061
G1 X156.612 Y124.085 E455.26129
G1 X156.612 Y122.671 E455.40238
G1 X129.375 Y95.434 E459.24582
G1 X129.692 Y95.45 E459.27749
G1 X130.806 Y95.45 E459.38864
G1 X156.612 Y121.256 E463.03015
G1 X156.612 Y119.842 E463.17124
G1 X132.22 Y95.45 E466.61321
G1 X133.634 Y95.45 E466.7543
G1 X156.612 Y118.428 E469.99675
G1 X156.612 Y117.014 E470.13784
G1 X135.048 Y95.45 E473.18075
G1 X136.463 Y95.451 E473.32194
G1 X156.612 Y115.599 E476.16511
G1 X156.612 Y114.185 E476.3062
G1 X137.878 Y95.451 E478.94977
G1 X139.292 Y95.451 E479.09086
G1 X156.612 Y112.771 E481.5349
G1 X156.612 Y111.357 E481.67599
G1 X140.706 Y95.451 E483.9205
G1 X142.12 Y95.451 E484.06158
G1 X156.612 Y109.943 E486.10656
G1 X156.612 Y109.705 E486.13031
G1 X156.595 Y109.052 E486.19549
G1 X156.549 Y108.465 E486.25424
G1 X143.587 Y95.504 E488.08325
G1 X144.565 Y95.617 E488.18148
G1 X145.244 Y95.747 E488.25046
G1 X156.322 Y106.824 E489.81362
G1 X156.17 Y106.145 E489.88305
G1 X155.868 Y105.123 E489.98938
G1 X155.765 Y104.853 E490.01821
G1 X147.204 Y96.292 E491.22626
G1 X147.407 Y96.36 E491.24763
G1 X148.342 Y96.752 E491.34879
G1 X148.524 Y96.836 E491.36879
G1 X149.415 Y97.301 E491.46907
G1 X149.967 Y97.641 E491.53376
G1 X154.445 Y102.119 E492.16566
G0 F9000 X153.899 Y101.307
G1 F1125 X153.276 Y100.508 E492.26675
G1 X152.565 Y99.727 E492.37213
G1 X151.949 Y99.132 E492.45759
G1 X151.156 Y98.466 E492.56092
G1 X150.306 Y97.85 E492.66566
G1 X149.967 Y97.641 E492.7054
G1 F2700 E487.7054
G0 F9000 X150.729 Y96.385
G0 X148.951 Y95.419
G0 X147.033 Y94.686
G0 X145.729 Y94.344
G0 X143.644 Y94.037
G0 X121.77 Y91.874
G0 X100.023 Y91.854
G0 X97.955 Y92.083
G0 X96.64 Y92.379
G0 X94.674 Y93.05
G0 X93.456 Y93.622
G0 X91.69 Y94.701
G0 X90.61 Y95.532
G0 X89.105 Y96.986
G0 X88.247 Y98.019
G0 X87.1 Y99.757
G0 X86.482 Y100.962
G0 X85.749 Y102.88
G0 X85.407 Y104.184
G0 X85.1 Y106.269
G0 X85.049 Y107.489
G0 X85.067 Y128.187
G0 X85.252 Y129.863
G0 X85.468 Y131.058
G0 X86.897 Y130.738
G1 F2700 E492.7054
G1 F1125 X86.957 Y131.014 E492.73358
G1 X87.251 Y132.006 E492.83682
G1 X87.56 Y132.815 E492.92323
G1 X95.4 Y140.655 E494.02954
G1 X94.783 Y140.397 E494.09627
G1 X94.6 Y140.311 E494.11645
G1 X93.71 Y139.848 E494.21655
G1 X92.818 Y139.299 E494.32106
G1 X92.133 Y138.802 E494.4055
G1 X89.417 Y136.086 E494.78876
G0 F9000 X89.849 Y136.64
G1 F1125 X90.559 Y137.422 E494.89415
G1 X91.175 Y138.015 E494.97947
G1 X91.969 Y138.683 E495.083
G1 X92.133 Y138.802 E495.10322
G0 F300 X92.133 Y138.802 Z0.74
G0 F9000 X91.851 Y138.848
;TIME_ELAPSED:304.069424
;LAYER:-4
;TYPE:SUPPORT-INTERFACE
G1 F1500 X92.337 Y139.2 E495.12318
G1 X146.31 Y139.2 E496.91833
G1 X145.979 Y139.298 E496.92981
G1 X145.105 Y139.493 E496.9596
G1 X144.406 Y139.6 E496.98311
