;FLAVOR:Marlin
;TIME:2366
;Filament used: 1.84099m
;Layer height: 0.2
;MINX:89.728
;MINY:89.716
;MINZ:0.24
;MAXX:145.252
;MAXY:145.286
;MAXZ:13.09
;Generated with Cura_SteamEngine 99.10.0-Arachne_engine_beta_2
M140 S60
M105
M190 S60
M104 S205
M105
M109 S205
M82 ;absolute extrusion mode
; Ender 3 Custom Start G-code
G92 E0 ; Reset Extruder
G28 ; Home all axes
;G29 ; Auto bed leveling (ABL)
G1 Z2.0 F3000 ; Move Z Axis up little to prevent scratching of Heat Bed
G1 X0.1 Y20 Z0.3 F5000.0 ; Move to start position
G1 X0.1 Y200.0 Z0.3 F1500.0 E15 ; Draw the first line
G1 X0.4 Y200.0 Z0.3 F5000.0 ; Move to side a little
G1 X0.4 Y20 Z0.3 F1500.0 E30 ; Draw the second line
G92 E0 ; Reset Extruder
G1 Z2.0 F3000 ; Move Z Axis up little to prevent scratching of Heat Bed
G1 X5 Y20 Z0.3 F5000.0 ; Move over to prevent blob squish
G92 E0
G92 E0
G1 F2700 E-5
;LAYER_COUNT:60
;LAYER:-6
M107
G0 F9000 X100.538 Y96.856 Z0.24
;TYPE:SUPPORT-INTERFACE
G1 F2700 E0
G1 F1125 X101.165 Y96.356 E0.06402
G1 X101.643 Y95.995 E0.11183
G1 X102.258 Y95.555 E0.17219
G1 X102.78 Y95.201 E0.22254
G1 X103.37 Y94.821 E0.27856
G1 X103.81 Y94.552 E0.31973
G1 X104.617 Y94.092 E0.39387
G1 X105.342 Y93.707 E0.4594
G1 X106.195 Y93.288 E0.53526
G1 X106.834 Y93.001 E0.59118
G1 X107.575 Y92.691 E0.6553
G1 X108.213 Y92.446 E0.70985
G1 X109.074 Y92.145 E0.78266
G1 X109.842 Y91.903 E0.84693
G1 X110.681 Y91.665 E0.91655
G1 X111.259 Y91.519 E0.96414
G1 X111.923 Y91.369 E1.01847
G1 X112.49 Y91.254 E1.06466
G1 X113.208 Y91.126 E1.12287
G1 X113.85 Y91.031 E1.17468
G1 X114.622 Y90.936 E1.23677
G1 X115.279 Y90.872 E1.28946
G1 X116.089 Y90.817 E1.35427
G1 X116.694 Y90.793 E1.4026
G1 X117.353 Y90.78 E1.45521
G1 X117.866 Y90.782 E1.49616
G1 X118.865 Y90.813 E1.57595
G1 X119.568 Y90.861 E1.63219
G1 X120.371 Y90.936 E1.69657
G1 X121.189 Y91.037 E1.76236
G1 X121.718 Y91.115 E1.80505
G1 X122.437 Y91.239 E1.86329
G1 X123.126 Y91.379 E1.91941
G1 X123.735 Y91.518 E1.96928
G1 X124.328 Y91.668 E2.0181
G1 X125.039 Y91.867 E2.07704
G1 X125.74 Y92.084 E2.13561
G1 X126.564 Y92.365 E2.20511
G1 X127.108 Y92.566 E2.2514
G1 X127.807 Y92.848 E2.31157
G1 X128.343 Y93.078 E2.35813
G1 X129.034 Y93.395 E2.41881
G1 X129.942 Y93.851 E2.49992
G1 X130.406 Y94.101 E2.54199
G1 X131.024 Y94.454 E2.59881
G1 X131.482 Y94.73 E2.64149
G1 X132.123 Y95.137 E2.7021
G1 X132.599 Y95.455 E2.7478
G1 X133.204 Y95.881 E2.80686
G1 X133.713 Y96.262 E2.85761
G1 X134.301 Y96.725 E2.91735
G1 X134.766 Y97.109 E2.96549
G1 X135.254 Y97.53 E3.01694
G1 X135.998 Y98.217 E3.09778
G1 X136.769 Y98.988 E3.18481
G1 X137.231 Y99.481 E3.23875
G1 X137.824 Y100.154 E3.31035
G1 X138.324 Y100.758 E3.37294
G1 X138.828 Y101.403 E3.43828
G1 X139.157 Y101.848 E3.48245
G1 X139.576 Y102.444 E3.54061
G1 X139.933 Y102.984 E3.59228
G1 X140.247 Y103.481 E3.63921
G1 X140.582 Y104.038 E3.6911
G1 X140.957 Y104.705 E3.75218
G1 X141.264 Y105.286 E3.80463
G1 X141.573 Y105.904 E3.85978
G1 X141.824 Y106.439 E3.90696
G1 X142.184 Y107.268 E3.9791
G1 X142.442 Y107.914 E4.03463
G1 X142.712 Y108.649 E4.09713
G1 X142.918 Y109.26 E4.1486
G1 X143.15 Y110.016 E4.21173
G1 X143.314 Y110.603 E4.26038
G1 X143.471 Y111.219 E4.31112
G1 X143.616 Y111.849 E4.36273
G1 X143.766 Y112.592 E4.42323
G1 X143.87 Y113.189 E4.47161
G1 X143.976 Y113.897 E4.52875
G1 X144.048 Y114.471 E4.57493
G1 X144.125 Y115.221 E4.63511
G1 X144.165 Y115.765 E4.67865
G1 X144.195 Y116.34 E4.72462
G1 X144.212 Y116.831 E4.76383
G1 X144.22 Y117.466 E4.81453
G1 X144.201 Y118.547 E4.90083
G1 X144.151 Y119.424 E4.97095
G1 X144.103 Y120.003 E5.01733
G1 X143.992 Y120.981 E5.09589
G1 X143.841 Y121.986 E5.17702
G1 X143.727 Y122.614 E5.22797
G1 X143.563 Y123.391 E5.29136
G1 X143.389 Y124.109 E5.35033
G1 X143.214 Y124.762 E5.40429
G1 X143.031 Y125.381 E5.45582
G1 X142.808 Y126.073 E5.51386
G1 X142.661 Y126.496 E5.5496
G1 X142.297 Y127.453 E5.63133
G1 X142.005 Y128.156 E5.6921
G1 X141.821 Y128.571 E5.72834
G1 X141.506 Y129.234 E5.78693
G1 X141.145 Y129.942 E5.85037
G1 X140.748 Y130.673 E5.91677
G1 X140.451 Y131.183 E5.96388
G1 X140.11 Y131.74 E6.01601
G1 X139.762 Y132.277 E6.06709
G1 X139.37 Y132.852 E6.12264
G1 X139.023 Y133.334 E6.17005
G1 X138.562 Y133.943 E6.23102
G1 X138.102 Y134.515 E6.28961
G1 X137.619 Y135.085 E6.34925
G1 X137.174 Y135.58 E6.40238
G1 X136.671 Y136.113 E6.46089
G1 X136.28 Y136.506 E6.50514
G1 X135.759 Y137.008 E6.56289
G1 X135.406 Y137.335 E6.6013
G1 X134.817 Y137.851 E6.66381
G1 X134.381 Y138.213 E6.70904
G1 X133.845 Y138.638 E6.76365
G1 X133.392 Y138.98 E6.80896
G1 X132.749 Y139.443 E6.8722
G1 X132.271 Y139.767 E6.9183
G1 X131.671 Y140.154 E6.97529
G1 X131.178 Y140.455 E7.0214
G1 X130.497 Y140.846 E7.08408
G1 X129.85 Y141.193 E7.14269
G1 X129.142 Y141.55 E7.20598
G1 X128.582 Y141.813 E7.25537
G1 X127.915 Y142.106 E7.31352
G1 X127.304 Y142.357 E7.36625
G1 X126.574 Y142.634 E7.42858
G1 X125.661 Y142.943 E7.50552
G1 X125.05 Y143.13 E7.55652
G1 X124.298 Y143.34 E7.61885
G1 X123.74 Y143.481 E7.66479
G1 X123.122 Y143.622 E7.71539
G1 X122.54 Y143.741 E7.76281
G1 X121.792 Y143.874 E7.82345
G1 X121.168 Y143.968 E7.87382
G1 X120.336 Y144.069 E7.94073
G1 X119.659 Y144.132 E7.995
G1 X118.899 Y144.183 E8.0558
G1 X118.313 Y144.208 E8.10262
G1 X117.623 Y144.221 E8.15771
G1 X116.57 Y144.206 E8.24178
G1 X116.185 Y144.19 E8.27253
G1 X115.436 Y144.14 E8.33246
G1 X114.624 Y144.063 E8.39756
G1 X113.852 Y143.969 E8.45964
G1 X113.283 Y143.885 E8.50556
G1 X112.573 Y143.763 E8.56306
G1 X112.003 Y143.649 E8.60946
G1 X111.241 Y143.478 E8.6718
G1 X110.699 Y143.34 E8.71645
G1 X109.973 Y143.137 E8.77662
G1 X109.359 Y142.95 E8.82786
G1 X108.593 Y142.693 E8.89235
G1 X108.031 Y142.487 E8.94013
G1 X107.41 Y142.242 E8.99342
G1 X106.903 Y142.029 E9.03732
G1 X106.317 Y141.768 E9.08853
G1 X105.923 Y141.583 E9.12327
G1 X105.252 Y141.247 E9.18317
G1 X104.657 Y140.931 E9.23695
G1 X103.949 Y140.529 E9.30194
G1 X103.44 Y140.221 E9.34943
G1 X102.865 Y139.855 E9.40384
G1 X102.396 Y139.542 E9.44885
G1 X101.787 Y139.11 E9.50845
G1 X101.327 Y138.769 E9.55416
G1 X100.714 Y138.288 E9.61636
G1 X100.188 Y137.851 E9.67094
G1 X99.668 Y137.4 E9.72589
G1 X99.255 Y137.022 E9.77058
G1 X98.67 Y136.459 E9.83539
G1 X98.3 Y136.083 E9.8775
G1 X97.821 Y135.575 E9.93323
G1 X97.209 Y134.886 E10.0068
G1 X96.584 Y134.128 E10.08522
G1 X96.075 Y133.465 E10.15194
G1 X95.826 Y133.128 E10.18539
G1 X95.444 Y132.583 E10.23852
G1 X95.086 Y132.045 E10.2901
G1 X94.717 Y131.46 E10.34531
G1 X94.418 Y130.962 E10.39168
G1 X94.026 Y130.266 E10.45544
G1 X93.726 Y129.694 E10.507
G1 X93.423 Y129.087 E10.56115
G1 X93.157 Y128.519 E10.61122
G1 X92.858 Y127.833 E10.67096
G1 X92.657 Y127.34 E10.71345
G1 X92.392 Y126.642 E10.77305
G1 X92.22 Y126.154 E10.81435
G1 X91.886 Y125.107 E10.90208
G1 X91.626 Y124.172 E10.97955
G1 X91.469 Y123.528 E11.03246
G1 X91.297 Y122.733 E11.09739
G1 X91.2 Y122.224 E11.13875
G1 X91.078 Y121.485 E11.19854
G1 X90.992 Y120.865 E11.2485
G1 X90.915 Y120.186 E11.30305
G1 X90.866 Y119.657 E11.34546
G1 X90.814 Y118.866 E11.40874
G1 X90.791 Y118.298 E11.45411
G1 X90.779 Y117.608 E11.5092
G1 X90.792 Y116.7 E11.58169
G1 X90.813 Y116.147 E11.62586
G1 X90.854 Y115.51 E11.67682
G1 X90.914 Y114.84 E11.73051
G1 X90.999 Y114.085 E11.79116
G1 X91.066 Y113.6 E11.83024
G1 X91.164 Y112.979 E11.88043
G1 X91.27 Y112.399 E11.92749
G1 X91.441 Y111.593 E11.99326
G1 X91.611 Y110.891 E12.05092
G1 X91.786 Y110.238 E12.10489
G1 X91.969 Y109.619 E12.15641
G1 X92.192 Y108.927 E12.21445
G1 X92.339 Y108.504 E12.25019
G1 X92.553 Y107.928 E12.29924
G1 X92.753 Y107.422 E12.34267
G1 X93.027 Y106.772 E12.39898
G1 X93.299 Y106.172 E12.45157
G1 X93.623 Y105.503 E12.5109
G1 X93.923 Y104.927 E12.56275
G1 X94.239 Y104.35 E12.61526
G1 X94.529 Y103.851 E12.66133
G1 X94.89 Y103.26 E12.71661
G1 X95.238 Y102.723 E12.76769
G1 X95.63 Y102.148 E12.82324
G1 X95.977 Y101.666 E12.87065
G1 X96.445 Y101.049 E12.93247
G1 X96.877 Y100.51 E12.98761
G1 X97.403 Y99.89 E13.05251
G1 X97.814 Y99.433 E13.10157
G1 X98.247 Y98.971 E13.15211
G1 X98.606 Y98.606 E13.19298
G1 X99.015 Y98.205 E13.2387
G1 X99.433 Y97.814 E13.28439
G1 X99.965 Y97.339 E13.34132
G1 X100.538 Y96.856 E13.40114
G0 F9000 X100.8 Y96.647
G1 F1125 X100.8 Y138.355 E16.73046
G0 F9000 X102.4 Y139.544
G1 F1125 X102.4 Y95.458 E20.24959
G0 F9000 X104 Y94.443
G1 F1125 X104 Y140.557 E23.93061
G0 F9000 X105.6 Y141.421
G1 F1125 X105.6 Y93.58 E27.74949
G0 F9000 X107.2 Y92.847
G1 F1125 X107.2 Y142.153 E31.6853
G0 F9000 X108.8 Y142.762
G1 F1125 X108.8 Y92.24 E35.71819
G0 F9000 X110.4 Y91.744
G1 F1125 X110.4 Y143.256 E39.8301
G0 F9000 X112 Y143.648
G1 F1125 X112 Y91.353 E44.00451
G0 F9000 X113.6 Y91.067
G1 F1125 X113.6 Y143.931 E48.22435
G0 F9000 X115.2 Y144.117
G1 F1125 X115.2 Y90.879 E52.47403
G0 F9000 X116.8 Y90.79
G1 F1125 X116.8 Y144.209 E56.73817
G0 F9000 X118.4 Y144.205
G1 F1125 X118.4 Y90.799 E61.00127
G0 F9000 X120 Y90.902
G1 F1125 X120 Y144.101 E65.24784
G0 F9000 X121.6 Y143.903
G1 F1125 X121.6 Y91.098 E69.46296
G0 F9000 X123.2 Y91.396
G1 F1125 X123.2 Y143.605 E73.63051
G0 F9000 X124.8 Y143.2
G1 F1125 X124.8 Y91.801 E77.7334
G0 F9000 X126.4 Y92.31
G1 F1125 X126.4 Y142.693 E81.75519
G0 F9000 X128 Y142.069
G1 F1125 X128 Y92.931 E85.6776
G0 F9000 X129.6 Y93.68
G1 F1125 X129.6 Y141.32 E89.48043
G0 F9000 X131.2 Y140.442
G1 F1125 X131.2 Y94.561 E93.14285
G0 F9000 X132.8 Y95.597
G1 F1125 X132.8 Y139.407 E96.63995
G0 F9000 X134.4 Y138.198
G1 F1125 X134.4 Y96.807 E99.94396
G0 F9000 X136 Y98.219
G1 F1125 X136 Y136.776 E103.02175
G0 F9000 X137.6 Y135.107
G1 F1125 X137.6 Y99.9 E105.83212
G0 F9000 X139.2 Y101.91
G1 F1125 X139.2 Y133.089 E108.32097
G0 F9000 X140.8 Y130.578
G1 F1125 X140.8 Y104.426 E110.40853
G0 F9000 X142.4 Y107.809
G1 F1125 X142.4 Y127.183 E111.95505
G1 F2700 E106.95505
G0 F9000 X143.661 Y126.86
G0 X144.451 Y124.251
G0 X144.828 Y122.442
G0 X145.056 Y121.051
G0 X144 Y120.911
G1 F2700 E111.95505
G1 F1125 X144 Y114.089 E112.49961
G1 F2700 E107.49961
G0 F9000 X145.031 Y113.757
G0 X144.506 Y110.972
G0 X143.718 Y108.3
G0 X142.797 Y106.005
G0 X141.428 Y103.376
G0 X139.963 Y101.147
G0 X138.532 Y99.345
G0 X136.737 Y97.452
G0 X134.87 Y95.817
G0 X132.91 Y94.379
G0 X130.869 Y93.14
G0 X128.779 Y92.107
G0 X126.029 Y91.058
G0 X123.931 Y90.471
G0 X121.797 Y90.045
G0 X118.867 Y89.749
G0 X115.978 Y89.757
G0 X113.575 Y89.994
G0 X111.739 Y90.313
G0 X109.43 Y90.915
G0 X107.115 Y91.728
G0 X104.76 Y92.81
G0 X102.694 Y93.99
G0 X100.955 Y95.179
G0 X100.321 Y95.702
G0 X98.654 Y97.084
G0 X99.2 Y98.031
G1 F2700 E112.49961
G1 F1125 X99.2 Y136.969 E115.60781
G0 F9000 X97.6 Y135.326
G1 F1125 X97.6 Y99.67 E118.45403
G0 F9000 X96 Y101.635
G1 F1125 X96 Y133.363 E120.98669
G0 F9000 X94.4 Y130.93
G1 F1125 X94.4 Y104.072 E123.13061
G0 F9000 X92.8 Y107.31
G1 F1125 X92.8 Y127.69 E124.75743
G1 F2700 E119.75743
G0 F9000 X91.662 Y127.72
G0 X90.911 Y125.521
G0 X90.253 Y122.943
G0 X91.2 Y122.224
G1 F2700 E124.75743
G1 F1125 X91.2 Y112.782 E125.51113
G0 F300 X91.2 Y112.782 Z0.54
G0 F9000 X91.6 Y112.813
;TIME_ELAPSED:95.015666
;LAYER:-5
M140 S50
;TYPE:SUPPORT
G1 F1125 X122.183 Y143.397 E129.8268
G1 X122.47 Y143.346 E129.85588
G1 X123.041 Y143.229 E129.91404
G1 X123.357 Y143.156 E129.9464
G1 X91.841 Y111.64 E134.39365
G1 X92 Y110.984 E134.461
G1 X92.126 Y110.51 E134.50994
G1 X124.486 Y142.87 E139.07628
G1 X124.942 Y142.744 E139.12349
G1 X125.533 Y142.563 E139.18516
G1 X125.577 Y142.547 E139.18984
G1 X92.452 Y109.422 E143.86413
G1 X92.57 Y109.057 E143.90241
G1 X92.713 Y108.642 E143.9462
G1 X92.814 Y108.37 E143.97516
G1 X126.627 Y142.184 E148.74661
G1 X127.161 Y141.982 E148.80357
G1 X127.642 Y141.784 E148.85547
G1 X93.214 Y107.356 E153.71364
G1 X93.396 Y106.925 E153.76032
G1 X93.644 Y106.372 E153.82079
G1 X128.622 Y141.35 E158.75657
G1 X128.971 Y141.187 E158.795
G1 X129.57 Y140.884 E158.86198
G1 X94.113 Y105.426 E163.86542
G1 X94.274 Y105.118 E163.9001
G1 X94.584 Y104.55 E163.96466
G1 X94.608 Y104.508 E163.96949
G1 X130.488 Y140.388 E169.03254
G1 X130.978 Y140.107 E169.08891
G1 X131.378 Y139.863 E169.13566
G1 X95.136 Y103.621 E174.2498
G1 X95.225 Y103.477 E174.26669
G1 X95.569 Y102.946 E174.32982
G1 X95.693 Y102.764 E174.35179
G1 X132.235 Y139.306 E179.50826
G1 X132.515 Y139.118 E179.54191
G1 X133.064 Y138.72 E179.60957
G1 X96.276 Y101.933 E184.80069
G1 X96.295 Y101.907 E184.8039
G1 X96.764 Y101.29 E184.88123
G1 X96.889 Y101.132 E184.90133
G1 X133.866 Y138.109 E190.11919
G1 X134.125 Y137.904 E190.15215
G1 X134.561 Y137.542 E190.20869
G1 X134.642 Y137.47 E190.21951
G1 X97.529 Y100.358 E195.45648
G1 X97.708 Y100.148 E195.48401
G1 X98.105 Y99.706 E195.54329
G1 X98.195 Y99.609 E195.5565
G1 X135.389 Y136.803 E200.80497
G1 X135.48 Y136.719 E200.81733
G1 X136.002 Y136.217 E200.88959
G1 X136.109 Y136.109 E200.90476
G1 X98.891 Y98.891 E206.15662
G1 X99.294 Y98.49 E206.21335
G1 X99.61 Y98.195 E206.25649
G1 X136.803 Y135.389 E211.50489
G1 X136.881 Y135.304 E211.5164
G1 X137.313 Y134.826 E211.58069
G1 X137.47 Y134.641 E211.6049
G1 X100.358 Y97.53 E216.84173
G1 X100.795 Y97.162 E216.89874
G1 X101.134 Y96.892 E216.94198
G1 X138.109 Y133.867 E222.15955
G1 X138.249 Y133.692 E222.18191
G1 X138.697 Y133.1 E222.25599
G1 X138.723 Y133.066 E222.26026
G1 X101.935 Y96.278 E227.45145
G1 X102.482 Y95.886 E227.5186
G1 X102.765 Y95.694 E227.55272
G1 X139.305 Y132.234 E232.70891
G1 X139.43 Y132.052 E232.73094
G1 X139.773 Y131.521 E232.79401
G1 X139.862 Y131.377 E232.81091
G1 X103.621 Y95.136 E237.9249
G1 X104.007 Y94.9 E237.97005
G1 X104.512 Y94.613 E238.028
G1 X140.39 Y130.49 E243.09071
G1 X140.395 Y130.481 E243.09173
G1 X140.792 Y129.751 E243.17465
G1 X140.884 Y129.57 E243.19491
G1 X105.428 Y94.114 E248.19813
G1 X105.529 Y94.06 E248.20956
G1 X106.358 Y93.652 E248.30175
G1 X106.374 Y93.646 E248.30346
G1 X141.352 Y128.624 E253.23923
G1 X141.453 Y128.409 E253.26293
G1 X141.638 Y127.994 E253.30827
G1 X141.784 Y127.642 E253.34629
G1 X107.357 Y93.215 E258.20432
G1 X107.728 Y93.06 E258.24444
G1 X108.344 Y92.823 E258.31029
G1 X108.371 Y92.814 E258.31313
G1 X142.182 Y126.626 E263.0843
G1 X142.286 Y126.353 E263.11345
G1 X142.428 Y125.942 E263.15684
G1 X142.547 Y125.576 E263.19524
G1 X109.424 Y92.454 E267.86918
G1 X109.961 Y92.285 E267.92536
G1 X110.513 Y92.128 E267.98262
G1 X142.873 Y124.488 E272.54896
G1 X142.999 Y124.015 E272.59781
G1 X143.158 Y123.359 E272.66516
G1 X111.641 Y91.842 E277.11255
G1 X112.002 Y91.76 E277.14948
G1 X112.559 Y91.647 E277.20619
G1 X112.815 Y91.602 E277.23213
G1 X143.397 Y122.184 E281.54758
G1 X143.446 Y121.915 E281.57486
G1 X143.589 Y120.961 E281.67112
G1 X114.038 Y91.411 E285.84101
G1 X114.67 Y91.332 E285.90456
G1 X115.311 Y91.271 E285.96881
G0 F9000 X115.312 Y91.271
G1 F1125 X143.727 Y119.686 E289.97848
G1 X143.751 Y119.391 E290.00801
G1 X143.8 Y118.54 E290.09306
G1 X143.804 Y118.348 E290.11222
G1 X116.651 Y91.195 E293.94381
G1 X116.709 Y91.192 E293.9496
G1 X117.358 Y91.18 E294.01437
G1 X117.852 Y91.182 E294.06366
G1 X118.059 Y91.189 E294.08433
G1 X143.812 Y116.942 E297.71835
G1 X143.81 Y116.835 E297.72903
G1 X143.765 Y115.793 E297.8331
G1 X143.74 Y115.456 E297.86682
G1 X119.544 Y91.26 E301.28114
G1 X120.321 Y91.332 E301.359
G1 X121.13 Y91.433 E301.44035
G0 F9000 X121.132 Y91.433
G1 F1125 X143.566 Y113.868 E304.6061
G1 X143.473 Y113.247 E304.66875
G1 X143.37 Y112.661 E304.72812
G1 X143.269 Y112.157 E304.77941
G1 X122.842 Y91.73 E307.66188
G1 X123.045 Y91.771 E307.68254
G1 X123.636 Y91.905 E307.74301
G1 X124.229 Y92.056 E307.80407
G1 X124.72 Y92.193 E307.85493
G1 X142.807 Y110.281 E310.40727
G1 X142.764 Y110.124 E310.42352
G1 X142.538 Y109.388 E310.50034
G1 X142.332 Y108.777 E310.56468
G1 X142.109 Y108.168 E310.62939
G1 X126.832 Y92.891 E312.78514
G1 X126.957 Y92.937 E312.79843
G1 X127.648 Y93.216 E312.87278
G1 X128.175 Y93.442 E312.93
G1 X128.866 Y93.758 E313.00582
G1 X129.364 Y94.009 E313.06146
G1 X140.99 Y105.635 E314.70201
G1 X140.905 Y105.464 E314.72107
G1 X140.602 Y104.892 E314.78566
G1 X140.232 Y104.233 E314.86107
G1 X139.903 Y103.686 E314.92476
G1 X139.598 Y103.205 E314.98159
G1 X139.241 Y102.665 E315.04618
G1 X138.834 Y102.085 E315.11688
G1 X138.773 Y102.004 E315.127
G1 X132.991 Y96.222 E315.9429
G1 X133.472 Y96.582 E316.00285
G1 X134.045 Y97.032 E316.07555
