;FLAVOR:Marlin
;TIME:4988
;Filament used: 3.17544m
;Layer height: 0.2
;MINX:86.835
;MINY:86.868
;MINZ:0.24
;MAXX:148.131
;MAXY:148.165
;MAXZ:17.09
;Generated with Cura_SteamEngine 99.10.0-Arachne_engine_beta_2
M140 S60
M105
M190 S60
M104 S205
M105
M109 S205
M82 ;absolute extrusion mode
; Ender 3 Custom Start G-code
G92 E0 ; Reset Extruder
G28 ; Home all axes
;G29 ; Auto bed leveling (ABL)
G1 Z2.0 F3000 ; Move Z Axis up little to prevent scratching of Heat Bed
G1 X0.1 Y20 Z0.3 F5000.0 ; Move to start position
G1 X0.1 Y200.0 Z0.3 F1500.0 E15 ; Draw the first line
G1 X0.4 Y200.0 Z0.3 F5000.0 ; Move to side a little
G1 X0.4 Y20 Z0.3 F1500.0 E30 ; Draw the second line
G92 E0 ; Reset Extruder
G1 Z2.0 F3000 ; Move Z Axis up little to prevent scratching of Heat Bed
G1 X5 Y20 Z0.3 F5000.0 ; Move over to prevent blob squish
G92 E0
G92 E0
G1 F2700 E-5
;LAYER_COUNT:80
;LAYER:-6
M107
G0 F9000 X101.678 Y91.512 Z0.24
;TYPE:SUPPORT-INTERFACE
G1 F2700 E0
G1 F1125 X102.508 Y90.839 E0.0853
G1 X102.647 Y90.735 E0.09915
G1 X103.362 Y90.243 E0.16844
G1 X103.546 Y90.126 E0.18584
G1 X104.444 Y89.606 E0.26867
G1 X105.389 Y89.147 E0.35254
G1 X106.239 Y88.804 E0.4257
G1 X107.25 Y88.473 E0.51062
G1 X108.286 Y88.215 E0.59584
G1 X108.448 Y88.182 E0.60904
G1 X109.341 Y88.034 E0.6813
G1 X109.518 Y88.011 E0.69554
G1 X110.412 Y87.928 E0.76721
G1 X111.295 Y87.9 E0.83773
G1 X123.716 Y87.901 E1.82923
G1 X124.84 Y87.946 E1.91903
G1 X125.932 Y88.073 E2.00678
G1 X126.944 Y88.265 E2.08901
G1 X127.838 Y88.499 E2.16277
G1 X128.001 Y88.548 E2.17636
G1 X128.843 Y88.834 E2.24734
G1 X129.812 Y89.239 E2.33118
G1 X130.001 Y89.327 E2.34782
G1 X130.912 Y89.802 E2.42983
G1 X131.691 Y90.276 E2.50262
G1 X131.842 Y90.376 E2.51708
G1 X132.704 Y91 E2.60202
G1 X133.504 Y91.673 E2.68547
G1 X134.016 Y92.155 E2.7416
G1 X142.806 Y100.945 E3.7339
G1 X143.488 Y101.678 E3.81382
G1 X144.161 Y102.508 E3.89911
G1 X144.265 Y102.647 E3.91297
G1 X144.757 Y103.362 E3.98225
G1 X144.874 Y103.546 E3.99966
G1 X145.387 Y104.429 E4.08118
G1 X145.853 Y105.389 E4.16636
G1 X146.195 Y106.234 E4.23912
G1 X146.525 Y107.242 E4.32379
G1 X146.572 Y107.408 E4.33756
G1 X146.817 Y108.44 E4.42223
G1 X146.965 Y109.332 E4.49441
G1 X146.989 Y109.518 E4.50938
G1 X147.079 Y110.554 E4.59239
G1 X147.1 Y111.287 E4.65092
G1 X147.097 Y119.653 E5.31873
G1 X147.088 Y119.903 E5.3387
G1 X147.088 Y120.305 E5.37079
G1 X147.1 Y120.656 E5.39882
G1 X147.1 Y123.699 E5.64173
G1 X147.054 Y124.84 E5.73288
G1 X146.927 Y125.932 E5.82064
G1 X146.735 Y126.944 E5.90286
G1 X146.504 Y127.829 E5.97587
G1 X146.452 Y128.001 E5.99022
G1 X146.166 Y128.843 E6.0612
G1 X145.761 Y129.812 E6.14504
G1 X145.68 Y129.987 E6.16043
G1 X145.198 Y130.912 E6.24369
G1 X144.724 Y131.691 E6.31648
G1 X144.624 Y131.842 E6.33094
G1 X144 Y132.704 E6.41588
G1 X143.327 Y133.504 E6.49933
G1 X142.845 Y134.016 E6.55546
G1 X134.018 Y142.842 E7.55187
G1 X133.333 Y143.478 E7.62649
G1 X133.185 Y143.605 E7.64206
G1 X132.353 Y144.265 E7.72683
G1 X131.638 Y144.757 E7.79611
G1 X131.454 Y144.874 E7.81352
G1 X130.556 Y145.394 E7.89635
G1 X129.611 Y145.853 E7.98021
G1 X128.756 Y146.198 E8.05381
G1 X127.75 Y146.527 E8.1383
G1 X126.714 Y146.785 E8.22352
G1 X126.552 Y146.818 E8.23672
G1 X125.659 Y146.966 E8.30897
G1 X125.482 Y146.989 E8.32322
G1 X124.588 Y147.072 E8.39489
G1 X123.705 Y147.1 E8.46541
G1 X111.284 Y147.099 E9.45691
G1 X110.16 Y147.054 E9.5467
G1 X109.068 Y146.927 E9.63446
G1 X108.056 Y146.735 E9.71668
G1 X107.162 Y146.501 E9.79045
G1 X106.999 Y146.452 E9.80403
G1 X106.157 Y146.166 E9.87502
G1 X105.188 Y145.761 E9.95885
G1 X104.999 Y145.673 E9.97549
G1 X104.088 Y145.198 E10.05751
G1 X103.309 Y144.724 E10.1303
G1 X103.158 Y144.624 E10.14475
G1 X102.296 Y144 E10.2297
G1 X101.496 Y143.327 E10.31315
G1 X100.984 Y142.845 E10.36928
G1 X92.154 Y134.014 E11.36614
G1 X91.51 Y133.32 E11.44172
G1 X90.843 Y132.497 E11.52628
G1 X90.727 Y132.341 E11.5418
G1 X90.243 Y131.638 E11.60993
G1 X90.126 Y131.454 E11.62733
G1 X89.606 Y130.556 E11.71017
G1 X89.147 Y129.611 E11.79403
G1 X88.798 Y128.747 E11.86841
G1 X88.47 Y127.741 E11.95287
G1 X88.212 Y126.703 E12.03825
G1 X88.033 Y125.654 E12.1232
G1 X88.011 Y125.482 E12.13704
G1 X87.921 Y124.446 E12.22005
G1 X87.9 Y123.713 E12.27858
G1 X87.903 Y115.335 E12.94735
G1 X87.912 Y115.087 E12.96716
G1 X87.912 Y114.685 E12.99925
G1 X87.9 Y114.344 E13.02649
G1 X87.9 Y111.301 E13.26939
G1 X87.946 Y110.16 E13.36055
G1 X88.047 Y109.245 E13.43403
G1 X88.073 Y109.07 E13.44815
G1 X88.265 Y108.056 E13.53053
G1 X88.496 Y107.17 E13.60362
G1 X88.834 Y106.157 E13.68887
G1 X89.239 Y105.188 E13.7727
G1 X89.32 Y105.013 E13.78809
G1 X89.802 Y104.088 E13.87135
G1 X90.276 Y103.309 E13.94414
G1 X90.376 Y103.158 E13.9586
G1 X91 Y102.296 E14.04355
G1 X91.673 Y101.496 E14.127
G1 X92.197 Y100.942 E14.18787
G1 X100.99 Y92.151 E15.18038
G1 X101.678 Y91.512 E15.25534
G0 F9000 X102.4 Y90.926
G1 F1125 X102.4 Y144.075 E19.49792
G0 F9000 X104 Y145.144
G1 F1125 X104 Y89.863 E23.91069
G0 F9000 X105.6 Y89.061
G1 F1125 X105.6 Y145.933 E28.45046
G0 F9000 X107.2 Y146.51
G1 F1125 X107.2 Y88.489 E33.08194
G0 F9000 X108.8 Y88.123
G1 F1125 X108.8 Y146.876 E37.77186
G0 F9000 X110.4 Y147.063
G1 F1125 X110.4 Y87.929 E42.4922
G0 F9000 X112 Y87.901
G1 F1125 X112 Y147.099 E47.21764
G0 F9000 X113.6 Y147.099
G1 F1125 X113.6 Y87.901 E51.94308
G0 F9000 X115.2 Y87.901
G1 F1125 X115.2 Y147.099 E56.66852
G0 F9000 X116.8 Y147.099
G1 F1125 X116.8 Y87.901 E61.39396
G0 F9000 X118.4 Y87.901
G1 F1125 X118.4 Y147.099 E66.1194
G0 F9000 X120 Y147.099
G1 F1125 X120 Y87.901 E70.84484
G0 F9000 X121.6 Y87.901
G1 F1125 X121.6 Y147.099 E75.57028
G0 F9000 X123.2 Y147.099
G1 F1125 X123.2 Y87.901 E80.29572
G0 F9000 X124.8 Y87.945
G1 F1125 X124.8 Y147.053 E85.01397
G0 F9000 X126.4 Y146.844
G1 F1125 X126.4 Y88.162 E89.69822
G0 F9000 X128 Y88.553
G1 F1125 X128 Y146.446 E94.31949
G0 F9000 X129.6 Y145.858
G1 F1125 X129.6 Y89.151 E98.84609
G0 F9000 X131.2 Y89.978
G1 F1125 X131.2 Y145.022 E103.23994
G0 F9000 X132.8 Y143.911
G1 F1125 X132.8 Y91.081 E107.45706
G0 F9000 X134.4 Y92.539
G1 F1125 X134.4 Y142.461 E111.44205
G0 F9000 X136 Y140.861
G1 F1125 X136 Y94.139 E115.1716
G0 F9000 X137.6 Y95.739
G1 F1125 X137.6 Y139.261 E118.64572
G0 F9000 X139.2 Y137.661
G1 F1125 X139.2 Y97.339 E121.86439
G0 F9000 X140.8 Y98.939
G1 F1125 X140.8 Y136.061 E124.82763
G0 F9000 X142.4 Y134.461
G1 F1125 X142.4 Y100.539 E127.53543
G0 F9000 X144 Y102.31
G1 F1125 X144 Y132.704 E129.96161
G0 F9000 X145.6 Y130.141
G1 F1125 X145.6 Y104.868 E131.97901
G1 F2700 E126.97901
G0 F9000 X146.336 Y103.948
G0 X145.649 Y102.78
G0 X144.422 Y101.133
G0 X143.566 Y100.2
G0 X134.096 Y90.774
G0 X132.452 Y89.504
G0 X131.293 Y88.795
G0 X129.413 Y87.913
G0 X128.123 Y87.473
G0 X126.096 Y87.021
G0 X124.77 Y86.874
G0 X110.331 Y86.868
G0 X108.254 Y87.134
G0 X106.945 Y87.453
G0 X104.98 Y88.165
G0 X103.785 Y88.753
G0 X102.033 Y89.866
G0 X101.734 Y90.105
G0 X100.199 Y91.436
G0 X100.8 Y92.34
G1 F2700 E131.97901
G1 F1125 X100.8 Y142.66 E135.99577
G0 F9000 X99.2 Y141.06
G1 F1125 X99.2 Y93.94 E139.7571
G0 F9000 X97.6 Y95.54
G1 F1125 X97.6 Y139.46 E143.26298
G0 F9000 X96 Y137.86
G1 F1125 X96 Y97.139 E146.51351
G0 F9000 X94.4 Y98.739
G1 F1125 X94.4 Y136.26 E149.5086
G0 F9000 X92.8 Y134.66
G1 F1125 X92.8 Y100.339 E152.24825
G0 F9000 X91.2 Y102.058
G1 F1125 X91.2 Y132.937 E154.71314
G0 F9000 X89.6 Y130.543
G1 F1125 X89.6 Y104.475 E156.794
G1 F2700 E151.794
G0 F9000 X88.368 Y104.538
G0 X87.831 Y105.802
G0 X87.346 Y107.419
G0 X86.992 Y109.101
G0 X88 Y109.67
G1 F2700 E156.794
G1 F1125 X88 Y125.355 E158.04605
G0 F300 X88 Y125.355 Z0.54
G0 F9000 X88.383 Y125.152
;TIME_ELAPSED:116.509595
;LAYER:-5
M140 S50
;TYPE:SUPPORT
G1 F1125 X109.844 Y146.613 E161.07443
G1 X109.134 Y146.531 E161.14574
G1 X108.162 Y146.346 E161.24447
G1 X88.657 Y126.841 E163.99683
G1 X88.854 Y127.629 E164.07788
G1 X89.171 Y128.602 E164.17999
G1 X89.284 Y128.882 E164.21012
G1 X106.116 Y145.714 E166.58529
G1 X105.356 Y145.397 E166.66746
G1 X105.174 Y145.312 E166.6875
G1 X104.284 Y144.847 E166.7877
G1 X103.393 Y144.299 E166.89207
G1 X103.008 Y144.02 E166.93951
G1 X90.972 Y131.985 E168.63785
G0 F9000 X91.153 Y132.243
G1 F1125 X91.817 Y133.062 E168.74306
G1 X92.436 Y133.73 E168.83393
G1 X101.267 Y142.561 E170.08008
G1 X101.754 Y143.02 E170.14685
G1 X102.542 Y143.683 E170.24961
G1 X103.008 Y144.02 E170.30699
G1 F2700 E165.30699
G0 F9000 X102.548 Y145.496
G0 X103.707 Y146.205
G0 X105.587 Y147.087
G0 X106.877 Y147.527
G0 X108.904 Y147.979
G0 X109.279 Y148.02
G0 X111.25 Y148.163
G0 X111.342 Y146.697
G1 F2700 E170.30699
G1 F1125 X112.756 Y146.697 E170.44808
G1 X88.299 Y122.241 E173.89915
G1 X88.3 Y120.827 E174.04024
G1 X114.17 Y146.697 E177.69078
G1 X115.585 Y146.698 E177.83197
G1 X88.301 Y119.414 E181.68204
G1 X88.301 Y117.999 E181.82323
G1 X117 Y146.698 E185.87296
G1 X118.414 Y146.698 E186.01405
G1 X88.302 Y116.586 E190.26318
G1 X88.302 Y115.349 E190.38661
G1 X88.308 Y115.178 E190.40368
G1 X119.829 Y146.699 E194.85164
G1 X121.243 Y146.699 E194.99273
G1 X88.299 Y113.755 E199.64148
G1 X88.299 Y112.341 E199.78257
G1 X122.657 Y146.699 E204.63086
G1 X123.692 Y146.699 E204.73413
G1 X124.059 Y146.687 E204.77077
G1 X88.314 Y110.941 E209.81484
G1 X88.344 Y110.191 E209.88974
G1 X88.407 Y109.62 E209.94706
G1 X125.377 Y146.591 E215.164
G1 X125.603 Y146.569 E215.18665
G1 X126.598 Y146.397 E215.28741
G1 X88.605 Y108.404 E220.64863
G1 X88.654 Y108.144 E220.67503
G1 X88.88 Y107.279 E220.76424
G1 X88.884 Y107.268 E220.7654
G1 X127.727 Y146.112 E226.24664
G1 X128.612 Y145.823 E226.33954
G1 X128.783 Y145.753 E226.35797
G1 X89.243 Y106.213 E231.93749
G1 X89.602 Y105.355 E232.0303
G1 X89.663 Y105.22 E232.04508
G1 X129.772 Y145.328 E237.70482
G1 X130.375 Y145.035 E237.77172
G1 X130.703 Y144.845 E237.80954
G1 X90.147 Y104.289 E243.53243
G0 F9000 X90.151 Y104.283
G1 F1125 X90.685 Y103.413 E243.63429
G1 X131.58 Y144.308 E249.40501
G1 X132.121 Y143.937 E249.47047
G1 X132.4 Y143.714 E249.50611
G1 X91.279 Y102.592 E255.30879
G1 X91.316 Y102.541 E255.31508
G1 X91.921 Y101.82 E255.40899
G1 X133.177 Y143.076 E261.23066
G1 X133.735 Y142.558 E261.30663
G1 X133.904 Y142.389 E261.33048
G1 X92.61 Y101.095 E267.15751
G1 X93.317 Y100.388 E267.25727
G1 X134.611 Y141.682 E273.0843
G1 X135.318 Y140.975 E273.18407
G1 X94.024 Y99.681 E279.0111
G1 X94.731 Y98.974 E279.11086
G1 X136.025 Y140.268 E284.93789
G1 X136.732 Y139.56 E285.03773
G1 X95.438 Y98.267 E290.86469
G1 X96.146 Y97.56 E290.96452
G1 X137.439 Y138.853 E296.79141
G1 X138.146 Y138.146 E296.89118
G1 X96.853 Y96.853 E302.71807
G1 X97.56 Y96.146 E302.81783
G1 X138.853 Y137.439 E308.64472
G1 X139.56 Y136.732 E308.74448
G1 X98.267 Y95.438 E314.57144
G1 X98.974 Y94.731 E314.67121
G1 X140.268 Y136.025 E320.49824
G1 X140.975 Y135.318 E320.598
G1 X99.681 Y94.024 E326.42503
G1 X100.388 Y93.317 E326.5248
G1 X141.682 Y134.611 E332.35183
G1 X142.389 Y133.904 E332.45159
G1 X101.095 Y92.61 E338.27862
G1 X101.272 Y92.433 E338.3036
G1 X101.822 Y91.923 E338.37844
G1 X143.078 Y133.178 E344.20004
G1 X143.682 Y132.458 E344.29381
G1 X143.72 Y132.406 E344.30024
G1 X102.596 Y91.283 E350.10321
G1 X102.759 Y91.15 E350.1242
G1 X103.419 Y90.691 E350.20441
G1 X144.313 Y131.585 E355.975
G1 X144.847 Y130.715 E356.07686
G0 F9000 X144.851 Y130.709
G1 F1125 X104.296 Y90.153 E361.79968
G1 X104.623 Y89.963 E361.83741
G1 X105.226 Y89.67 E361.90431
G1 X145.335 Y129.779 E367.56412
G1 X145.397 Y129.644 E367.57894
G1 X145.756 Y128.786 E367.67175
G1 X106.215 Y89.245 E373.25141
G1 X106.382 Y89.178 E373.26936
G1 X107.271 Y88.886 E373.36273
G1 X146.114 Y127.729 E378.8439
G1 X146.12 Y127.712 E378.8457
G1 X146.342 Y126.857 E378.93384
G1 X146.393 Y126.594 E378.96057
G1 X108.4 Y88.601 E384.32179
G1 X109.395 Y88.43 E384.42253
G1 X109.621 Y88.408 E384.44518
G1 X146.588 Y125.375 E389.66163
G1 X146.653 Y124.817 E389.71768
G1 X146.684 Y124.056 E389.79368
G1 X110.939 Y88.311 E394.83768
G1 X111.307 Y88.299 E394.87442
G1 X112.342 Y88.3 E394.97769
G1 X146.699 Y122.657 E399.82584
G1 X146.699 Y121.243 E399.96693
G1 X113.756 Y88.3 E404.61554
G1 X115.17 Y88.3 E404.75663
G1 X146.69 Y119.819 E409.20437
G1 X146.695 Y119.638 E409.22244
G1 X146.696 Y118.412 E409.34477
G1 X116.584 Y88.3 E413.5939
G1 X117.999 Y88.301 E413.73509
G1 X146.697 Y116.998 E417.78462
G1 X146.697 Y115.585 E417.9256
G1 X119.414 Y88.301 E421.7756
G1 X120.828 Y88.301 E421.91669
G1 X146.698 Y114.171 E425.56723
G1 X146.699 Y112.758 E425.70822
G1 X122.242 Y88.301 E429.15936
G1 X123.656 Y88.301 E429.30045
G1 X146.699 Y111.343 E432.552
G1 X146.699 Y111.287 E432.55759
G1 X146.677 Y110.564 E432.62976
G1 X146.615 Y109.846 E432.70167
G1 X125.155 Y88.385 E435.72998
G1 X125.865 Y88.468 E435.80131
G1 X126.836 Y88.652 E435.89992
G1 X146.337 Y108.154 E438.65179
G1 X146.185 Y107.517 E438.71713
G1 X146.139 Y107.351 E438.73432
G1 X145.823 Y106.383 E438.83592
G1 X145.715 Y106.117 E438.86457
G1 X128.882 Y89.284 E441.23989
G1 X129.642 Y89.601 E441.32205
G1 X129.825 Y89.687 E441.34223
G1 X130.715 Y90.151 E441.44238
G1 X131.606 Y90.699 E441.54675
G1 X131.99 Y90.978 E441.59411
G1 X144.027 Y103.015 E443.29266
G0 F9000 X143.849 Y102.759
G1 F1125 X143.18 Y101.935 E443.39857
G1 X142.521 Y101.227 E443.49508
G1 X133.732 Y92.438 E444.7353
G1 X133.245 Y91.979 E444.80208
G1 X132.457 Y91.316 E444.90483
G1 X131.99 Y90.978 E444.96235
G1 F2700 E439.96235
G0 F9000 X132.844 Y89.783
G0 X131.293 Y88.795
G0 X129.413 Y87.913
G0 X128.123 Y87.473
G0 X126.096 Y87.021
G0 X124.77 Y86.874
G0 X110.331 Y86.868
G0 X108.254 Y87.134
G0 X106.945 Y87.453
G0 X104.98 Y88.165
G0 X103.785 Y88.753
G0 X102.033 Y89.866
G0 X100.976 Y90.712
G0 X90.774 Y100.904
G0 X89.746 Y102.235
G0 X88.899 Y103.523
G0 X90.151 Y104.283
G1 F2700 E444.96235
G1 F1125 X90.147 Y104.289 E444.96307
G1 F2700 E439.96307
G0 F9000 X88.795 Y103.707
G0 X87.913 Y105.587
G0 X87.473 Y106.874
G0 X87.021 Y108.902
G0 X86.874 Y110.23
G0 X86.835 Y123.655
G0 X88.299 Y123.655
G1 F2700 E444.96307
G1 F1125 X88.299 Y123.711 E444.96866
G1 X88.321 Y124.433 E445.04074
G1 X88.383 Y125.152 E445.11275
G0 F9000 X88.299 Y123.655
G1 F1125 X111.342 Y146.697 E448.36429
G1 F2700 E443.36429
G0 F9000 X111.342 Y148.165
G0 X124.669 Y148.132
G0 X126.746 Y147.866
G0 X128.055 Y147.547
G0 X130.02 Y146.835
G0 X131.215 Y146.247
G0 X132.967 Y145.134
G0 X134.037 Y144.276
G0 X144.226 Y134.096
G0 X145.254 Y132.765
G0 X146.105 Y131.47
G0 X144.851 Y130.709
G1 F2700 E448.36429
G1 F1125 X144.847 Y130.715 E448.36501
G0 F300 X144.847 Y130.715 Z0.74
G0 F9000 X145.026 Y130.8
;TIME_ELAPSED:277.591781
;LAYER:-4
;TYPE:SUPPORT-INTERFACE
G1 F1500 X89.976 Y130.8 E450.19598
G1 X90.208 Y131.2 E450.21136
G1 X144.785 Y131.2 E452.0266
G1 X144.556 Y131.582 E452.04141
G1 X144.544 Y131.6 E452.04213
G1 X90.458 Y131.6 E453.84104
G1 X90.737 Y132 E453.85726
G1 X144.262 Y132 E455.63751
G1 X143.973 Y132.4 E455.65392
G1 X91.021 Y132.4 E457.41511
G1 X91.345 Y132.8 E457.43223
G1 X143.658 Y132.8 E459.17217
G1 X143.322 Y133.2 E459.18955
G1 X91.671 Y133.2 E460.90747
G1 X92.042 Y133.6 E460.92561
G1 X142.961 Y133.6 E462.61918
G1 X142.66 Y133.919 E462.63377
G1 X142.578 Y134 E462.6376
G1 X92.422 Y134 E464.3058
G1 X92.822 Y134.4 E464.32461
G1 X142.178 Y134.4 E465.9662
G1 X141.778 Y134.8 E465.98502
G1 X93.222 Y134.8 E467.6
G1 X93.622 Y135.2 E467.61881
G1 X141.378 Y135.2 E469.20718
G1 X140.978 Y135.6 E469.226
G1 X94.022 Y135.6 E470.78776
G1 X94.422 Y136 E470.80657
G1 X140.578 Y136 E472.34173
G1 X140.178 Y136.4 E472.36054
G1 X94.822 Y136.4 E473.86909
G1 X95.221 Y136.8 E473.88788
G1 X139.778 Y136.8 E475.36985
G1 X139.378 Y137.2 E475.38867
G1 X95.621 Y137.2 E476.84403
G1 X96.021 Y137.6 E476.86285
G1 X138.978 Y137.6 E478.2916
G1 X138.578 Y138 E478.31042
G1 X96.421 Y138 E479.71256
G1 X96.821 Y138.4 E479.73138
G1 X138.177 Y138.4 E481.10689
G1 X137.777 Y138.8 E481.1257
G1 X97.221 Y138.8 E482.4746
G1 X97.621 Y139.2 E482.49341
G1 X137.377 Y139.2 E483.8157
G1 X136.977 Y139.6 E483.83452
G1 X98.021 Y139.6 E485.1302
G1 X98.42 Y140 E485.14899
G1 X136.577 Y140 E486.4181
G1 X136.177 Y140.4 E486.43691
G1 X98.82 Y140.4 E487.67941
G1 X99.22 Y140.8 E487.69823
G1 X135.777 Y140.8 E488.91412
G1 X135.377 Y141.2 E488.93293
G1 X99.62 Y141.2 E490.12221
