;FLAVOR:Marlin
;TIME:1263
;Filament used: 0.762275m
;Layer height: 0.2
;MINX:97.691
;MINY:102.687
;MINZ:0.2
;MAXX:148.305
;MAXY:132.313
;MAXZ:3.6
;Generated with Cura_SteamEngine 99.10.0-Arachne_engine_beta_2
M140 S60
M105
M190 S60
M104 S205
M105
M109 S205
M82 ;absolute extrusion mode
; Ender 3 Custom Start G-code
G92 E0 ; Reset Extruder
G28 ; Home all axes
;G29 ; Auto bed leveling (ABL)
G1 Z2.0 F3000 ; Move Z Axis up little to prevent scratching of Heat Bed
G1 X0.1 Y20 Z0.3 F5000.0 ; Move to start position
G1 X0.1 Y200.0 Z0.3 F1500.0 E15 ; Draw the first line
G1 X0.4 Y200.0 Z0.3 F5000.0 ; Move to side a little
G1 X0.4 Y20 Z0.3 F1500.0 E30 ; Draw the second line
G92 E0 ; Reset Extruder
G1 Z2.0 F3000 ; Move Z Axis up little to prevent scratching of Heat Bed
G1 X5 Y20 Z0.3 F5000.0 ; Move over to prevent blob squish
G92 E0
G92 E0
G1 F2700 E-5
;LAYER_COUNT:18
;LAYER:0
M107
;MESH:ButtonsOctTop.stl
G0 F6000 X98.572 Y116.206 Z0.2
;TYPE:WALL-INNER
G1 F2700 E0
G1 F948.6 X98.681 Y115.974 E0.01078
G1 F1124.1 X99.138 Y114.829 E0.05456
G1 F1200 X99.251 Y114.612 E0.06269
G1 X99.933 Y113.622 E0.10268
G1 X100.092 Y113.443 E0.11064
G1 X100.997 Y112.639 E0.1509
G1 X101.196 Y112.502 E0.15894
G1 X102.26 Y111.942 E0.19893
G1 X102.484 Y111.856 E0.20691
G1 X103.655 Y111.565 E0.24704
G1 X103.897 Y111.536 E0.25515
G1 X105.104 Y111.536 E0.2953
G1 X105.343 Y111.564 E0.3033
G1 X106.515 Y111.852 E0.34344
G1 X106.741 Y111.938 E0.35148
G1 X107.806 Y112.497 E0.39149
G1 X108.004 Y112.633 E0.39948
G1 X108.907 Y113.433 E0.4396
G1 X109.066 Y113.612 E0.44757
G1 X109.754 Y114.603 E0.48769
G1 X109.867 Y114.818 E0.49577
G1 X110.292 Y115.945 E0.53583
G1 X110.35 Y116.188 E0.54414
G1 X110.502 Y117.412 E0.58516
G1 X110.498 Y117.622 E0.59215
G1 X110.352 Y118.818 E0.63222
G1 X110.295 Y119.051 E0.6402
G1 X109.868 Y120.178 E0.68029
G1 X109.754 Y120.396 E0.68847
G1 X109.069 Y121.384 E0.72845
G1 X108.779 Y121.681 E0.74226
G1 X108.003 Y122.367 E0.77671
G1 X107.805 Y122.504 E0.78472
G1 X106.692 Y123.087 E0.82651
G1 X106.514 Y123.149 E0.83278
G1 X105.342 Y123.437 E0.87292
G1 X105.101 Y123.465 E0.88099
G1 X103.894 Y123.464 E0.92113
G1 X103.654 Y123.434 E0.92918
G1 X102.483 Y123.143 E0.96931
G1 X102.259 Y123.057 E0.97729
G1 X101.195 Y122.497 E1.01728
G1 X100.996 Y122.36 E1.02532
G1 X100.091 Y121.556 E1.06558
G1 X99.932 Y121.376 E1.07357
G1 X99.251 Y120.388 E1.11348
G1 X99.138 Y120.174 E1.12153
G1 F1088.4 X98.672 Y119.05 E1.16614
G1 F912.5 X98.577 Y118.869 E1.17509
G1 F2700 E-3.82491
G0 F6000 X98.656 Y123.236
G0 X106.77 Y131.349
G0 X118.239 Y131.349
G0 X126.354 Y123.235
G0 X126.325 Y119.514
G0 X123.888 Y122.641
G0 X119.625 Y123.591
G0 X115.809 Y121.478
G0 X114.512 Y117.622
G1 F2700 E1.17509
G1 F1200 X114.512 Y117.379 E1.18317
G1 X114.656 Y116.183 E1.22323
G1 X114.714 Y115.948 E1.23128
G1 X115.141 Y114.821 E1.27137
G1 X115.256 Y114.602 E1.2796
G1 X115.944 Y113.611 E1.31972
G1 X116.229 Y113.319 E1.33329
G1 X117.006 Y112.633 E1.36777
G1 X117.204 Y112.496 E1.37577
G1 X118.318 Y111.913 E1.41759
G1 X118.496 Y111.851 E1.42386
G1 X119.667 Y111.563 E1.46397
G1 X119.908 Y111.535 E1.47204
G1 X121.115 Y111.537 E1.51219
G1 X121.355 Y111.566 E1.52023
G1 X122.526 Y111.857 E1.56036
G1 X122.751 Y111.943 E1.56837
G1 X123.815 Y112.503 E1.60836
G1 X124.014 Y112.64 E1.6164
G1 X124.918 Y113.444 E1.65664
G1 X125.077 Y113.624 E1.66462
G1 X125.758 Y114.612 E1.70453
G1 X125.87 Y114.827 E1.7126
G1 F1124.1 X126.325 Y115.955 E1.75578
G1 F944.9 X126.437 Y116.187 E1.76666
G0 F6000 X126.433 Y118.87
G1 F912.5 X126.338 Y119.051 E1.7756
G1 F1088.4 X125.87 Y120.173 E1.82018
G1 F1200 X125.758 Y120.389 E1.82828
G1 X125.076 Y121.377 E1.86821
G1 X124.917 Y121.557 E1.87619
G1 X124.013 Y122.361 E1.91643
G1 X123.814 Y122.498 E1.92447
G1 X122.75 Y123.058 E1.96446
G1 X122.525 Y123.144 E1.97247
G1 X121.354 Y123.435 E2.0126
G1 X121.112 Y123.464 E2.02071
G1 X119.905 Y123.464 E2.06085
G1 X119.666 Y123.436 E2.06886
G1 X118.495 Y123.148 E2.10897
G1 X118.269 Y123.062 E2.11701
G1 X117.203 Y122.503 E2.15704
G1 X117.005 Y122.366 E2.16505
G1 X116.101 Y121.567 E2.20518
G1 X115.942 Y121.387 E2.21317
G1 X115.257 Y120.399 E2.25315
G1 X115.14 Y120.178 E2.26147
G1 X114.714 Y119.051 E2.30154
G1 X114.657 Y118.818 E2.30952
G1 X114.512 Y117.622 E2.34959
G0 F6000 X115.498 Y120.129
G0 X116.274 Y121.251
G0 X117.295 Y122.154
G0 X118.503 Y122.788
G0 X119.695 Y123.08
G0 X121.112 Y123.174
G0 X121.112 Y123.064
G1 F1200 X119.905 Y123.064 E2.38974
G1 X119.761 Y123.047 E2.39456
G1 X118.59 Y122.759 E2.43467
G1 X118.455 Y122.708 E2.43947
G1 X117.389 Y122.149 E2.4795
G1 X117.27 Y122.067 E2.48431
G1 X116.366 Y121.267 E2.52446
G1 X116.27 Y121.159 E2.52926
G1 X115.586 Y120.171 E2.56923
G1 X115.514 Y120.036 E2.57432
G1 X115.088 Y118.91 E2.61436
G1 X115.054 Y118.77 E2.61915
G1 X114.909 Y117.573 E2.65926
G1 X114.909 Y117.427 E2.66411
G1 X115.054 Y116.231 E2.70418
G1 X115.088 Y116.09 E2.70901
G1 X115.515 Y114.963 E2.74909
G1 X115.585 Y114.83 E2.75409
G1 X116.272 Y113.839 E2.7942
G1 X116.494 Y113.619 E2.80459
G1 X117.271 Y112.932 E2.83909
G1 X117.39 Y112.85 E2.8439
G1 X118.485 Y112.277 E2.885
G1 X118.591 Y112.24 E2.88874
G1 X119.762 Y111.952 E2.92884
G1 X119.907 Y111.935 E2.9337
G1 X121.114 Y111.937 E2.97384
G1 X121.258 Y111.954 E2.97867
G1 X122.43 Y112.245 E3.01883
G1 X122.565 Y112.297 E3.02364
G1 X123.629 Y112.857 E3.06363
G1 X123.748 Y112.939 E3.06844
G1 X124.652 Y113.743 E3.10868
G1 X124.747 Y113.851 E3.11346
G1 X125.429 Y114.839 E3.15339
G1 X125.496 Y114.968 E3.15823
G1 F1203 X125.925 Y116.106 E3.19858
G1 X125.96 Y116.245 E3.20333
G1 F1200 X126.101 Y117.412 E3.24243
G1 X126.101 Y117.556 E3.24722
G1 X125.955 Y118.787 E3.28845
G1 F1203 X125.924 Y118.895 E3.29218
G1 X125.496 Y120.032 E3.33248
G1 F1200 X125.429 Y120.161 E3.33732
G1 X124.747 Y121.15 E3.37727
G1 X124.651 Y121.258 E3.38208
G1 X123.747 Y122.062 E3.42232
G1 X123.628 Y122.144 E3.42713
G1 X122.564 Y122.704 E3.46712
G1 X122.429 Y122.756 E3.47193
G1 X121.257 Y123.047 E3.51209
G1 X121.112 Y123.064 E3.51695
G1 F2700 E-1.48305
G0 F6000 X121.112 Y123.174
G0 X124.122 Y122.479
G0 X126.325 Y119.514
G0 X126.354 Y123.235
G0 X118.239 Y131.349
G0 X106.77 Y131.349
G0 X98.656 Y123.236
G0 X98.685 Y119.515
G0 X101.12 Y122.64
G0 X103.536 Y123.179
G0 X105.272 Y123.154
G1 F2700 E3.51695
G0 F6000 X105.247 Y123.048
G1 F1200 X105.102 Y123.065 E3.5218
G1 X103.895 Y123.064 E3.56195
G1 X103.751 Y123.046 E3.56678
G1 X102.58 Y122.755 E3.60691
G1 X102.445 Y122.703 E3.61172
G1 X101.381 Y122.143 E3.65171
G1 X101.262 Y122.061 E3.65652
G1 X100.357 Y121.257 E3.69678
G1 X100.261 Y121.149 E3.70159
G1 X99.58 Y120.161 E3.7415
G1 X99.513 Y120.032 E3.74633
G1 F1203 X99.085 Y118.894 E3.78667
G1 X99.049 Y118.754 E3.79147
G1 F1200 X98.909 Y117.572 E3.83105
G1 X98.909 Y117.428 E3.83584
G1 X99.047 Y116.262 E3.8749
G1 X99.082 Y116.124 E3.87963
G1 X99.512 Y114.969 E3.92062
G1 X99.58 Y114.839 E3.9255
G1 X100.262 Y113.85 E3.96546
G1 X100.358 Y113.742 E3.97027
G1 X101.263 Y112.938 E4.01053
G1 X101.382 Y112.856 E4.01533
G1 X102.446 Y112.296 E4.05533
G1 X102.581 Y112.244 E4.06014
G1 X103.752 Y111.953 E4.10027
G1 X103.897 Y111.936 E4.10513
G1 X105.104 Y111.936 E4.14527
G1 X105.248 Y111.953 E4.15009
G1 X106.42 Y112.241 E4.19023
G1 X106.555 Y112.292 E4.19503
G1 X107.62 Y112.851 E4.23504
G1 X107.739 Y112.933 E4.23985
G1 X108.642 Y113.732 E4.27995
G1 X108.738 Y113.84 E4.28475
G1 X109.425 Y114.831 E4.32486
G1 X109.493 Y114.96 E4.32971
G1 X109.918 Y116.086 E4.36974
G1 X109.953 Y116.237 E4.3749
G1 X110.103 Y117.447 E4.41545
G1 X110.101 Y117.573 E4.41964
G1 X109.955 Y118.769 E4.45971
G1 X109.921 Y118.909 E4.46451
G1 X109.494 Y120.036 E4.50459
G1 X109.425 Y120.168 E4.50954
G1 X108.741 Y121.156 E4.54951
G1 X108.514 Y121.381 E4.56014
G1 X107.738 Y122.068 E4.59461
G1 X107.619 Y122.15 E4.59942
G1 X106.525 Y122.723 E4.6405
G1 X106.419 Y122.76 E4.64423
G1 X105.247 Y123.048 E4.68437
G0 F6000 X105.151 Y122.66
;TYPE:WALL-OUTER
G1 F1200 X105.102 Y122.665 E4.68601
G1 X103.895 Y122.664 E4.72615
G1 X103.847 Y122.658 E4.72776
G1 X102.676 Y122.367 E4.7679
G1 X102.631 Y122.349 E4.76951
G1 X101.567 Y121.789 E4.8095
G1 X101.528 Y121.762 E4.81108
G1 X100.623 Y120.958 E4.85134
G1 X100.591 Y120.922 E4.85294
G1 X99.91 Y119.934 E4.89285
G1 X99.887 Y119.891 E4.89447
G1 F1203 X99.459 Y118.753 E4.93481
G1 X99.447 Y118.706 E4.93642
G1 F1200 X99.306 Y117.524 E4.97601
G1 X99.306 Y117.476 E4.97761
G1 X99.445 Y116.31 E5.01667
G1 X99.456 Y116.263 E5.01827
G1 X99.887 Y115.109 E5.05924
G1 X99.91 Y115.066 E5.06086
G1 X100.592 Y114.077 E5.10082
G1 X100.624 Y114.041 E5.10242
G1 X101.529 Y113.237 E5.14269
G1 X101.568 Y113.21 E5.14426
G1 X102.632 Y112.65 E5.18426
G1 X102.677 Y112.632 E5.18587
G1 X103.848 Y112.341 E5.226
G1 X103.897 Y112.336 E5.22764
G1 X105.104 Y112.336 E5.26778
G1 X105.152 Y112.341 E5.26939
G1 X106.324 Y112.629 E5.30953
G1 X106.36 Y112.642 E5.3108
G1 X107.434 Y113.205 E5.35113
G1 X107.474 Y113.233 E5.35276
G1 X108.392 Y114.047 E5.39356
G1 X108.409 Y114.068 E5.39446
G1 X109.108 Y115.078 E5.43532
G1 X109.119 Y115.102 E5.43619
G1 X109.551 Y116.249 E5.47696
G1 X109.704 Y117.475 E5.51805
G1 X109.705 Y117.518 E5.51948
G1 X109.554 Y118.745 E5.5606
G1 X109.12 Y119.894 E5.60145
G1 X109.096 Y119.941 E5.60321
G1 X108.412 Y120.928 E5.64315
G1 X108.249 Y121.081 E5.65058
G1 X107.454 Y121.783 E5.68586
G1 X107.433 Y121.796 E5.68668
G1 X106.368 Y122.355 E5.72669
G1 X106.323 Y122.372 E5.72829
G1 X105.151 Y122.66 E5.76843
G1 F2700 E0.76843
G0 F6000 X105.271 Y123.155
G0 X102.182 Y123.198
G0 X98.987 Y120.228
G0 X98.685 Y119.515
G0 X98.656 Y123.236
G0 X106.77 Y131.349
G0 X118.239 Y131.349
G0 X126.354 Y123.235
G0 X126.325 Y119.514
G0 X124.132 Y122.328
G0 X121.283 Y123.153
G1 F2700 E5.76843
G0 F6000 X121.161 Y122.659
G1 F1200 X121.112 Y122.664 E5.77006
G1 X119.905 Y122.664 E5.81021
G1 X119.857 Y122.659 E5.81181
G1 X118.686 Y122.371 E5.85192
G1 X118.65 Y122.358 E5.8532
G1 X117.575 Y121.795 E5.89356
G1 X117.535 Y121.767 E5.89518
G1 X116.616 Y120.952 E5.93604
G1 X116.599 Y120.931 E5.93693
G1 X115.899 Y119.918 E5.97789
G1 X115.888 Y119.894 E5.97877
G1 X115.455 Y118.746 E6.01957
G1 X115.306 Y117.525 E6.06049
G1 X115.306 Y117.468 E6.06238
G1 X115.451 Y116.279 E6.10222
G1 X115.462 Y116.232 E6.10383
G1 X115.889 Y115.105 E6.14391
G1 X115.914 Y115.058 E6.14568
G1 X116.601 Y114.067 E6.18579
G1 X116.759 Y113.919 E6.19299
G1 X117.555 Y113.217 E6.22829
G1 X117.576 Y113.204 E6.22911
G1 X118.642 Y112.645 E6.26914
G1 X118.687 Y112.628 E6.27074
G1 X119.858 Y112.34 E6.31085
G1 X119.907 Y112.335 E6.31249
G1 X121.114 Y112.337 E6.35264
G1 X121.162 Y112.342 E6.35424
G1 X122.334 Y112.633 E6.39441
G1 X122.379 Y112.651 E6.39602
G1 X123.443 Y113.211 E6.43601
G1 X123.482 Y113.238 E6.43759
G1 X124.386 Y114.042 E6.47782
G1 X124.418 Y114.078 E6.47943
G1 X125.099 Y115.066 E6.51934
G1 X125.122 Y115.109 E6.52096
G1 F1203 X125.55 Y116.247 E6.5613
G1 X125.562 Y116.293 E6.56287
G1 F1200 X125.706 Y117.485 E6.60281
G1 X125.561 Y118.718 E6.6441
G1 F1203 X125.55 Y118.754 E6.64535
G1 X125.122 Y119.891 E6.68566
G1 F1200 X125.099 Y119.934 E6.68728
G1 X124.417 Y120.923 E6.72724
G1 X124.385 Y120.959 E6.72884
G1 X123.481 Y121.763 E6.76908
G1 X123.442 Y121.79 E6.77065
G1 X122.378 Y122.35 E6.81064
G1 X122.333 Y122.368 E6.81226
G1 X121.161 Y122.659 E6.85242
G0 F6000 X121.283 Y123.153
G0 X122.516 Y122.784
G0 X123.722 Y122.149
G0 X124.638 Y121.335
G0 X126.433 Y118.87
;TYPE:WALL-INNER
G1 F912.5 X126.477 Y119.076 E6.86163
G1 F1088.4 X126.518 Y120.291 E6.90621
G1 F1200 X126.518 Y123.303 E7.00639
G1 X118.307 Y131.513 E7.39259
G1 X106.702 Y131.513 E7.77857
G1 X98.492 Y123.303 E8.16475
G1 X98.492 Y120.291 E8.26493
G1 F1088.4 X98.533 Y119.075 E8.30954
G1 F912.5 X98.577 Y118.869 E8.31875
G0 F6000 X98.572 Y116.206
G1 F948.6 X98.519 Y115.945 E8.32996
G1 F1124.1 X98.493 Y114.713 E8.37371
G1 F1200 X98.492 Y111.696 E8.47406
G1 X106.702 Y103.487 E8.86021
G1 X118.307 Y103.488 E9.24619
G1 X126.518 Y111.697 E9.63236
G1 X126.518 Y114.709 E9.73254
G1 F1124.1 X126.491 Y115.925 E9.77573
G1 F944.9 X126.437 Y116.187 E9.78703
G0 F6000 X126.354 Y123.235
G0 X118.433 Y131.811
G0 X118.473 Y131.913
G1 F1200 X126.918 Y123.469 E10.18423
G1 X126.918 Y111.531 E10.58129
G1 X125.97 Y110.585 E10.62583
G1 X125.79 Y110.402 E10.63437
G1 X125.586 Y110.201 E10.6439
G1 X118.473 Y103.088 E10.97847
G1 X106.536 Y103.087 E11.3755
G1 X98.092 Y111.531 E11.77268
G1 X98.093 Y114.713 E11.87851
G1 X98.091 Y115.945 E11.91949
G1 X98.093 Y116.206 E11.92817
G1 X98.092 Y120.291 E12.06404
G1 X98.092 Y123.469 E12.16974
G1 X106.536 Y131.913 E12.56692
G1 X118.473 Y131.913 E12.96394
G0 F6000 X118.639 Y132.313
;TYPE:WALL-OUTER
G1 F1200 X127.318 Y123.635 E13.37215
G1 X127.318 Y111.365 E13.78026
G1 X118.639 Y102.688 E14.18844
G1 X106.37 Y102.687 E14.59651
G1 X97.692 Y111.365 E15.0047
G1 X97.692 Y118.869 E15.25428
G1 X97.692 Y120.291 E15.30158
G1 X97.692 Y123.635 E15.4128
G1 X106.37 Y132.313 E15.82099
G1 X118.639 Y132.313 E16.22905
G0 F6000 X118.433 Y131.811
G0 X126.354 Y123.235
G0 X126.433 Y118.87
;TYPE:WALL-INNER
G1 F848.1 X126.437 Y118.81 E16.23188
G1 F977.6 X126.508 Y117.604 E16.28121
G1 F1142.9 X126.508 Y117.363 E16.28962
G1 F977.6 X126.437 Y116.187 E16.33772
G1 F2700 E11.33772
G0 F6000 X126.354 Y111.765
G0 X118.239 Y103.652
G0 X106.77 Y103.651
G0 X98.656 Y111.764
G0 X98.572 Y116.206
G1 F2700 E16.33772
G1 F981.6 X98.502 Y117.38 E16.38554
G1 F1142.9 X98.502 Y117.62 E16.39392
G1 F979.6 X98.577 Y118.869 E16.4449
G1 F2700 E11.4449
G0 F6000 X98.656 Y123.236
G0 X106.77 Y131.349
G0 X118.157 Y131.413
G1 F2700 E16.4449
G0 F6000 X118.157 Y131.152
;TYPE:SKIN
G1 F1200 X126.158 Y123.153 E16.8212
G1 X126.158 Y120.398 E16.91283
G1 X126.053 Y120.595 E16.92026
G1 X125.378 Y121.577 E16.95989
G1 X125.174 Y121.809 E16.97017
G1 X125.158 Y121.826 E16.97094
G1 X124.233 Y122.647 E17.01208
G1 X123.978 Y122.82 E17.02233
G1 X122.906 Y123.384 E17.06262
G1 X122.881 Y123.395 E17.06352
G1 X122.619 Y123.491 E17.0728
G1 X121.445 Y123.785 E17.11306
G1 X121.13 Y123.823 E17.12361
G1 X119.911 Y123.824 E17.16415
G1 X119.887 Y123.823 E17.16495
G1 X119.576 Y123.785 E17.17537
G1 X118.391 Y123.493 E17.21597
G1 X118.16 Y123.411 E17.22412
G1 X117.013 Y122.809 E17.2672
G1 X116.784 Y122.65 E17.27648
G1 X115.848 Y121.824 E17.318
G1 X115.651 Y121.6 E17.32792
G1 X114.955 Y120.594 E17.36861
G1 X114.802 Y120.303 E17.37954
G1 X114.378 Y119.179 E17.4195
G1 X114.303 Y118.886 E17.42956
G1 X114.153 Y117.661 E17.4706
G1 X114.15 Y117.376 E17.48008
G1 X114.3 Y116.133 E17.52173
G1 X114.305 Y116.103 E17.52274
G1 X114.377 Y115.821 E17.53242
G1 X114.803 Y114.694 E17.57249
G1 X114.954 Y114.407 E17.58328
G1 X115.66 Y113.387 E17.62454
G1 X115.856 Y113.169 E17.63429
G1 X116.785 Y112.347 E17.67554
G1 X117.036 Y112.177 E17.68563
G1 X118.114 Y111.613 E17.72609
G1 X118.411 Y111.5 E17.73666
G1 X119.577 Y111.214 E17.77659
G1 X119.89 Y111.176 E17.78708
G1 X121.11 Y111.177 E17.82766
G1 X121.133 Y111.178 E17.82842
G1 X121.446 Y111.216 E17.83891
G1 X122.62 Y111.507 E17.87914
G1 X122.645 Y111.515 E17.88001
G1 X122.913 Y111.622 E17.88961
G1 X123.992 Y112.189 E17.93015
G1 X124.154 Y112.289 E17.93648
G1 X125.174 Y113.191 E17.98177
G1 X125.365 Y113.412 E17.99148
G1 X126.068 Y114.428 E18.03258
G1 X126.158 Y114.6 E18.03903
G1 X126.158 Y111.847 E18.1306
G1 X118.157 Y103.848 E18.50689
G1 X106.852 Y103.848 E18.8829
G1 X98.853 Y111.847 E19.25915
G1 X98.853 Y114.601 E19.35075
G1 X98.954 Y114.407 E19.35802
G1 X99.631 Y113.423 E19.39775
G1 X99.836 Y113.19 E19.40807
G1 X99.852 Y113.173 E19.40885
G1 X100.759 Y112.367 E19.4492
G1 X100.779 Y112.351 E19.45005
G1 X101.031 Y112.18 E19.46018
G1 X102.106 Y111.615 E19.50058
G1 X102.131 Y111.604 E19.50148
G1 X102.391 Y111.509 E19.51069
G1 X103.564 Y111.215 E19.55091
G1 X103.879 Y111.177 E19.56146
G1 X105.098 Y111.176 E19.60201
G1 X105.122 Y111.177 E19.60281
G1 X105.433 Y111.215 E19.61323
G1 X106.619 Y111.507 E19.65385
G1 X106.85 Y111.589 E19.66201
G1 X107.972 Y112.177 E19.70414
G1 X108.224 Y112.35 E19.7143
G1 X109.023 Y113.053 E19.7497
G1 X109.326 Y113.363 E19.76412
G1 X109.363 Y113.408 E19.76606
G1 X110.061 Y114.417 E19.80686
G1 X110.193 Y114.665 E19.81621
G1 X110.204 Y114.689 E19.81709
G1 X110.628 Y115.816 E19.85714
