;FLAVOR:Marlin
;TIME:841
;Filament used: 0.4141m
;Layer height: 0.2
;MINX:103.061
;MINY:109.7
;MINZ:0.2
;MAXX:131.52
;MAXY:125.3
;MAXZ:9.6
;Generated with Cura_SteamEngine 99.10.0-Arachne_engine_beta_2
M140 S60
M105
M190 S60
M104 S205
M105
M109 S205
M82 ;absolute extrusion mode
; Ender 3 Custom Start G-code
G92 E0 ; Reset Extruder
G28 ; Home all axes
;G29 ; Auto bed leveling (ABL)
G1 Z2.0 F3000 ; Move Z Axis up little to prevent scratching of Heat Bed
G1 X0.1 Y20 Z0.3 F5000.0 ; Move to start position
G1 X0.1 Y200.0 Z0.3 F1500.0 E15 ; Draw the first line
G1 X0.4 Y200.0 Z0.3 F5000.0 ; Move to side a little
G1 X0.4 Y20 Z0.3 F1500.0 E30 ; Draw the second line
G92 E0 ; Reset Extruder
G1 Z2.0 F3000 ; Move Z Axis up little to prevent scratching of Heat Bed
G1 X5 Y20 Z0.3 F5000.0 ; Move over to prevent blob squish
G92 E0
G92 E0
G1 F2700 E-5
;LAYER_COUNT:48
;LAYER:0
M107
;MESH:ButtonsOctA.stl
G0 F6000 X110.861 Y124.5 Z0.2
;TYPE:WALL-INNER
G1 F2700 E0
G1 F1200 X110.861 Y110.5 E0.46564
G1 X106.277 Y110.5 E0.61811
G1 X103.861 Y112.916 E0.73175
G1 X103.861 Y122.084 E1.03668
G1 X106.277 Y124.5 E1.15032
G1 X110.861 Y124.5 E1.30278
G0 F6000 X111.261 Y124.9
G1 F1200 X111.261 Y110.1 E1.79503
G1 X106.111 Y110.1 E1.96632
G1 X103.461 Y112.75 E2.09097
G1 X103.461 Y122.25 E2.40694
G1 X106.111 Y124.9 E2.53159
G1 X111.261 Y124.9 E2.70288
G0 F6000 X111.661 Y125.3
;TYPE:WALL-OUTER
G1 F1200 X111.661 Y109.7 E3.22174
G1 X105.945 Y109.7 E3.41185
G1 X103.061 Y112.584 E3.54751
G1 X103.061 Y122.416 E3.87452
G1 X105.945 Y125.3 E4.01017
G1 X111.661 Y125.3 E4.20029
G1 F2700 E-0.79971
G0 F6000 X111.181 Y124.82
G0 X110.761 Y124.14
G1 F2700 E4.20029
G0 F6000 X110.501 Y124.14
;TYPE:SKIN
G1 F1200 X110.501 Y110.86 E4.64198
G1 X106.427 Y110.86 E4.77749
G1 X104.221 Y113.066 E4.88125
G1 X104.221 Y121.934 E5.1762
G1 X106.427 Y124.14 E5.27996
G1 X110.501 Y124.14 E5.41547
G0 F6000 X110.761 Y124.14
G0 X106.345 Y124.336
G0 X104.025 Y122.016
G0 X103.961 Y121.391
G0 X104.421 Y121.391
G1 F1200 X106.968 Y123.938 E5.53527
G0 F6000 X107.533 Y123.938
G1 F1200 X104.421 Y120.826 E5.68165
G0 F6000 X104.421 Y120.26
G1 F1200 X108.099 Y123.938 E5.85465
G0 F6000 X108.665 Y123.938
G1 F1200 X104.421 Y119.694 E6.05427
G0 F6000 X104.421 Y119.129
G1 F1200 X109.231 Y123.938 E6.2805
G0 F6000 X109.796 Y123.938
G1 F1200 X104.421 Y118.563 E6.53332
G0 F6000 X104.421 Y117.997
G1 F1200 X110.3 Y123.877 E6.80988
G0 F6000 X110.3 Y123.311
G1 F1200 X104.421 Y117.432 E7.08641
G0 F6000 X104.421 Y116.866
G1 F1200 X110.3 Y122.745 E7.36294
G0 F6000 X110.3 Y122.18
G1 F1200 X104.421 Y116.3 E7.63949
G0 F6000 X104.421 Y115.734
G1 F1200 X110.3 Y121.614 E7.91604
G0 F6000 X110.3 Y121.048
G1 F1200 X104.421 Y115.169 E8.19257
G0 F6000 X104.421 Y114.603
G1 F1200 X110.3 Y120.483 E8.46913
G0 F6000 X110.3 Y119.917
G1 F1200 X104.421 Y114.037 E8.74568
G0 F6000 X104.421 Y113.472
G1 F1200 X110.3 Y119.351 E9.02221
G0 F6000 X110.3 Y118.786
G1 F1200 X104.542 Y113.027 E9.29307
G0 F6000 X104.825 Y112.744
G1 F1200 X110.3 Y118.22 E9.55062
G0 F6000 X110.3 Y117.654
G1 F1200 X105.107 Y112.461 E9.79489
G0 F6000 X105.39 Y112.178
G1 F1200 X110.3 Y117.089 E10.02586
G0 F6000 X110.3 Y116.523
G1 F1200 X105.673 Y111.896 E10.2435
G0 F6000 X105.956 Y111.613
G1 F1200 X110.3 Y115.957 E10.44783
G0 F6000 X110.3 Y115.392
G1 F1200 X106.239 Y111.33 E10.63887
G0 F6000 X106.534 Y111.059
G1 F1200 X110.3 Y114.826 E10.81603
G0 F6000 X110.3 Y114.26
G1 F1200 X107.099 Y111.059 E10.9666
G0 F6000 X107.665 Y111.059
G1 F1200 X110.3 Y113.694 E11.09054
G0 F6000 X110.3 Y113.129
G1 F1200 X108.231 Y111.059 E11.18788
G0 F6000 X108.796 Y111.059
G1 F1200 X110.3 Y112.563 E11.25863
G0 F6000 X110.3 Y111.997
G1 F1200 X109.362 Y111.059 E11.30275
G0 F6000 X109.928 Y111.059
G1 F1200 X110.3 Y111.432 E11.32027
G0 F6000 X110.851 Y111.432
G1 F2700 E6.32027
;MESH:ButtonsOctB.stl
G0 F6000 X111.431 Y124.499
G0 X112.526 Y124.499
G0 X122.055 Y124.499
G0 X123.15 Y124.499
G0 X123.721 Y124.499
;TYPE:WALL-INNER
G1 F2700 E11.32027
G1 F1200 X128.304 Y124.499 E11.4727
G1 X130.72 Y122.084 E11.58632
G1 X130.72 Y112.916 E11.89125
G1 X128.304 Y110.501 E12.00487
G1 X123.721 Y110.501 E12.1573
G1 X123.721 Y124.499 E12.62287
G0 F6000 X123.321 Y124.899
G1 F1200 X128.47 Y124.899 E12.79413
G1 X131.12 Y122.25 E12.91875
G1 X131.12 Y112.75 E13.23472
G1 X128.47 Y110.101 E13.35935
G1 X123.321 Y110.101 E13.53061
G1 X123.321 Y124.899 E14.02279
G0 F6000 X122.921 Y125.299
;TYPE:WALL-OUTER
G1 F1200 X128.636 Y125.299 E14.21287
G1 X131.52 Y122.416 E14.3485
G1 X131.52 Y112.584 E14.67552
G1 X128.636 Y109.701 E14.81115
G1 X122.921 Y109.701 E15.00123
G1 X122.921 Y125.299 E15.52002
G1 F2700 E10.52002
G0 F6000 X123.4 Y124.82
G0 X123.821 Y124.139
G1 F2700 E15.52002
G0 F6000 X124.081 Y124.139
;TYPE:SKIN
G1 F1200 X128.154 Y124.139 E15.65549
G1 X130.36 Y121.934 E15.75923
G1 X130.36 Y113.066 E16.05418
G1 X128.154 Y110.861 E16.15792
G1 X124.081 Y110.861 E16.29339
G1 X124.081 Y124.139 E16.73502
G0 F6000 X124.504 Y123.938
G1 F1200 X124.279 Y123.713 E16.7456
G0 F6000 X124.279 Y123.148
G1 F1200 X125.07 Y123.938 E16.78278
G0 F6000 X125.635 Y123.938
G1 F1200 X124.279 Y122.582 E16.84656
G0 F6000 X124.279 Y122.016
G1 F1200 X126.201 Y123.938 E16.93697
G0 F6000 X126.767 Y123.938
G1 F1200 X124.279 Y121.451 E17.05397
G0 F6000 X124.279 Y120.885
G1 F1200 X127.332 Y123.938 E17.19758
G0 F6000 X127.898 Y123.938
G1 F1200 X124.279 Y120.319 E17.3678
G0 F6000 X124.279 Y119.754
G1 F1200 X128.267 Y123.741 E17.55536
G0 F6000 X128.549 Y123.458
G1 F1200 X124.279 Y119.188 E17.75621
G0 F6000 X124.279 Y118.622
G1 F1200 X128.832 Y123.175 E17.97037
G0 F6000 X129.115 Y122.893
G1 F1200 X124.279 Y118.057 E18.19784
G0 F6000 X124.279 Y117.491
G1 F1200 X129.398 Y122.61 E18.43862
G0 F6000 X129.681 Y122.327
G1 F1200 X124.279 Y116.925 E18.69272
G0 F6000 X124.279 Y116.36
G1 F1200 X129.964 Y122.044 E18.9601
G0 F6000 X130.159 Y121.673
G1 F1200 X124.279 Y115.794 E19.23665
G0 F6000 X124.279 Y115.228
G1 F1200 X130.159 Y121.108 E19.51323
G0 F6000 X130.159 Y120.542
G1 F1200 X124.279 Y114.663 E19.78978
G0 F6000 X124.279 Y114.097
G1 F1200 X130.159 Y119.976 E20.06634
G0 F6000 X130.159 Y119.411
G1 F1200 X124.279 Y113.531 E20.34291
G0 F6000 X124.279 Y112.965
G1 F1200 X130.159 Y118.845 E20.61949
G0 F6000 X130.159 Y118.279
G1 F1200 X124.279 Y112.4 E20.89604
G0 F6000 X124.279 Y111.834
G1 F1200 X130.159 Y117.714 E21.17262
G0 F6000 X130.159 Y117.148
G1 F1200 X124.279 Y111.268 E21.4492
G0 F6000 X124.637 Y111.061
G1 F1200 X130.159 Y116.582 E21.70891
G0 F6000 X130.159 Y116.017
G1 F1200 X125.203 Y111.061 E21.94203
G0 F6000 X125.768 Y111.061
G1 F1200 X130.159 Y115.451 E22.14854
G0 F6000 X130.159 Y114.885
G1 F1200 X126.334 Y111.061 E22.32844
G0 F6000 X126.9 Y111.061
G1 F1200 X130.159 Y114.32 E22.48173
G0 F6000 X130.159 Y113.754
G1 F1200 X127.465 Y111.061 E22.60842
G0 F6000 X128.031 Y111.061
G1 F1200 X130.159 Y113.188 E22.70849
G0 F6000 X130.71 Y113.188
G1 F2700 E17.70849
;MESH:NONMESH
G0 F300 X130.71 Y113.188 Z0.4
G0 F6000 X130.556 Y122.016
G0 X128.236 Y124.335
G0 X123.15 Y124.5
G0 X122.055 Y124.5
G0 X112.526 Y124.5
G0 X111.431 Y124.5
G0 X110.861 Y124.5
;TIME_ELAPSED:46.515261
;LAYER:1
M140 S50
M106 S85
;TYPE:WALL-INNER
;MESH:ButtonsOctA.stl
G1 F2700 E22.70849
G1 F1350 X110.861 Y110.5 E23.17414
G1 X106.277 Y110.5 E23.3266
G1 X103.861 Y112.916 E23.44024
G1 X103.861 Y122.084 E23.74517
G1 X106.277 Y124.5 E23.85881
G1 X110.861 Y124.5 E24.01128
G0 F7500 X111.261 Y124.9
G1 F1350 X111.261 Y110.1 E24.50353
G1 X106.111 Y110.1 E24.67482
G1 X103.461 Y112.75 E24.79946
G1 X103.461 Y122.25 E25.11544
G1 X106.111 Y124.9 E25.24008
G1 X111.261 Y124.9 E25.41137
G0 F7500 X111.661 Y125.3
;TYPE:WALL-OUTER
G1 F1350 X111.661 Y109.7 E25.93023
G1 X105.945 Y109.7 E26.12035
G1 X103.061 Y112.584 E26.256
G1 X103.061 Y122.416 E26.58301
G1 X105.945 Y125.3 E26.71867
G1 X111.661 Y125.3 E26.90878
G1 F2700 E21.90878
G0 F7500 X111.181 Y124.82
G0 X110.761 Y124.14
G1 F2700 E26.90878
G0 F7500 X110.501 Y124.14
;TYPE:SKIN
G1 F1350 X110.501 Y110.86 E27.35048
G1 X106.427 Y110.86 E27.48598
G1 X104.221 Y113.066 E27.58974
G1 X104.221 Y121.934 E27.88469
G1 X106.427 Y124.14 E27.98846
G1 X110.501 Y124.14 E28.12396
G0 F7500 X109.688 Y123.939
G1 F1350 X110.3 Y123.327 E28.15275
G0 F7500 X110.3 Y122.761
G1 F1350 X109.122 Y123.939 E28.20816
G0 F7500 X108.557 Y123.939
G1 F1350 X110.3 Y122.195 E28.29016
G0 F7500 X110.3 Y121.63
G1 F1350 X107.991 Y123.939 E28.39877
G0 F7500 X107.425 Y123.939
G1 F1350 X110.3 Y121.064 E28.534
G0 F7500 X110.3 Y120.498
G1 F1350 X106.86 Y123.939 E28.69583
G0 F7500 X106.402 Y123.831
G1 F1350 X110.3 Y119.933 E28.87918
G0 F7500 X110.3 Y119.367
G1 F1350 X106.119 Y123.548 E29.07585
G0 F7500 X105.836 Y123.265
G1 F1350 X110.3 Y118.801 E29.28582
G0 F7500 X110.3 Y118.236
G1 F1350 X105.554 Y122.982 E29.50906
G0 F7500 X105.271 Y122.699
G1 F1350 X110.3 Y117.67 E29.7456
G0 F7500 X110.3 Y117.104
G1 F1350 X104.988 Y122.417 E29.99549
G0 F7500 X104.705 Y122.134
G1 F1350 X110.3 Y116.538 E30.25868
G0 F7500 X110.3 Y115.973
G1 F1350 X104.422 Y121.851 E30.53517
G0 F7500 X104.421 Y121.287
G1 F1350 X110.3 Y115.407 E30.81172
G0 F7500 X110.3 Y114.841
G1 F1350 X104.421 Y120.721 E31.08827
G0 F7500 X104.421 Y120.155
G1 F1350 X110.3 Y114.276 E31.3648
G0 F7500 X110.3 Y113.71
G1 F1350 X104.421 Y119.59 E31.64136
G0 F7500 X104.421 Y119.024
G1 F1350 X110.3 Y113.144 E31.91791
G0 F7500 X110.3 Y112.579
G1 F1350 X104.421 Y118.458 E32.19444
G0 F7500 X104.421 Y117.893
G1 F1350 X110.3 Y112.013 E32.471
G0 F7500 X110.3 Y111.447
G1 F1350 X104.421 Y117.327 E32.74755
G0 F7500 X104.421 Y116.761
G1 F1350 X110.124 Y111.058 E33.0158
G0 F7500 X109.558 Y111.058
G1 F1350 X104.421 Y116.196 E33.25745
G0 F7500 X104.421 Y115.63
G1 F1350 X108.992 Y111.058 E33.47248
G0 F7500 X108.427 Y111.058
G1 F1350 X104.421 Y115.064 E33.66091
G0 F7500 X104.421 Y114.498
G1 F1350 X107.861 Y111.058 E33.82272
G0 F7500 X107.295 Y111.058
G1 F1350 X104.421 Y113.933 E33.95793
G0 F7500 X104.421 Y113.367
G1 F1350 X106.729 Y111.058 E34.06651
G0 F7500 X106.729 Y110.51
G1 F2700 E29.06651
;MESH:ButtonsOctB.stl
G0 F7500 X110.689 Y110.672
G0 X111.431 Y124.499
G0 X112.526 Y124.499
G0 X122.055 Y124.499
G0 X123.15 Y124.499
G0 X123.721 Y124.499
;TYPE:WALL-INNER
G1 F2700 E34.06651
G1 F1350 X128.304 Y124.499 E34.21894
G1 X130.72 Y122.084 E34.33256
G1 X130.72 Y112.916 E34.63749
G1 X128.304 Y110.501 E34.75111
G1 X123.721 Y110.501 E34.90354
G1 X123.721 Y124.499 E35.36911
G0 F7500 X123.321 Y124.899
G1 F1350 X128.47 Y124.899 E35.54037
G1 X131.12 Y122.25 E35.66499
G1 X131.12 Y112.75 E35.98097
G1 X128.47 Y110.101 E36.10559
G1 X123.321 Y110.101 E36.27685
G1 X123.321 Y124.899 E36.76903
G0 F7500 X122.921 Y125.299
;TYPE:WALL-OUTER
G1 F1350 X128.636 Y125.299 E36.95911
G1 X131.52 Y122.416 E37.09474
G1 X131.52 Y112.584 E37.42176
G1 X128.636 Y109.701 E37.55739
G1 X122.921 Y109.701 E37.74747
G1 X122.921 Y125.299 E38.26626
G1 F2700 E33.26626
G0 F7500 X123.4 Y124.82
G0 X123.821 Y124.139
G1 F2700 E38.26626
G0 F7500 X124.081 Y124.139
;TYPE:SKIN
G1 F1350 X128.154 Y124.139 E38.40173
G1 X130.36 Y121.934 E38.50547
G1 X130.36 Y113.066 E38.80042
G1 X128.154 Y110.861 E38.90416
G1 X124.081 Y110.861 E39.03963
G1 X124.081 Y124.139 E39.48126
G0 F7500 X123.821 Y124.139
G0 X128.236 Y124.335
G0 X130.556 Y122.016
G0 X130.62 Y121.57
G0 X130.159 Y121.57
G1 F1350 X127.79 Y123.939 E39.59269
G0 F7500 X127.224 Y123.939
G1 F1350 X130.159 Y121.005 E39.73072
G0 F7500 X130.159 Y120.439
G1 F1350 X126.659 Y123.939 E39.89535
G0 F7500 X126.093 Y123.939
G1 F1350 X130.159 Y119.873 E40.0866
G0 F7500 X130.159 Y119.308
G1 F1350 X125.527 Y123.939 E40.30445
G0 F7500 X124.962 Y123.939
G1 F1350 X130.159 Y118.742 E40.5489
G0 F7500 X130.159 Y118.176
G1 F1350 X124.396 Y123.939 E40.81997
G0 F7500 X124.28 Y123.489
G1 F1350 X130.159 Y117.61 E41.09651
G0 F7500 X130.159 Y117.045
G1 F1350 X124.28 Y122.924 E41.37304
G0 F7500 X124.28 Y122.358
G1 F1350 X130.159 Y116.479 E41.64957
G0 F7500 X130.159 Y115.913
G1 F1350 X124.28 Y121.792 E41.9261
G0 F7500 X124.28 Y121.227
G1 F1350 X130.159 Y115.348 E42.20263
G0 F7500 X130.159 Y114.782
G1 F1350 X124.28 Y120.661 E42.47916
G0 F7500 X124.28 Y120.095
G1 F1350 X130.159 Y114.216 E42.75569
G0 F7500 X130.159 Y113.651
G1 F1350 X124.28 Y119.53 E43.03222
G0 F7500 X124.28 Y118.964
G1 F1350 X130.127 Y113.117 E43.30724
G0 F7500 X129.844 Y112.834
G1 F1350 X124.28 Y118.398 E43.56895
G0 F7500 X124.28 Y117.832
G1 F1350 X129.561 Y112.551 E43.81736
G0 F7500 X129.278 Y112.268
G1 F1350 X124.28 Y117.267 E44.05247
G0 F7500 X124.28 Y116.701
G1 F1350 X128.996 Y111.985 E44.2743
G0 F7500 X128.713 Y111.703
G1 F1350 X124.28 Y116.135 E44.48279
G0 F7500 X124.28 Y115.57
G1 F1350 X128.43 Y111.42 E44.67799
G0 F7500 X128.147 Y111.137
G1 F1350 X124.28 Y115.004 E44.85988
G0 F7500 X124.28 Y114.438
G1 F1350 X127.658 Y111.061 E45.01875
G0 F7500 X127.092 Y111.061
G1 F1350 X124.28 Y113.873 E45.15102
G0 F7500 X124.28 Y113.307
G1 F1350 X126.526 Y111.061 E45.25666
G0 F7500 X125.961 Y111.061
G1 F1350 X124.28 Y112.741 E45.33571
G0 F7500 X124.28 Y112.176
G1 F1350 X125.395 Y111.061 E45.38815
G0 F7500 X124.829 Y111.061
G1 F1350 X124.28 Y111.61 E45.41398
G0 F7500 X123.73 Y111.61
G1 F2700 E40.41398
;MESH:NONMESH
G0 F300 X123.73 Y111.61 Z0.6
G0 F7500 X123.15 Y124.5
G0 X122.055 Y124.5
G0 X112.526 Y124.5
G0 X111.431 Y124.5
G0 X110.861 Y124.5
;TIME_ELAPSED:85.507759
;LAYER:2
M106 S170
;TYPE:WALL-INNER
;MESH:ButtonsOctA.stl
G1 F2700 E45.41398
G1 F1500 X110.861 Y110.5 E45.87962
G1 X106.277 Y110.5 E46.03208
G1 X103.861 Y112.916 E46.14573
G1 X103.861 Y122.084 E46.45065
G1 X106.277 Y124.5 E46.5643
G1 X110.861 Y124.5 E46.71676
G0 F9000 X111.261 Y124.9
G1 F1500 X111.261 Y110.1 E47.20901
G1 X106.111 Y110.1 E47.3803
G1 X103.461 Y112.75 E47.50495
G1 X103.461 Y122.25 E47.82092
G1 X106.111 Y124.9 E47.94557
G1 X111.261 Y124.9 E48.11686
G0 F9000 X111.661 Y125.3
;TYPE:WALL-OUTER
G1 F1500 X111.661 Y109.7 E48.63571
G1 X105.945 Y109.7 E48.82583
G1 X103.061 Y112.584 E48.96148
G1 X103.061 Y122.416 E49.2885
G1 X105.945 Y125.3 E49.42415
G1 X111.661 Y125.3 E49.61427
G1 F2700 E44.61427
G0 F9000 X111.181 Y124.82
G0 X110.761 Y124.14
G1 F2700 E49.61427
G0 F9000 X110.501 Y124.14
;TYPE:SKIN
G1 F1500 X110.501 Y110.86 E50.05596
G1 X106.427 Y110.86 E50.19146
G1 X104.221 Y113.066 E50.29523
G1 X104.221 Y121.934 E50.59018
G1 X106.427 Y124.14 E50.69394
G1 X110.501 Y124.14 E50.82944
G0 F9000 X110.761 Y124.14
G0 X106.345 Y124.336
G0 X104.025 Y122.016
G0 X103.961 Y121.391
G0 X104.421 Y121.391
G1 F1500 X106.968 Y123.938 E50.94925
G0 F9000 X107.533 Y123.938
G1 F1500 X104.421 Y120.826 E51.09563
G0 F9000 X104.421 Y120.26
G1 F1500 X108.099 Y123.938 E51.26863
G0 F9000 X108.665 Y123.938
G1 F1500 X104.421 Y119.694 E51.46825
G0 F9000 X104.421 Y119.129
G1 F1500 X109.231 Y123.938 E51.69448
G0 F9000 X109.796 Y123.938
G1 F1500 X104.421 Y118.563 E51.9473
G0 F9000 X104.421 Y117.997
G1 F1500 X110.3 Y123.877 E52.22385
G0 F9000 X110.3 Y123.311
G1 F1500 X104.421 Y117.432 E52.50038
G0 F9000 X104.421 Y116.866
G1 F1500 X110.3 Y122.745 E52.77691
G0 F9000 X110.3 Y122.18
G1 F1500 X104.421 Y116.3 E53.05347
G0 F9000 X104.421 Y115.734
G1 F1500 X110.3 Y121.614 E53.33002
G0 F9000 X110.3 Y121.048
G1 F1500 X104.421 Y115.169 E53.60655
G0 F9000 X104.421 Y114.603
G1 F1500 X110.3 Y120.483 E53.8831
G0 F9000 X110.3 Y119.917
G1 F1500 X104.421 Y114.037 E54.15966
G0 F9000 X104.421 Y113.472
G1 F1500 X110.3 Y119.351 E54.43619
G0 F9000 X110.3 Y118.786
G1 F1500 X104.542 Y113.027 E54.70705
G0 F9000 X104.825 Y112.744
G1 F1500 X110.3 Y118.22 E54.9646
G0 F9000 X110.3 Y117.654
G1 F1500 X105.107 Y112.461 E55.20886
G0 F9000 X105.39 Y112.178
G1 F1500 X110.3 Y117.089 E55.43984
G0 F9000 X110.3 Y116.523
G1 F1500 X105.673 Y111.896 E55.65748
G0 F9000 X105.956 Y111.613
G1 F1500 X110.3 Y115.957 E55.86181
G0 F9000 X110.3 Y115.392
G1 F1500 X106.239 Y111.33 E56.05285
G0 F9000 X106.534 Y111.059
G1 F1500 X110.3 Y114.826 E56.23001
G0 F9000 X110.3 Y114.26
G1 F1500 X107.099 Y111.059 E56.38058
G0 F9000 X107.665 Y111.059
G1 F1500 X110.3 Y113.694 E56.50452
G0 F9000 X110.3 Y113.129
G1 F1500 X108.231 Y111.059 E56.60186
G0 F9000 X108.796 Y111.059
G1 F1500 X110.3 Y112.563 E56.67261
G0 F9000 X110.3 Y111.997
G1 F1500 X109.362 Y111.059 E56.71673
G0 F9000 X109.928 Y111.059
