;FLAVOR:Marlin
;TIME:498
;Filament used: 0.206947m
;Layer height: 0.2
;MINX:83.305
;MINY:113.623
;MINZ:0.2
;MAXX:142.503
;MAXY:127.781
;MAXZ:9.6
;Generated with Cura_SteamEngine 99.10.0-Arachne_engine_beta_2
M140 S60
M105
M190 S60
M104 S205
M105
M109 S205
M82 ;absolute extrusion mode
; Ender 3 Custom Start G-code
G92 E0 ; Reset Extruder
G28 ; Home all axes
;G29 ; Auto bed leveling (ABL)
G1 Z2.0 F3000 ; Move Z Axis up little to prevent scratching of Heat Bed
G1 X0.1 Y20 Z0.3 F5000.0 ; Move to start position
G1 X0.1 Y200.0 Z0.3 F1500.0 E15 ; Draw the first line
G1 X0.4 Y200.0 Z0.3 F5000.0 ; Move to side a little
G1 X0.4 Y20 Z0.3 F1500.0 E30 ; Draw the second line
G92 E0 ; Reset Extruder
G1 Z2.0 F3000 ; Move Z Axis up little to prevent scratching of Heat Bed
G1 X5 Y20 Z0.3 F5000.0 ; Move over to prevent blob squish
G92 E0
G92 E0
G1 F2700 E-5
;LAYER_COUNT:48
;LAYER:0
M107
;MESH:OpenDials-ModeButton.stl
G0 F6000 X89.786 Y126.934 Z0.2
;TYPE:WALL-INNER
G1 F2700 E0
G1 F1200 X90.74 Y126.707 E0.03262
G1 X91.578 Y126.325 E0.06325
G1 X92.374 Y125.763 E0.09566
G1 X93.014 Y125.092 E0.1265
G1 X93.533 Y124.295 E0.15813
G1 X93.887 Y123.419 E0.18956
G1 X94.072 Y122.484 E0.22126
G1 X94.076 Y121.536 E0.25279
G1 X93.895 Y120.577 E0.28525
G1 X93.544 Y119.698 E0.31673
G1 X93.031 Y118.904 E0.34817
G1 X92.391 Y118.231 E0.37906
G1 X91.6 Y117.664 E0.41143
G1 X90.738 Y117.27 E0.44295
G1 X89.812 Y117.045 E0.47465
G1 X88.868 Y117 E0.50608
G1 X87.951 Y117.132 E0.53689
G1 X87.022 Y117.447 E0.56952
G1 X86.214 Y117.916 E0.60059
G1 X85.491 Y118.542 E0.6324
G1 X84.916 Y119.271 E0.66328
G1 X84.466 Y120.137 E0.69574
G1 X84.199 Y121.045 E0.72722
G1 X84.109 Y121.99 E0.75879
G1 X84.199 Y122.932 E0.79027
G1 X84.466 Y123.844 E0.82187
G1 X84.889 Y124.664 E0.85256
G1 X85.493 Y125.438 E0.88522
G1 X86.188 Y126.041 E0.91582
G1 X87.03 Y126.533 E0.94826
G1 X87.9 Y126.834 E0.97888
G1 X88.87 Y126.978 E1.01149
G1 X89.786 Y126.934 E1.04199
G0 F6000 X89.842 Y127.332
G1 F1200 X90.871 Y127.087 E1.07717
G1 X91.778 Y126.673 E1.11033
G1 X92.637 Y126.067 E1.1453
G1 X93.329 Y125.342 E1.17863
G1 X93.889 Y124.481 E1.2128
G1 X94.272 Y123.534 E1.24677
G1 X94.472 Y122.524 E1.28102
G1 X94.476 Y121.499 E1.31511
G1 X94.281 Y120.465 E1.35011
G1 X93.901 Y119.514 E1.38417
G1 X93.347 Y118.655 E1.41816
G1 X92.655 Y117.928 E1.45155
G1 X91.802 Y117.316 E1.48646
G1 X90.869 Y116.89 E1.52058
G1 X89.869 Y116.647 E1.55481
G1 X88.848 Y116.599 E1.5888
G1 X87.857 Y116.742 E1.6221
G1 X86.856 Y117.081 E1.65726
G1 X85.98 Y117.589 E1.69094
G1 X85.2 Y118.264 E1.72524
G1 X84.579 Y119.053 E1.75864
G1 X84.093 Y119.987 E1.79366
G1 X83.804 Y120.969 E1.82771
G1 X83.707 Y121.99 E1.86182
G1 X83.804 Y123.008 E1.89583
G1 X84.093 Y123.993 E1.92997
G1 X84.55 Y124.881 E1.96319
G1 X85.202 Y125.714 E1.99837
G1 X85.954 Y126.368 E2.03152
G1 X86.862 Y126.899 E2.0665
G1 X87.805 Y127.224 E2.09968
G1 X88.85 Y127.379 E2.13482
G1 X89.842 Y127.332 E2.16785
G0 F6000 X89.898 Y127.73
;TYPE:WALL-OUTER
G1 F1200 X91.001 Y127.467 E2.20556
G1 X91.978 Y127.021 E2.24128
G1 X92.899 Y126.371 E2.27878
G1 X93.644 Y125.591 E2.31465
G1 X94.245 Y124.667 E2.35131
G1 X94.657 Y123.649 E2.38784
G1 X94.872 Y122.564 E2.42463
G1 X94.876 Y121.463 E2.46125
G1 X94.667 Y120.353 E2.49881
G1 X94.258 Y119.33 E2.53546
G1 X93.663 Y118.407 E2.57198
G1 X92.919 Y117.625 E2.60788
G1 X92.004 Y116.968 E2.64535
G1 X91.001 Y116.51 E2.68202
G1 X89.926 Y116.249 E2.71882
G1 X88.829 Y116.197 E2.75534
G1 X87.763 Y116.351 E2.79117
G1 X86.69 Y116.715 E2.82885
G1 X85.747 Y117.262 E2.86511
G1 X84.91 Y117.986 E2.90192
G1 X84.241 Y118.835 E2.93787
G1 X83.72 Y119.837 E2.97543
G1 X83.41 Y120.893 E3.01204
G1 X83.305 Y121.99 E3.04869
G1 X83.41 Y123.084 E3.08524
G1 X83.72 Y124.142 E3.12191
G1 X84.212 Y125.097 E3.15764
G1 X84.91 Y125.991 E3.19537
G1 X85.72 Y126.694 E3.23104
G1 X86.694 Y127.264 E3.26858
G1 X87.709 Y127.614 E3.30429
G1 X88.83 Y127.781 E3.34198
G1 X89.898 Y127.73 E3.37754
G0 F6000 X89.832 Y127.224
G0 X89.743 Y126.836
G0 X89.732 Y126.576
;TYPE:SKIN
G1 F1200 X90.623 Y126.363 E3.40801
G1 X91.398 Y126.009 E3.43635
G1 X92.135 Y125.488 E3.46637
G1 X92.731 Y124.866 E3.49502
G1 X93.213 Y124.126 E3.5244
G1 X93.538 Y123.318 E3.55336
G1 X93.712 Y122.445 E3.58297
G1 X93.715 Y121.567 E3.61217
G1 X93.547 Y120.678 E3.64226
G1 X93.222 Y119.863 E3.67145
G1 X92.748 Y119.13 E3.70048
G1 X92.152 Y118.504 E3.72923
G1 X91.42 Y117.978 E3.75921
G1 X90.62 Y117.613 E3.78846
G1 X89.757 Y117.403 E3.818
G1 X88.886 Y117.362 E3.847
G1 X88.049 Y117.483 E3.87513
G1 X87.167 Y117.778 E3.90606
G1 X86.43 Y118.208 E3.93444
G1 X85.755 Y118.79 E3.96408
G1 X85.219 Y119.469 E3.99285
G1 X84.802 Y120.274 E4.02301
G1 X84.555 Y121.116 E4.05219
G1 X84.471 Y121.991 E4.08143
G1 X84.555 Y122.862 E4.11053
G1 X84.802 Y123.707 E4.13981
G1 X85.193 Y124.466 E4.16821
G1 X85.758 Y125.189 E4.19873
G1 X86.403 Y125.751 E4.22718
G1 X87.176 Y126.201 E4.25693
G1 X87.985 Y126.481 E4.28541
G1 X88.89 Y126.616 E4.31584
G1 X89.732 Y126.576 E4.34388
G0 F6000 X89.743 Y126.836
G0 X88.427 Y126.75
G0 X87.939 Y126.677
G0 X87.098 Y126.387
G0 X86.282 Y125.91
G0 X86.093 Y125.745
G0 X85.129 Y124.808
G0 X85.493 Y124.525
G1 F1200 X86.604 Y125.636 E4.39614
G0 F6000 X86.372 Y126.032
G0 X87.553 Y126.606
G0 X87.704 Y126.171
G1 F1200 X84.916 Y123.383 E4.52727
G0 F6000 X84.734 Y122.634
G1 F1200 X88.445 Y126.346 E4.70185
G0 F6000 X89.07 Y126.405
G1 F1200 X84.673 Y122.008 E4.90867
G0 F6000 X84.719 Y121.488
G1 F1200 X89.61 Y126.38 E5.13875
G0 F6000 X90.081 Y126.285
G1 F1200 X84.796 Y121 E5.38734
G0 F6000 X84.924 Y120.563
G1 F1200 X90.537 Y126.176 E5.65136
G0 F6000 X90.929 Y126.002
G1 F1200 X85.086 Y120.158 E5.92622
G0 F6000 X85.279 Y119.786
G1 F1200 X91.315 Y125.821 E6.21011
G0 F6000 X91.646 Y125.587
G1 F1200 X85.496 Y119.438 E6.49937
G0 F6000 X85.745 Y119.121
G1 F1200 X91.977 Y125.353 E6.7925
G0 F6000 X92.259 Y125.068
G1 F1200 X86.017 Y118.827 E7.08608
G0 F6000 X86.32 Y118.564
G1 F1200 X92.536 Y124.78 E7.37847
G0 F6000 X92.766 Y124.445
G1 F1200 X86.638 Y118.316 E7.66673
G0 F6000 X86.996 Y118.108
G1 F1200 X92.99 Y124.102 E7.94867
G0 F6000 X93.164 Y123.711
G1 F1200 X87.372 Y117.919 E8.22111
G0 F6000 X87.796 Y117.777
G1 F1200 X93.326 Y123.308 E8.48125
G0 F6000 X93.428 Y122.844
G1 F1200 X88.241 Y117.656 E8.72525
G0 F6000 X88.735 Y117.585
G1 F1200 X93.512 Y122.362 E8.94995
G0 F6000 X93.514 Y121.798
G1 F1200 X89.296 Y117.581 E9.14832
G0 F6000 X89.932 Y117.651
G1 F1200 X93.433 Y121.152 E9.313
G0 F6000 X93.204 Y120.357
G1 F1200 X90.728 Y117.881 E9.42946
G0 F6000 X90.957 Y117.38
G1 F2700 E4.42946
;MESH:OpenDials-ButtonsDetailA.stl
G0 F6000 X92.767 Y117.798
G0 X93.558 Y117.043
G0 X113.93 Y115.97
G0 X114.896 Y115.477
G0 X116.13 Y117.486
G0 X117.626 Y118.846
;TYPE:WALL-INNER
G1 F2700 E9.42946
G1 F808.1 X117.986 Y118.141 E9.46856
G1 X117.014 Y118.141 E9.51657
G1 X117.374 Y118.846 E9.55567
G1 X117.626 Y118.846 E9.56811
G0 F6000 X118.698 Y117.705
G0 X119.059 Y117.285
G1 F1445.8 X118.701 Y117.833 E9.58618
G1 F1200 X117.931 Y119.343 E9.64256
G1 X117.069 Y119.343 E9.67123
G1 X116.299 Y117.833 E9.72761
G1 F1424.3 X115.986 Y117.366 E9.74336
G1 X116.415 Y117.643 E9.75767
G1 F1200 X118.585 Y117.643 E9.82984
G1 F1445.8 X119.059 Y117.285 E9.84624
G1 F2700 E4.84624
G0 F6000 X118.698 Y117.705
G0 X117.875 Y119.248
G1 F2700 E9.84624
G0 F6000 X118.176 Y119.743
;TYPE:WALL-OUTER
G1 F1200 X120.463 Y115.257 E10.01372
G1 X119.619 Y115.257 E10.04179
G1 X118.768 Y117.126 E10.11009
G1 X118.585 Y117.243 E10.11732
G1 X116.415 Y117.243 E10.18949
G1 X116.236 Y117.134 E10.19646
G1 X115.381 Y115.257 E10.26506
G1 X114.537 Y115.257 E10.29313
G1 X116.824 Y119.743 E10.46061
G1 X118.176 Y119.743 E10.50558
G0 F6000 X117.875 Y119.248
G0 X118.698 Y117.705
G0 X119.059 Y117.285
;TYPE:WALL-INNER
G1 F1825.1 X119.069 Y117.263 E10.50611
G1 F1589.4 X119.857 Y115.628 E10.55168
G0 F6000 X118.87 Y117.486
G0 X116.302 Y117.705
G0 X115.986 Y117.366
G1 F1797.8 X115.941 Y117.285 E10.55374
G1 F1594.7 X115.143 Y115.628 E10.59977
G1 F2700 E5.59977
;MESH:OpenDials-ButtonsDetailB.stl
G0 F6000 X116.13 Y117.486
G0 X118.87 Y117.486
G0 X120.104 Y115.477
G0 X121.071 Y115.969
G0 X139.218 Y117.545
G0 X140.298 Y117.714
G0 X140.886 Y117.707
;TYPE:WALL-INNER
G1 F2700 E10.59977
G1 F1283.4 X141.219 Y117.798 E10.61051
G1 X141.516 Y117.821 E10.61977
G1 X141.716 Y117.826 E10.62599
G1 X141.716 Y117.371 E10.64014
G1 X141.471 Y117.458 E10.64823
G1 X140.987 Y117.618 E10.66408
G1 X140.886 Y117.707 E10.66827
G0 F6000 X142.027 Y116.439
G0 X142.122 Y116.041
G0 X141.336 Y114.465
G1 F1523.8 X141.39 Y114.635 E10.67294
G1 X141.746 Y114.791 E10.68312
G1 X141.746 Y114.383 E10.6938
G1 X141.43 Y114.41 E10.70211
G1 X141.336 Y114.465 E10.70496
G0 F6000 X142.043 Y115.369
G0 X142.044 Y115.452
G1 F1200 X142.103 Y115.547 E10.70868
G1 X142.103 Y114.023 E10.75937
G1 X141.764 Y114.023 E10.77065
G1 X141.368 Y114.056 E10.78386
G1 X141.119 Y114.149 E10.7927
G1 X140.993 Y114.319 E10.79974
G1 X140.984 Y114.583 E10.80853
G1 X141.084 Y114.82 E10.81708
G1 X141.234 Y114.964 E10.824
G1 X141.628 Y115.128 E10.83819
G1 X141.858 Y115.265 E10.8471
G1 X142.044 Y115.452 E10.85587
G0 F6000 X142.176 Y116.254
G1 F1467.9 X142.103 Y116.69 E10.86789
G1 F1200 X142.103 Y118.222 E10.91885
G1 X141.707 Y118.222 E10.93202
G1 X141.208 Y118.187 E10.94865
G1 X141.142 Y118.177 E10.95087
G1 X140.754 Y118.071 E10.96425
G1 X140.537 Y117.924 E10.97297
G1 X140.473 Y117.714 E10.98027
G1 X140.518 Y117.563 E10.98551
G1 X140.702 Y117.334 E10.99528
G1 X140.901 Y117.238 E11.00263
G1 X141.565 Y117.018 E11.0259
G1 X141.86 Y116.852 E11.03716
G1 X142.041 Y116.672 E11.04565
G1 F1307.9 X142.133 Y116.472 E11.05236
G1 F1632.7 X142.176 Y116.254 E11.0578
G1 F2700 E6.0578
G0 F6000 X142.062 Y116.714
G0 X141.707 Y118.112
G1 F2700 E11.0578
G0 F6000 X141.707 Y118.622
;TYPE:WALL-OUTER
G1 F1200 X142.503 Y118.622 E11.08427
G1 X142.503 Y113.623 E11.25054
G1 X141.748 Y113.623 E11.27565
G1 X141.299 Y113.66 E11.29063
G1 X141.023 Y113.75 E11.30029
G1 X140.771 Y113.917 E11.31034
G1 X140.636 Y114.134 E11.31884
G1 X140.575 Y114.413 E11.32834
G1 X140.617 Y114.75 E11.33964
G1 X140.743 Y115.031 E11.34988
G1 X140.834 Y115.166 E11.3553
G1 X141.036 Y115.315 E11.36364
G1 X141.474 Y115.498 E11.37943
G1 X141.705 Y115.664 E11.38889
G1 X141.861 Y115.971 E11.40035
G1 X141.823 Y116.272 E11.41044
G1 X141.644 Y116.515 E11.42048
G1 X141.44 Y116.638 E11.4284
G1 X140.775 Y116.858 E11.4517
G1 X140.452 Y117.015 E11.46364
G1 X140.204 Y117.282 E11.47576
G1 X140.098 Y117.523 E11.48452
G1 X140.07 Y117.702 E11.49054
G1 X140.092 Y117.933 E11.49826
G1 X140.209 Y118.163 E11.50684
G1 X140.422 Y118.347 E11.51621
G1 X140.69 Y118.474 E11.52607
G1 X141.062 Y118.569 E11.53884
G1 X141.18 Y118.586 E11.54281
G1 X141.707 Y118.622 E11.56037
G0 F6000 X141.707 Y118.112
G0 X142.062 Y116.714
G0 X142.176 Y116.254
;TYPE:WALL-INNER
G1 F1927.7 X142.182 Y115.971 E11.56624
G0 F6000 X141.693 Y115.074
G1 F2700 E6.56624
;MESH:NONMESH
G0 F300 X141.693 Y115.074 Z0.4
G0 F6000 X141.706 Y115.044
G0 X140.814 Y114.615
G0 X139.769 Y114.935
G0 X118.703 Y120.602
G0 X94.381 Y126.044
G0 X93.464 Y125.449
G0 X89.812 Y126.933
;TIME_ELAPSED:29.775108
;LAYER:1
M140 S50
M106 S85
;TYPE:WALL-INNER
;MESH:OpenDials-ModeButton.stl
G1 F2700 E11.56624
G1 F1350 X90.738 Y126.708 E11.59793
G1 X91.602 Y126.314 E11.62951
G1 X92.373 Y125.764 E11.66101
G1 X93.031 Y125.074 E11.69273
G1 X93.545 Y124.275 E11.72432
G1 X93.895 Y123.398 E11.75573
G1 X94.077 Y122.461 E11.78748
G1 X94.077 Y121.512 E11.81904
G1 X93.987 Y121.046 E11.83483
G1 X93.896 Y120.58 E11.85062
G1 X93.544 Y119.698 E11.8822
G1 X93.031 Y118.904 E11.91365
G1 X92.708 Y118.565 E11.92922
G1 X92.373 Y118.213 E11.94538
G1 X91.602 Y117.664 E11.97686
G1 X90.738 Y117.27 E12.00845
G1 X90.277 Y117.158 E12.02422
G1 X89.812 Y117.045 E12.04014
G1 X88.868 Y117 E12.07157
G1 X87.925 Y117.136 E12.10326
G1 X87.024 Y117.446 E12.13495
G1 X86.214 Y117.916 E12.1661
G1 X85.491 Y118.542 E12.19791
G1 X84.901 Y119.291 E12.22962
G1 X84.466 Y120.134 E12.26117
G1 X84.199 Y121.046 E12.29278
G1 X84.109 Y121.99 E12.32432
G1 X84.199 Y122.932 E12.35579
G1 X84.466 Y123.844 E12.3874
G1 X84.901 Y124.687 E12.41895
G1 X85.491 Y125.436 E12.45066
G1 X86.211 Y126.061 E12.48237
G1 X87.024 Y126.53 E12.51359
G1 X87.926 Y126.842 E12.54534
G1 X88.868 Y126.978 E12.57699
G1 X89.812 Y126.933 E12.60843
G0 F7500 X89.869 Y127.331
G1 F1350 X90.869 Y127.088 E12.64265
G1 X91.803 Y126.662 E12.6768
G1 X92.636 Y126.068 E12.71083
G1 X93.347 Y125.323 E12.74508
G1 X93.903 Y124.459 E12.77925
G1 X94.281 Y123.511 E12.8132
G1 X94.477 Y122.499 E12.84748
G1 X94.477 Y121.474 E12.88157
G1 X94.281 Y120.466 E12.91573
G1 X93.901 Y119.514 E12.94982
G1 X93.347 Y118.655 E12.98382
G1 X92.636 Y117.909 E13.01809
G1 X91.803 Y117.316 E13.0521
G1 X90.869 Y116.89 E13.08624
G1 X89.869 Y116.647 E13.12047
G1 X88.848 Y116.599 E13.15447
G1 X87.83 Y116.745 E13.18867
G1 X86.857 Y117.081 E13.22291
G1 X85.98 Y117.589 E13.25662
G1 X85.2 Y118.264 E13.29093
G1 X84.563 Y119.073 E13.32518
G1 X84.093 Y119.985 E13.3593
G1 X83.804 Y120.97 E13.39344
G1 X83.707 Y121.99 E13.42752
G1 X83.804 Y123.008 E13.46153
G1 X84.093 Y123.993 E13.49568
G1 X84.563 Y124.904 E13.52977
G1 X85.201 Y125.714 E13.56407
G1 X85.977 Y126.389 E13.59827
G1 X86.857 Y126.895 E13.63204
G1 X87.831 Y127.233 E13.66633
G1 X88.848 Y127.379 E13.7005
G1 X89.869 Y127.331 E13.73449
G0 F7500 X89.926 Y127.729
;TYPE:WALL-OUTER
G1 F1350 X91.001 Y127.468 E13.77129
G1 X92.004 Y127.01 E13.80796
G1 X92.899 Y126.372 E13.84452
G1 X93.663 Y125.571 E13.88133
G1 X94.26 Y124.643 E13.91804
G1 X94.667 Y123.624 E13.95453
G1 X94.877 Y122.537 E13.99135
G1 X94.877 Y121.436 E14.02797
G1 X94.667 Y120.353 E14.06466
G1 X94.258 Y119.33 E14.10131
G1 X93.663 Y118.407 E14.13783
G1 X92.899 Y117.605 E14.17467
G1 X92.004 Y116.968 E14.21121
G1 X91.001 Y116.51 E14.24788
G1 X89.926 Y116.249 E14.28468
G1 X88.829 Y116.197 E14.32121
G1 X87.736 Y116.355 E14.35794
G1 X86.69 Y116.715 E14.39473
G1 X85.747 Y117.262 E14.43099
G1 X84.91 Y117.986 E14.4678
G1 X84.225 Y118.856 E14.50463
G1 X83.72 Y119.836 E14.54129
G1 X83.41 Y120.894 E14.57796
G1 X83.305 Y121.99 E14.61458
G1 X83.41 Y123.084 E14.65114
G1 X83.72 Y124.142 E14.68781
G1 X84.225 Y125.122 E14.72447
G1 X84.91 Y125.991 E14.76128
G1 X85.744 Y126.716 E14.79803
G1 X86.69 Y127.261 E14.83434
G1 X87.736 Y127.623 E14.87116
G1 X88.829 Y127.781 E14.90789
G1 X89.926 Y127.729 E14.94442
G0 F7500 X89.854 Y127.224
G0 X89.768 Y126.835
G0 X89.757 Y126.575
;TYPE:SKIN
G1 F1350 X90.62 Y126.365 E14.97396
G1 X91.421 Y125.999 E15.00325
G1 X92.133 Y125.492 E15.03232
G1 X92.748 Y124.848 E15.06194
G1 X93.226 Y124.106 E15.09129
G1 X93.548 Y123.297 E15.12025
G1 X93.717 Y122.424 E15.14983
G1 X93.717 Y121.546 E15.17903
G1 X93.548 Y120.68 E15.20838
G1 X93.222 Y119.863 E15.23764
G1 X92.748 Y119.13 E15.26667
G1 X92.133 Y118.485 E15.29631
G1 X91.422 Y117.979 E15.32534
G1 X90.62 Y117.613 E15.35466
G1 X89.757 Y117.403 E15.3842
G1 X88.886 Y117.362 E15.4132
G1 X88.01 Y117.489 E15.44264
G1 X87.17 Y117.776 E15.47216
G1 X86.43 Y118.208 E15.50066
G1 X85.755 Y118.79 E15.53031
G1 X85.205 Y119.488 E15.55986
G1 X84.802 Y120.271 E15.58915
G1 X84.555 Y121.116 E15.61843
G1 X84.471 Y121.991 E15.64767
G1 X84.555 Y122.862 E15.67677
G1 X84.802 Y123.707 E15.70606
G1 X85.205 Y124.488 E15.73529
G1 X85.756 Y125.188 E15.76492
G1 X86.418 Y125.765 E15.79412
G1 X87.175 Y126.201 E15.82318
G1 X88.011 Y126.489 E15.85259
G1 X88.886 Y126.616 E15.882
G1 X89.757 Y126.575 E15.911
G0 F7500 X89.768 Y126.835
G0 X90.51 Y126.609
G0 X91.861 Y126.006
G0 X91.593 Y125.629
G1 F1350 X92.753 Y124.469 E15.96556
G0 F7500 X93.14 Y124.719
G0 X93.74 Y123.515
G0 X93.313 Y123.344
G1 F1350 X90.46 Y126.197 E16.09976
G0 F7500 X89.715 Y126.376
G1 F1350 X93.475 Y122.616 E16.27662
G0 F7500 X93.516 Y122.009
G1 F1350 X89.122 Y126.403 E16.4833
G0 F7500 X88.59 Y126.369
G1 F1350 X93.497 Y121.463 E16.71408
G0 F7500 X93.404 Y120.99
G1 F1350 X88.096 Y126.298 E16.96375
G0 F7500 X87.669 Y126.159
G1 F1350 X93.28 Y120.548 E17.22768
G0 F7500 X93.118 Y120.144
G1 F1350 X87.249 Y126.013 E17.50374
G0 F7500 X86.891 Y125.806
G1 F1350 X92.925 Y119.772 E17.78756
G0 F7500 X92.703 Y119.428
G1 F1350 X86.532 Y125.599 E18.07782
G0 F7500 X86.23 Y125.335
