;FLAVOR:Marlin
;TIME:3963
;Filament used: 2.29031m
;Layer height: 0.2
;MINX:86.324
;MINY:96.347
;MINZ:0.2
;MAXX:155.044
;MAXY:138.665
;MAXZ:8
;Generated with Cura_SteamEngine 99.10.0-Arachne_engine_beta_2
M140 S60
M105
M190 S60
M104 S205
M105
M109 S205
M82 ;absolute extrusion mode
; Ender 3 Custom Start G-code
G92 E0 ; Reset Extruder
G28 ; Home all axes
;G29 ; Auto bed leveling (ABL)
G1 Z2.0 F3000 ; Move Z Axis up little to prevent scratching of Heat Bed
G1 X0.1 Y20 Z0.3 F5000.0 ; Move to start position
G1 X0.1 Y200.0 Z0.3 F1500.0 E15 ; Draw the first line
G1 X0.4 Y200.0 Z0.3 F5000.0 ; Move to side a little
G1 X0.4 Y20 Z0.3 F1500.0 E30 ; Draw the second line
G92 E0 ; Reset Extruder
G1 Z2.0 F3000 ; Move Z Axis up little to prevent scratching of Heat Bed
G1 X5 Y20 Z0.3 F5000.0 ; Move over to prevent blob squish
G92 E0
G92 E0
G1 F2700 E-5
;LAYER_COUNT:40
;LAYER:0
M107
;MESH:ArduinoSlotBody.stl
G0 F6000 X110.124 Y137 Z0.2
;TYPE:WALL-INNER
G1 F2700 E0
G1 F1200 X110.124 Y98 E1.29715
G1 X87.124 Y98 E2.06213
G1 X87.124 Y137 E3.35927
G1 X110.124 Y137 E4.12426
G0 F6000 X110.524 Y137.4
G1 F1200 X110.524 Y97.6 E5.44801
G1 X86.724 Y97.6 E6.2396
G1 X86.724 Y137.4 E7.56335
G1 X110.524 Y137.4 E8.35495
G0 F6000 X110.924 Y137.8
;TYPE:WALL-OUTER
G1 F1200 X110.924 Y97.2 E9.70531
G1 X86.324 Y97.2 E10.52351
G1 X86.324 Y137.8 E11.87387
G1 X110.924 Y137.8 E12.69207
G1 F2700 E7.69207
G0 F6000 X110.444 Y137.32
G0 X110.024 Y136.64
G1 F2700 E12.69207
G0 F6000 X109.764 Y136.64
;TYPE:SKIN
G1 F1200 X109.764 Y98.36 E13.96527
G1 X87.484 Y98.36 E14.7063
G1 X87.484 Y136.64 E15.9795
G1 X109.764 Y136.64 E16.72054
G0 F6000 X110.024 Y136.64
G0 X87.79 Y136.9
G0 X87.79 Y136.439
G1 F1200 X87.684 Y136.333 E16.72552
G0 F6000 X87.684 Y135.767
G1 F1200 X88.355 Y136.439 E16.75711
G0 F6000 X88.921 Y136.439
G1 F1200 X87.684 Y135.201 E16.81531
G0 F6000 X87.684 Y134.635
G1 F1200 X89.487 Y136.439 E16.90015
G0 F6000 X90.052 Y136.439
G1 F1200 X87.684 Y134.07 E17.01155
G0 F6000 X87.684 Y133.504
G1 F1200 X90.618 Y136.439 E17.14958
G0 F6000 X91.184 Y136.439
G1 F1200 X87.684 Y132.938 E17.31424
G0 F6000 X87.684 Y132.373
G1 F1200 X91.749 Y136.439 E17.50546
G0 F6000 X92.315 Y136.439
G1 F1200 X87.684 Y131.807 E17.72332
G0 F6000 X87.684 Y131.241
G1 F1200 X92.881 Y136.439 E17.96779
G0 F6000 X93.446 Y136.439
G1 F1200 X87.684 Y130.676 E18.23884
G0 F6000 X87.684 Y130.11
G1 F1200 X94.012 Y136.439 E18.53651
G0 F6000 X94.578 Y136.439
G1 F1200 X87.684 Y129.544 E18.86081
G0 F6000 X87.684 Y128.979
G1 F1200 X95.144 Y136.439 E19.21171
G0 F6000 X95.709 Y136.439
G1 F1200 X87.684 Y128.413 E19.5892
G0 F6000 X87.684 Y127.847
G1 F1200 X96.275 Y136.439 E19.99332
G0 F6000 X96.841 Y136.439
G1 F1200 X87.684 Y127.282 E20.42404
G0 F6000 X87.684 Y126.716
G1 F1200 X97.406 Y136.439 E20.88135
G0 F6000 X97.972 Y136.439
G1 F1200 X87.684 Y126.15 E21.36529
G0 F6000 X87.684 Y125.584
G1 F1200 X98.538 Y136.439 E21.87585
G0 F6000 X99.103 Y136.439
G1 F1200 X87.684 Y125.019 E22.41299
G0 F6000 X87.684 Y124.453
G1 F1200 X99.669 Y136.439 E22.97675
G0 F6000 X100.235 Y136.439
G1 F1200 X87.684 Y123.887 E23.56714
G0 F6000 X87.684 Y123.322
G1 F1200 X100.8 Y136.439 E24.1841
G0 F6000 X101.366 Y136.439
G1 F1200 X87.684 Y122.756 E24.82768
G0 F6000 X87.684 Y122.19
G1 F1200 X101.932 Y136.439 E25.49789
G0 F6000 X102.497 Y136.439
G1 F1200 X87.684 Y121.625 E26.19467
G0 F6000 X87.684 Y121.059
G1 F1200 X103.063 Y136.439 E26.91807
G0 F6000 X103.629 Y136.439
G1 F1200 X87.684 Y120.493 E27.6681
G0 F6000 X87.684 Y119.928
G1 F1200 X104.195 Y136.439 E28.44473
G0 F6000 X104.76 Y136.439
G1 F1200 X87.684 Y119.362 E29.24795
G0 F6000 X87.684 Y118.796
G1 F1200 X105.326 Y136.439 E30.0778
G0 F6000 X105.892 Y136.439
G1 F1200 X87.684 Y118.231 E30.93425
G0 F6000 X87.684 Y117.665
G1 F1200 X106.457 Y136.439 E31.8173
G0 F6000 X107.023 Y136.439
G1 F1200 X87.684 Y117.099 E32.72697
G0 F6000 X87.684 Y116.534
G1 F1200 X107.589 Y136.439 E33.66324
G0 F6000 X108.154 Y136.439
G1 F1200 X87.684 Y115.968 E34.62611
G0 F6000 X87.684 Y115.402
G1 F1200 X108.72 Y136.439 E35.6156
G0 F6000 X109.286 Y136.439
G1 F1200 X87.684 Y114.836 E36.63172
G0 F6000 X87.684 Y114.271
G1 F1200 X109.564 Y136.151 E37.66088
G0 F6000 X109.564 Y135.585
G1 F1200 X87.684 Y113.705 E38.69005
G0 F6000 X87.684 Y113.139
G1 F1200 X109.564 Y135.019 E39.71922
G0 F6000 X109.564 Y134.454
G1 F1200 X87.684 Y112.574 E40.74839
G0 F6000 X87.684 Y112.008
G1 F1200 X109.564 Y133.888 E41.77756
G0 F6000 X109.564 Y133.322
G1 F1200 X87.684 Y111.442 E42.80672
G0 F6000 X87.684 Y110.877
G1 F1200 X109.564 Y132.757 E43.83589
G0 F6000 X109.564 Y132.191
G1 F1200 X87.684 Y110.311 E44.86506
G0 F6000 X87.684 Y109.745
G1 F1200 X109.564 Y131.625 E45.89423
G0 F6000 X109.564 Y131.06
G1 F1200 X87.684 Y109.18 E46.9234
G0 F6000 X87.684 Y108.614
G1 F1200 X109.564 Y130.494 E47.95257
G0 F6000 X109.564 Y129.928
G1 F1200 X87.684 Y108.048 E48.98173
G0 F6000 X87.684 Y107.483
G1 F1200 X109.564 Y129.363 E50.0109
G0 F6000 X109.564 Y128.797
G1 F1200 X87.684 Y106.917 E51.04007
G0 F6000 X87.684 Y106.351
G1 F1200 X109.564 Y128.231 E52.06924
G0 F6000 X109.564 Y127.666
G1 F1200 X87.684 Y105.786 E53.09841
G0 F6000 X87.684 Y105.22
G1 F1200 X109.564 Y127.1 E54.12757
G0 F6000 X109.564 Y126.534
G1 F1200 X87.684 Y104.654 E55.15674
G0 F6000 X87.684 Y104.088
G1 F1200 X109.564 Y125.968 E56.18591
G0 F6000 X109.564 Y125.403
G1 F1200 X87.684 Y103.523 E57.21508
G0 F6000 X87.684 Y102.957
G1 F1200 X109.564 Y124.837 E58.24425
G0 F6000 X109.564 Y124.271
G1 F1200 X87.684 Y102.391 E59.27341
G0 F6000 X87.684 Y101.826
G1 F1200 X109.564 Y123.706 E60.30258
G0 F6000 X109.564 Y123.14
G1 F1200 X87.684 Y101.26 E61.33175
G0 F6000 X87.684 Y100.694
G1 F1200 X109.564 Y122.574 E62.36092
G0 F6000 X109.564 Y122.009
G1 F1200 X87.684 Y100.129 E63.39009
G0 F6000 X87.684 Y99.563
G1 F1200 X109.564 Y121.443 E64.41926
G0 F6000 X109.564 Y120.877
G1 F1200 X87.684 Y98.997 E65.44842
G0 F6000 X87.811 Y98.559
G1 F1200 X109.564 Y120.312 E66.47162
G0 F6000 X109.564 Y119.746
G1 F1200 X88.377 Y98.559 E67.46819
G0 F6000 X88.942 Y98.559
G1 F1200 X109.564 Y119.18 E68.43816
G0 F6000 X109.564 Y118.615
G1 F1200 X89.508 Y98.559 E69.38153
G0 F6000 X90.074 Y98.559
G1 F1200 X109.564 Y118.049 E70.29828
G0 F6000 X109.564 Y117.483
G1 F1200 X90.639 Y98.559 E71.18843
G0 F6000 X91.205 Y98.559
G1 F1200 X109.564 Y116.917 E72.05196
G0 F6000 X109.564 Y116.352
G1 F1200 X91.771 Y98.559 E72.88889
G0 F6000 X92.336 Y98.559
G1 F1200 X109.564 Y115.786 E73.69922
G0 F6000 X109.564 Y115.22
G1 F1200 X92.902 Y98.559 E74.48292
G0 F6000 X93.468 Y98.559
G1 F1200 X109.564 Y114.655 E75.24003
G0 F6000 X109.564 Y114.089
G1 F1200 X94.033 Y98.559 E75.97054
G0 F6000 X94.599 Y98.559
G1 F1200 X109.564 Y113.523 E76.67442
G0 F6000 X109.564 Y112.958
G1 F1200 X95.165 Y98.559 E77.35171
G0 F6000 X95.73 Y98.559
G1 F1200 X109.564 Y112.392 E78.00239
G0 F6000 X109.564 Y111.826
G1 F1200 X96.296 Y98.559 E78.62646
G0 F6000 X96.862 Y98.559
G1 F1200 X109.564 Y111.261 E79.22392
G0 F6000 X109.564 Y110.695
G1 F1200 X97.428 Y98.559 E79.79476
G0 F6000 X97.993 Y98.559
G1 F1200 X109.564 Y110.129 E80.339
G0 F6000 X109.564 Y109.564
G1 F1200 X98.559 Y98.559 E80.85664
G0 F6000 X99.125 Y98.559
G1 F1200 X109.564 Y108.998 E81.34766
G0 F6000 X109.564 Y108.432
G1 F1200 X99.69 Y98.559 E81.81208
G0 F6000 X100.256 Y98.559
G1 F1200 X109.564 Y107.867 E82.2499
G0 F6000 X109.564 Y107.301
G1 F1200 X100.822 Y98.559 E82.6611
G0 F6000 X101.387 Y98.559
G1 F1200 X109.564 Y106.735 E83.04569
G0 F6000 X109.564 Y106.169
G1 F1200 X101.953 Y98.559 E83.40367
G0 F6000 X102.519 Y98.559
G1 F1200 X109.564 Y105.604 E83.73504
G0 F6000 X109.564 Y105.038
G1 F1200 X103.084 Y98.559 E84.03982
G0 F6000 X103.65 Y98.559
G1 F1200 X109.564 Y104.472 E84.31797
G0 F6000 X109.564 Y103.907
G1 F1200 X104.216 Y98.559 E84.56953
G0 F6000 X104.781 Y98.559
G1 F1200 X109.564 Y103.341 E84.79448
G0 F6000 X109.564 Y102.775
G1 F1200 X105.347 Y98.559 E84.99281
G0 F6000 X105.913 Y98.559
G1 F1200 X109.564 Y102.21 E85.16454
G0 F6000 X109.564 Y101.644
G1 F1200 X106.478 Y98.559 E85.30967
G0 F6000 X107.044 Y98.559
G1 F1200 X109.564 Y101.078 E85.42818
G0 F6000 X109.564 Y100.513
G1 F1200 X107.61 Y98.559 E85.52009
G0 F6000 X108.176 Y98.559
G1 F1200 X109.564 Y99.947 E85.58538
G0 F6000 X109.564 Y99.381
G1 F1200 X108.741 Y98.559 E85.62407
G0 F6000 X109.307 Y98.559
G1 F1200 X109.564 Y98.816 E85.63616
G0 F6000 X110.114 Y98.816
G1 F2700 E80.63616
;MESH:ArduinoSlotTop.stl
G0 F6000 X110.694 Y137
G0 X111.789 Y137
G0 X128.714 Y137
G0 X129.809 Y137
G0 X130.379 Y137
;TYPE:WALL-INNER
G1 F2700 E85.63616
G1 F1200 X153.379 Y137 E86.40114
G1 X153.379 Y98 E87.69829
G1 X130.379 Y98 E88.46327
G1 X130.379 Y137 E89.76041
G0 F6000 X129.979 Y137.4
G1 F1200 X153.779 Y137.4 E90.55201
G1 X153.779 Y97.6 E91.87576
G1 X129.979 Y97.6 E92.66735
G1 X129.979 Y137.4 E93.9911
G0 F6000 X129.579 Y137.8
;TYPE:WALL-OUTER
G1 F1200 X154.179 Y137.8 E94.8093
G1 X154.179 Y97.2 E96.15966
G1 X129.579 Y97.2 E96.97786
G1 X129.579 Y137.8 E98.32823
G1 F2700 E93.32823
G0 F6000 X130.059 Y137.32
G0 X130.479 Y136.64
G1 F2700 E98.32823
G0 F6000 X130.739 Y136.64
;TYPE:SKIN
G1 F1200 X153.019 Y136.64 E99.06926
G1 X153.019 Y98.36 E100.34246
G1 X130.739 Y98.36 E101.0835
G1 X130.739 Y136.64 E102.35669
G0 F6000 X131.347 Y136.439
G1 F1200 X130.938 Y136.029 E102.37595
G0 F6000 X130.938 Y135.463
G1 F1200 X131.913 Y136.439 E102.42184
G0 F6000 X132.479 Y136.439
G1 F1200 X130.938 Y134.898 E102.49432
G0 F6000 X130.938 Y134.332
G1 F1200 X133.044 Y136.439 E102.59341
G0 F6000 X133.61 Y136.439
G1 F1200 X130.938 Y133.766 E102.71911
G0 F6000 X130.938 Y133.201
G1 F1200 X134.176 Y136.439 E102.87142
G0 F6000 X134.742 Y136.439
G1 F1200 X130.938 Y132.635 E103.05035
G0 F6000 X130.938 Y132.069
G1 F1200 X135.307 Y136.439 E103.25587
G0 F6000 X135.873 Y136.439
G1 F1200 X130.938 Y131.504 E103.488
G0 F6000 X130.938 Y130.938
G1 F1200 X136.439 Y136.439 E103.74675
G0 F6000 X137.004 Y136.439
G1 F1200 X130.938 Y130.372 E104.0321
G0 F6000 X130.938 Y129.807
G1 F1200 X137.57 Y136.439 E104.34405
G0 F6000 X138.136 Y136.439
G1 F1200 X130.938 Y129.241 E104.68262
G0 F6000 X130.938 Y128.675
G1 F1200 X138.701 Y136.439 E105.04779
G0 F6000 X139.267 Y136.439
G1 F1200 X130.938 Y128.11 E105.43956
G0 F6000 X130.938 Y127.544
G1 F1200 X139.833 Y136.439 E105.85796
G0 F6000 X140.398 Y136.439
G1 F1200 X130.938 Y126.978 E106.30295
G0 F6000 X130.938 Y126.413
G1 F1200 X140.964 Y136.439 E106.77454
G0 F6000 X141.53 Y136.439
G1 F1200 X130.938 Y125.847 E107.27276
G0 F6000 X130.938 Y125.281
G1 F1200 X142.096 Y136.439 E107.7976
G0 F6000 X142.662 Y136.439
G1 F1200 X130.938 Y124.715 E108.34906
G0 F6000 X130.938 Y124.15
G1 F1200 X143.228 Y136.439 E108.92712
G0 F6000 X143.793 Y136.439
G1 F1200 X130.938 Y123.584 E109.53178
G0 F6000 X130.938 Y123.018
G1 F1200 X144.359 Y136.439 E110.16306
G0 F6000 X144.925 Y136.439
G1 F1200 X130.938 Y122.453 E110.82094
G0 F6000 X130.938 Y121.887
G1 F1200 X145.49 Y136.439 E111.50542
G0 F6000 X146.056 Y136.439
G1 F1200 X130.938 Y121.321 E112.21653
G0 F6000 X130.938 Y120.756
G1 F1200 X146.622 Y136.439 E112.95423
G0 F6000 X147.187 Y136.439
G1 F1200 X130.938 Y120.19 E113.71854
G0 F6000 X130.938 Y119.624
G1 F1200 X147.753 Y136.439 E114.50946
G0 F6000 X148.319 Y136.439
G1 F1200 X130.938 Y119.059 E115.32699
G0 F6000 X130.938 Y118.493
G1 F1200 X148.884 Y136.439 E116.17111
G0 F6000 X149.45 Y136.439
G1 F1200 X130.938 Y117.927 E117.04186
G0 F6000 X130.938 Y117.362
G1 F1200 X150.016 Y136.439 E117.93921
G0 F6000 X150.581 Y136.439
G1 F1200 X130.938 Y116.796 E118.86315
G0 F6000 X130.938 Y116.23
G1 F1200 X151.147 Y136.439 E119.81372
G0 F6000 X151.713 Y136.439
G1 F1200 X130.938 Y115.664 E120.79091
G0 F6000 X130.938 Y115.099
G1 F1200 X152.278 Y136.439 E121.79468
G0 F6000 X152.818 Y136.413
G1 F1200 X130.938 Y114.533 E122.82385
G0 F6000 X130.938 Y113.967
G1 F1200 X152.818 Y135.847 E123.85302
G0 F6000 X152.818 Y135.282
G1 F1200 X130.938 Y113.402 E124.88219
G0 F6000 X130.938 Y112.836
G1 F1200 X152.818 Y134.716 E125.91136
G0 F6000 X152.818 Y134.15
G1 F1200 X130.938 Y112.27 E126.94052
G0 F6000 X130.938 Y111.705
G1 F1200 X152.818 Y133.585 E127.96969
G0 F6000 X152.818 Y133.019
G1 F1200 X130.938 Y111.139 E128.99886
G0 F6000 X130.938 Y110.573
G1 F1200 X152.818 Y132.453 E130.02803
G0 F6000 X152.818 Y131.888
G1 F1200 X130.938 Y110.008 E131.0572
G0 F6000 X130.938 Y109.442
G1 F1200 X152.818 Y131.322 E132.08636
G0 F6000 X152.818 Y130.756
G1 F1200 X130.938 Y108.876 E133.11553
G0 F6000 X130.938 Y108.311
G1 F1200 X152.818 Y130.191 E134.1447
G0 F6000 X152.818 Y129.625
G1 F1200 X130.938 Y107.745 E135.17387
G0 F6000 X130.938 Y107.179
G1 F1200 X152.818 Y129.059 E136.20304
G0 F6000 X152.818 Y128.494
G1 F1200 X130.938 Y106.614 E137.2322
G0 F6000 X130.938 Y106.048
G1 F1200 X152.818 Y127.928 E138.26137
G0 F6000 X152.818 Y127.362
G1 F1200 X130.938 Y105.482 E139.29054
G0 F6000 X130.938 Y104.916
G1 F1200 X152.818 Y126.796 E140.31971
G0 F6000 X152.818 Y126.231
G1 F1200 X130.938 Y104.351 E141.34888
G0 F6000 X130.938 Y103.785
G1 F1200 X152.818 Y125.665 E142.37805
G0 F6000 X152.818 Y125.099
G1 F1200 X130.938 Y103.219 E143.40721
G0 F6000 X130.938 Y102.654
G1 F1200 X152.818 Y124.534 E144.43638
G0 F6000 X152.818 Y123.968
G1 F1200 X130.938 Y102.088 E145.46555
G0 F6000 X130.938 Y101.522
G1 F1200 X152.818 Y123.402 E146.49472
G0 F6000 X152.818 Y122.837
G1 F1200 X130.938 Y100.957 E147.52389
G0 F6000 X130.938 Y100.391
G1 F1200 X152.818 Y122.271 E148.55305
G0 F6000 X152.818 Y121.705
G1 F1200 X130.938 Y99.825 E149.58222
G0 F6000 X130.938 Y99.26
G1 F1200 X152.818 Y121.14 E150.61139
G0 F6000 X152.818 Y120.574
G1 F1200 X130.938 Y98.694 E151.64056
G0 F6000 X131.369 Y98.56
G1 F1200 X152.818 Y120.008 E152.64943
G0 F6000 X152.818 Y119.443
G1 F1200 X131.935 Y98.56 E153.6317
G0 F6000 X132.501 Y98.56
G1 F1200 X152.818 Y118.877 E154.58735
G0 F6000 X152.818 Y118.311
G1 F1200 X133.066 Y98.56 E155.5164
G0 F6000 X133.632 Y98.56
G1 F1200 X152.818 Y117.746 E156.41885
G0 F6000 X152.818 Y117.18
G1 F1200 X134.198 Y98.56 E157.29468
G0 F6000 X134.763 Y98.56
G1 F1200 X152.818 Y116.614 E158.14391
G0 F6000 X152.818 Y116.048
G1 F1200 X135.329 Y98.56 E158.96651
G0 F6000 X135.895 Y98.56
G1 F1200 X152.818 Y115.483 E159.76252
G0 F6000 X152.818 Y114.917
G1 F1200 X136.461 Y98.56 E160.5319
G0 F6000 X137.026 Y98.56
G1 F1200 X152.818 Y114.351 E161.27469
G0 F6000 X152.818 Y113.786
G1 F1200 X137.592 Y98.56 E161.99087
G0 F6000 X138.158 Y98.56
G1 F1200 X152.818 Y113.22 E162.68043
G0 F6000 X152.818 Y112.654
G1 F1200 X138.723 Y98.56 E163.34339
G0 F6000 X139.289 Y98.56
G1 F1200 X152.818 Y112.089 E163.97976
G0 F6000 X152.818 Y111.523
G1 F1200 X139.855 Y98.56 E164.5895
G0 F6000 X140.42 Y98.56
G1 F1200 X152.818 Y110.957 E165.17264
G0 F6000 X152.818 Y110.392
G1 F1200 X140.986 Y98.56 E165.72918
G0 F6000 X141.552 Y98.56
G1 F1200 X152.818 Y109.826 E166.2591
G0 F6000 X152.818 Y109.26
G1 F1200 X142.117 Y98.56 E166.76242
G0 F6000 X142.683 Y98.56
G1 F1200 X152.818 Y108.695 E167.23913
G0 F6000 X152.818 Y108.129
G1 F1200 X143.249 Y98.56 E167.68923
G0 F6000 X143.814 Y98.56
G1 F1200 X152.818 Y107.563 E168.11273
G0 F6000 X152.818 Y106.997
G1 F1200 X144.38 Y98.56 E168.5096
G0 F6000 X144.946 Y98.56
G1 F1200 X152.818 Y106.432 E168.87988
G0 F6000 X152.818 Y105.866
G1 F1200 X145.511 Y98.56 E169.22355
G0 F6000 X146.077 Y98.56
G1 F1200 X152.818 Y105.3 E169.5406
G0 F6000 X152.818 Y104.735
G1 F1200 X146.643 Y98.56 E169.83106
G0 F6000 X147.209 Y98.56
G1 F1200 X152.818 Y104.169 E170.09489
G0 F6000 X152.818 Y103.603
G1 F1200 X147.774 Y98.56 E170.33212
G0 F6000 X148.34 Y98.56
G1 F1200 X152.818 Y103.038 E170.54275
G0 F6000 X152.818 Y102.472
G1 F1200 X148.906 Y98.56 E170.72676
G0 F6000 X149.471 Y98.56
G1 F1200 X152.818 Y101.906 E170.88417
G0 F6000 X152.818 Y101.341
G1 F1200 X150.037 Y98.56 E171.01498
G0 F6000 X150.603 Y98.56
G1 F1200 X152.818 Y100.775 E171.11916
G0 F6000 X152.818 Y100.209
G1 F1200 X151.168 Y98.56 E171.19675
G0 F6000 X151.734 Y98.56
G1 F1200 X152.818 Y99.644 E171.24774
G0 F6000 X152.818 Y99.078
G1 F1200 X152.3 Y98.56 E171.2721
G0 F6000 X152.3 Y98.01
G1 F2700 E166.2721
;MESH:NONMESH
G0 F300 X152.3 Y98.01 Z0.4
G0 F6000 X130.551 Y98.172
G0 X129.809 Y137
G0 X128.714 Y137
G0 X111.789 Y137
G0 X110.694 Y137
G0 X110.124 Y137
